; generated by Slic3r 1.2.9 on 2017-09-18 at 17:27:16

; external perimeters extrusion width = 0.50mm
; perimeters extrusion width = 0.58mm
; infill extrusion width = 0.58mm
; solid infill extrusion width = 0.58mm
; top infill extrusion width = 0.58mm

M127
M109 S220 ; set bed temperature
M104 S220 T0 ; set temperature
G28 ; home all axes
G1 Z5 F5000 ; lift nozzle

M73 P0
G1 Z0.500 F7800.000
G1 E-2.00000 F2400.00000
M103 ; extruder off
G1 X36.912 Y54.365 F7800.000
M101 ; extruder on
G1 E0.00000 F2400.00000
G1 X38.488 Y53.657 E0.24551 F1800.000
G1 X66.498 Y45.155 E4.40434
G1 X68.500 Y44.857 E4.69192
G1 X88.500 Y44.857 E7.53347
G1 X90.806 Y45.254 E7.86588
M101 ; extruder on
G1 X92.714 Y46.296 E8.17479 F1800.000
G1 X103.715 Y54.796 E10.14990
G1 X105.296 Y56.520 E10.48232
G1 X106.210 Y58.674 E10.81474
G1 X106.393 Y60.250 E11.04018
G1 X106.393 Y63.250 E11.46641
G1 X105.996 Y65.556 E11.79883
G1 X104.850 Y67.596 E12.13125
G1 X103.088 Y69.135 E12.46366
G1 X100.913 Y69.996 E12.79608
G1 X99.500 Y70.143 E12.99786
G1 X40.500 Y70.143 E21.38043
G1 X38.194 Y69.746 E21.71285
G1 X36.154 Y68.600 E22.04527
G1 X34.615 Y66.838 E22.37768
G1 X33.754 Y64.663 E22.71010
G1 X33.607 Y63.250 E22.91188
G1 X33.607 Y60.250 E23.33811
G1 X34.004 Y57.944 E23.67053
G1 X35.150 Y55.904 E24.00295
G1 X36.855 Y54.414 E24.32471
G1 E22.32471 F2400.00000
M103 ; extruder off
G1 X67.088 Y56.965 F7800.000
M101 ; extruder on
G1 E24.32471 F2400.00000
G1 X65.088 Y60.965 E24.96010 F1800.000
G1 X60.116 Y60.965 E25.66643
G1 X58.803 Y58.119 E26.11166
G1 X52.673 Y59.482 E27.00390
G1 X52.542 Y58.983 E27.07716
G1 X68.839 Y54.035 E29.49703
G1 X87.720 Y54.035 E32.17954
G1 X96.218 Y60.602 E33.70538
G1 X96.094 Y60.965 E33.75981
G1 X91.912 Y60.965 E34.35393
G1 X89.912 Y56.965 E34.98932
G1 X67.163 Y56.965 E38.22157
G1 X67.639 Y57.857 F7800.000
M101 ; extruder on
G1 X65.639 Y61.857 E38.85696 F1800.000
G1 X59.545 Y61.857 E39.72283
G1 X58.294 Y59.147 E40.14695
G1 X47.107 Y61.633 E41.77510
G1 X47.107 Y61.857 E41.80699
G1 X41.893 Y61.857 E42.54787
G1 X41.893 Y61.283 E42.62951
G1 X68.707 Y53.143 E46.61085
G1 X88.025 Y53.143 E49.35549
G1 X98.107 Y60.934 E51.16586
G1 X98.107 Y61.857 E51.29706
G1 X91.361 Y61.857 E52.25560
G1 X89.361 Y57.857 E52.89099
G1 X67.714 Y57.857 E55.96646
G1 X68.191 Y58.750 F7800.000
M101 ; extruder on
G1 X66.191 Y62.750 E56.60185 F1800.000
G1 X58.974 Y62.750 E57.62726
G1 X57.785 Y60.174 E58.03028
G1 X48.000 Y62.349 E59.45443
G1 X48.000 Y62.750 E59.51142
G1 X41.000 Y62.750 E60.50596
G1 X41.000 Y60.621 E60.80848
G1 X68.574 Y52.250 E64.90269
G1 X88.329 Y52.250 E67.70945
G1 X99.000 Y60.496 E69.62540
G1 X99.000 Y62.750 E69.94571
G1 X90.809 Y62.750 E71.10946
G1 X88.809 Y58.750 E71.74485
G1 X68.266 Y58.750 E74.66356
G1 X67.715 Y58.598 F7800.000
G1 X60.371 Y59.976 F7800.000
M101 ; extruder on
G1 X60.811 Y60.415 E74.75504 F1800.000
G1 X62.118 Y60.415 E74.94741
G1 X59.251 Y57.548 E75.54414
G1 X60.195 Y57.185 E75.69303
G1 X63.426 Y60.415 E76.36526
G1 X64.733 Y60.415 E76.55763
G1 X61.198 Y56.880 E77.29322
G1 X62.201 Y56.576 E77.44745
G1 X65.227 Y59.602 E78.07709
G1 X65.663 Y58.730 E78.22048
G1 X63.204 Y56.271 E78.73211
G1 X64.207 Y55.967 E78.88633
G1 X66.099 Y57.858 E79.27994
G1 X66.535 Y56.987 E79.42333
G1 X65.210 Y55.662 E79.69892
G1 X66.213 Y55.358 E79.85315
G1 X67.271 Y56.415 E80.07318
G1 X68.578 Y56.415 E80.26555
G1 X67.216 Y55.053 E80.54894
G1 X68.219 Y54.749 E80.70316
G1 X69.885 Y56.415 E81.04990
G1 X71.193 Y56.415 E81.24228
G1 X69.362 Y54.585 E81.62316
G1 X70.670 Y54.585 E81.81554
G1 X72.500 Y56.415 E82.19642
G1 X73.808 Y56.415 E82.38879
G1 X71.977 Y54.585 E82.76967
G1 X73.285 Y54.585 E82.96205
G1 X75.115 Y56.415 E83.34293
G1 X76.423 Y56.415 E83.53531
G1 X74.592 Y54.585 E83.91619
G1 X75.900 Y54.585 E84.10856
G1 X77.730 Y56.415 E84.48944
G1 X79.038 Y56.415 E84.68182
G1 X77.207 Y54.585 E85.06270
G1 X78.515 Y54.585 E85.25507
G1 X80.345 Y56.415 E85.63595
G1 X81.652 Y56.415 E85.82833
G1 X79.822 Y54.585 E86.20921
G1 X81.129 Y54.585 E86.40159
G1 X82.960 Y56.415 E86.78247
G1 X84.267 Y56.415 E86.97484
G1 X82.437 Y54.585 E87.35572
G1 X83.744 Y54.585 E87.54810
G1 X85.575 Y56.415 E87.92898
G1 X86.882 Y56.415 E88.12136
G1 X85.052 Y54.585 E88.50224
G1 X86.359 Y54.585 E88.69461
G1 X88.190 Y56.415 E89.07549
G1 X88.987 Y55.905 E89.21477
G1 X89.477 Y56.395 E89.31673
G1 X90.246 Y56.581 F7800.000
M101 ; extruder on
G1 X91.762 Y58.424 E89.65591 F1800.000
G1 X92.147 Y59.972 F7800.000
M101 ; extruder on
G1 X92.591 Y60.415 E89.80291 F1800.000
G1 X94.164 Y59.905 E90.19048
G1 X94.654 Y60.395 E90.35289
G1 X90.890 Y57.364 F7800.000
G1 X65.211 Y56.914 F7800.000
G1 X60.849 Y58.316 F7800.000
G1 X57.692 Y57.898 F7800.000
G1 X47.211 Y60.649 F7800.000
G1 X52.175 Y59.346 F7800.000
M101 ; extruder on
G1 X46.560 Y60.820 E92.10178 F1800.000
G1 X46.321 Y60.919 E92.17964
G1 X44.731 Y61.155 E92.66391
G1 X44.731 Y61.155 F7800.000
M101 ; extruder on
G1 X43.179 Y61.385 E92.88680 F1800.000
M73 P0
G1 Z0.900 F7800.000
G1 X67.762 Y58.057 F7800.000
M101 ; extruder on
G1 X65.762 Y62.057 E93.16631 F3600.000
G1 X59.417 Y62.057 E93.56288
G1 X58.180 Y59.376 E93.74737
G1 X47.307 Y61.793 E94.44356
G1 X47.307 Y62.057 E94.46006
G1 X41.693 Y62.057 E94.81088
G1 X41.693 Y61.135 E94.86849
G1 X68.677 Y52.943 E96.63097
G1 X88.093 Y52.943 E97.84444
G1 X98.307 Y60.836 E98.65120
G1 X98.307 Y62.057 E98.72749
G1 X91.238 Y62.057 E99.16930
G1 X89.238 Y58.057 E99.44881
G1 X67.837 Y58.057 E100.78632
G1 X68.066 Y58.547 F7800.000
M101 ; extruder on
G1 X66.066 Y62.547 E101.06582 F3600.000
G1 X59.103 Y62.547 E101.50098
G1 X57.901 Y59.941 E101.68038
G1 X47.797 Y62.186 E102.32722
G1 X47.797 Y62.547 E102.34978
G1 X41.203 Y62.547 E102.76197
G1 X41.203 Y60.771 E102.87300
G1 X68.604 Y52.453 E104.66279
G1 X88.260 Y52.453 E105.89128
G1 X98.797 Y60.595 E106.72358
G1 X98.797 Y62.547 E106.84561
G1 X90.934 Y62.547 E107.33707
G1 X88.934 Y58.547 E107.61657
G1 X68.141 Y58.547 E108.91616
G1 X68.345 Y59.000 F7800.000
M101 ; extruder on
G1 X66.345 Y63.000 E109.15198 F1800.000
G1 X58.814 Y63.000 E109.54915
G1 X57.643 Y60.462 E109.69654
G1 X48.250 Y62.549 E110.20391
G1 X48.250 Y63.000 E110.22767
G1 X40.750 Y63.000 E110.62316
G1 X40.750 Y60.435 E110.75840
G1 X68.537 Y52.000 E112.28971
G1 X88.415 Y52.000 E113.33790
G1 X99.250 Y60.373 E114.05999
G1 X99.250 Y63.000 E114.19853
G1 X90.655 Y63.000 E114.65179
G1 X88.655 Y59.000 E114.88761
G1 X68.420 Y59.000 E115.95460
G1 X67.869 Y58.848 F7800.000
G1 X66.853 Y59.091 F7800.000
M101 ; extruder on
G1 X64.181 Y61.764 E116.19265 F1200.000
G1 X64.881 Y61.764 F7800.000
M101 ; extruder on
G1 X66.153 Y60.491 E116.30605 F1200.000
G1 X67.882 Y55.674 F7800.000
G1 X87.220 Y55.500 F7800.000
G1 X89.118 Y56.148 F7800.000
G1 X89.118 Y58.250 F7800.000
G1 X89.171 Y57.764 F7800.000
M101 ; extruder on
G1 X91.241 Y55.694 E116.49044 F1200.000
G1 X90.846 Y55.389 E116.52186
G1 X88.471 Y57.764 E116.73343
G1 X87.772 Y57.764 E116.77751
G1 X90.452 Y55.084 E117.01624
G1 X90.057 Y54.779 E117.04767
G1 X87.072 Y57.764 E117.31357
G1 X86.372 Y57.764 E117.35765
G1 X89.662 Y54.474 E117.65072
G1 X89.268 Y54.169 E117.68215
G1 X85.673 Y57.764 E118.00239
G1 X84.973 Y57.764 E118.04647
G1 X88.873 Y53.864 E118.39388
G1 X88.478 Y53.559 E118.42530
G1 X84.273 Y57.764 E118.79989
G1 X83.574 Y57.764 E118.84397
G1 X88.083 Y53.254 E119.24572
G1 X87.401 Y53.236 E119.28873
G1 X82.874 Y57.764 E119.69202
G1 X82.174 Y57.764 E119.73609
G1 X86.701 Y53.236 E120.13939
G1 X86.002 Y53.236 E120.18346
G1 X81.475 Y57.764 E120.58675
G1 X80.775 Y57.764 E120.63083
G1 X85.302 Y53.236 E121.03412
G1 X84.602 Y53.236 E121.07820
G1 X80.075 Y57.764 E121.48149
G1 X79.376 Y57.764 E121.52556
G1 X83.903 Y53.236 E121.92886
G1 X83.203 Y53.236 E121.97293
G1 X78.676 Y57.764 E122.37622
G1 X77.976 Y57.764 E122.42030
G1 X82.503 Y53.236 E122.82359
G1 X81.804 Y53.236 E122.86767
G1 X77.277 Y57.764 E123.27096
G1 X76.577 Y57.764 E123.31503
G1 X81.104 Y53.236 E123.71833
G1 X80.404 Y53.236 E123.76240
G1 X75.877 Y57.764 E124.16569
G1 X75.178 Y57.764 E124.20977
G1 X79.705 Y53.236 E124.61306
G1 X79.005 Y53.236 E124.65714
G1 X74.478 Y57.764 E125.06043
G1 X73.778 Y57.764 E125.10450
G1 X78.305 Y53.236 E125.50780
G1 X77.606 Y53.236 E125.55187
G1 X73.079 Y57.764 E125.95516
G1 X72.379 Y57.764 E125.99924
G1 X76.906 Y53.236 E126.40253
G1 X76.206 Y53.236 E126.44661
G1 X71.679 Y57.764 E126.84990
G1 X70.980 Y57.764 E126.89397
G1 X75.507 Y53.236 E127.29727
G1 X74.807 Y53.236 E127.34134
G1 X70.280 Y57.764 E127.74463
G1 X69.580 Y57.764 E127.78871
G1 X74.107 Y53.236 E128.19200
G1 X73.408 Y53.236 E128.23608
G1 X68.881 Y57.764 E128.63937
G1 X68.181 Y57.764 E128.68344
G1 X72.708 Y53.236 E129.08674
G1 X72.008 Y53.236 E129.13081
G1 X63.481 Y61.764 E129.89045
G1 X62.781 Y61.764 E129.93452
G1 X71.309 Y53.236 E130.69416
G1 X70.609 Y53.236 E130.73823
G1 X62.082 Y61.764 E131.49787
G1 X61.382 Y61.764 E131.54194
G1 X69.909 Y53.236 E132.30157
G1 X69.210 Y53.236 E132.34565
G1 X60.682 Y61.764 E133.10528
G1 X59.983 Y61.764 E133.14936
G1 X68.366 Y53.381 E133.89616
G1 X67.361 Y53.685 E133.96230
G1 X59.478 Y61.569 E134.66461
G1 X59.257 Y61.090 E134.69782
G1 X66.356 Y53.990 E135.33031
G1 X65.352 Y54.295 E135.39645
G1 X59.036 Y60.612 E135.95912
G1 X58.815 Y60.133 E135.99233
G1 X64.347 Y54.600 E136.48519
G1 X63.343 Y54.905 E136.55132
G1 X58.594 Y59.654 E136.97436
G1 X58.373 Y59.175 E137.00757
G1 X62.338 Y55.210 E137.36079
G1 X61.333 Y55.515 E137.42693
G1 X57.689 Y59.160 E137.75157
G1 X56.789 Y59.359 E137.80962
G1 X60.329 Y55.820 E138.12490
G1 X59.324 Y56.125 E138.19104
G1 X55.890 Y59.559 E138.49696
G1 X54.990 Y59.759 E138.55501
G1 X58.319 Y56.430 E138.85157
G1 X57.315 Y56.735 E138.91770
G1 X54.091 Y59.959 E139.20490
G1 X53.191 Y60.159 E139.26295
G1 X56.310 Y57.040 E139.54079
G1 X55.305 Y57.345 E139.60693
G1 X52.292 Y60.359 E139.87540
G1 X51.392 Y60.559 E139.93345
G1 X54.301 Y57.650 E140.19257
G1 X53.296 Y57.955 E140.25871
G1 X50.492 Y60.759 E140.50846
G1 X49.593 Y60.959 E140.56651
G1 X52.291 Y58.260 E140.80690
G1 X51.287 Y58.565 E140.87304
G1 X48.693 Y61.159 E141.10407
G1 X47.794 Y61.359 E141.16212
G1 X50.282 Y58.870 E141.38379
G1 X49.277 Y59.175 E141.44993
G1 X46.689 Y61.764 E141.68051
G1 X45.989 Y61.764 E141.72458
G1 X48.273 Y59.480 E141.92799
G1 X47.268 Y59.785 E141.99413
G1 X45.290 Y61.764 E142.17037
G1 X44.590 Y61.764 E142.21444
G1 X46.263 Y60.090 E142.36351
G1 X45.259 Y60.395 E142.42965
G1 X43.890 Y61.764 E142.55154
G1 X43.191 Y61.764 E142.59562
G1 X44.254 Y60.700 E142.69035
G1 X43.249 Y61.005 E142.75649
G1 X42.491 Y61.764 E142.82404
G1 X42.245 Y61.310 E142.85655
G1 X41.986 Y61.568 E142.87954
G1 X61.596 Y58.652 F7800.000
G1 X69.057 Y55.500 F7800.000
G1 X89.118 Y56.148 F7800.000
G1 X89.118 Y58.250 F7800.000
G1 X89.543 Y58.091 F7800.000
M101 ; extruder on
G1 X91.636 Y55.999 E143.06598 F1200.000
G1 X92.030 Y56.304 E143.09740
G1 X89.776 Y58.558 E143.29823
G1 X90.009 Y59.024 E143.33108
G1 X92.425 Y56.609 E143.54629
G1 X92.820 Y56.914 E143.57771
G1 X90.243 Y59.491 E143.80730
G1 X90.476 Y59.957 E143.84015
G1 X93.214 Y57.219 E144.08413
G1 X93.609 Y57.524 E144.11555
G1 X90.709 Y60.424 E144.37391
G1 X90.942 Y60.890 E144.40676
G1 X94.004 Y57.829 E144.67950
G1 X94.399 Y58.134 E144.71092
G1 X91.175 Y61.357 E144.99805
G1 X91.468 Y61.764 E145.02963
G1 X94.793 Y58.438 E145.32584
G1 X95.188 Y58.743 E145.35726
G1 X92.168 Y61.764 E145.62630
G1 X92.868 Y61.764 E145.67037
G1 X95.583 Y59.048 E145.91225
G1 X95.977 Y59.353 E145.94367
G1 X93.567 Y61.764 E146.15837
G1 X94.267 Y61.764 E146.20244
G1 X96.372 Y59.658 E146.38997
G1 X96.767 Y59.963 E146.42139
G1 X94.967 Y61.764 E146.58176
G1 X95.666 Y61.764 E146.62583
G1 X97.161 Y60.268 E146.75902
G1 X97.556 Y60.573 E146.79044
G1 X96.366 Y61.764 E146.89646
G1 X97.066 Y61.764 E146.94054
G1 X97.943 Y60.886 E147.01870
G1 X98.014 Y61.515 E147.05858
G1 X97.765 Y61.764 E147.08069
M73 P0
G1 Z1.300 F7800.000
G1 E145.08069 F2400.00000
M103 ; extruder off
G1 X67.762 Y58.057 F7800.000
M101 ; extruder on
G1 E147.08069 F2400.00000
G1 X65.762 Y62.057 E147.36020 F3600.000
G1 X59.417 Y62.057 E147.75677
G1 X58.180 Y59.376 E147.94127
G1 X47.307 Y61.793 E148.63746
G1 X47.307 Y62.057 E148.65395
G1 X41.693 Y62.057 E149.00478
G1 X41.693 Y61.135 E149.06238
G1 X68.677 Y52.943 E150.82487
G1 X88.093 Y52.943 E152.03833
G1 X98.307 Y60.836 E152.84509
G1 X98.307 Y62.057 E152.92138
G1 X91.238 Y62.057 E153.36319
G1 X89.238 Y58.057 E153.64270
G1 X67.837 Y58.057 E154.98021
G1 X68.066 Y58.547 F7800.000
M101 ; extruder on
G1 X66.066 Y62.547 E155.25972 F3600.000
G1 X59.103 Y62.547 E155.69487
G1 X57.901 Y59.941 E155.87427
G1 X47.797 Y62.186 E156.52111
G1 X47.797 Y62.547 E156.54368
G1 X41.203 Y62.547 E156.95586
G1 X41.203 Y60.771 E157.06690
G1 X68.604 Y52.453 E158.85668
G1 X88.260 Y52.453 E160.08518
G1 X98.797 Y60.595 E160.91747
G1 X98.797 Y62.547 E161.03950
G1 X90.934 Y62.547 E161.53096
G1 X88.934 Y58.547 E161.81047
G1 X68.141 Y58.547 E163.11005
G1 X68.345 Y59.000 F7800.000
M101 ; extruder on
G1 X66.345 Y63.000 E163.34588 F1800.000
G1 X58.814 Y63.000 E163.74304
G1 X57.643 Y60.462 E163.89043
G1 X48.250 Y62.549 E164.39780
G1 X48.250 Y63.000 E164.42156
G1 X40.750 Y63.000 E164.81705
G1 X40.750 Y60.435 E164.95229
G1 X68.537 Y52.000 E166.48360
G1 X88.415 Y52.000 E167.53179
G1 X99.250 Y60.373 E168.25388
G1 X99.250 Y63.000 E168.39242
G1 X90.655 Y63.000 E168.84568
G1 X88.655 Y59.000 E169.08151
G1 X68.420 Y59.000 E170.14849
G1 X67.869 Y58.848 F7800.000
G1 X60.331 Y61.764 F7800.000
M101 ; extruder on
G1 X59.091 Y60.524 E170.25836 F1200.000
G1 X42.235 Y61.764 F7800.000
M101 ; extruder on
G1 X41.986 Y61.515 E170.28035 F1200.000
G1 X42.375 Y61.207 E170.31139
G1 X42.931 Y61.764 E170.36067
G1 X43.627 Y61.764 E170.40429
G1 X42.909 Y61.045 E170.46793
G1 X43.442 Y60.883 E170.50289
G1 X44.323 Y61.764 E170.58090
G1 X45.019 Y61.764 E170.62451
G1 X43.976 Y60.721 E170.71688
G1 X44.510 Y60.559 E170.75185
G1 X45.715 Y61.764 E170.85858
G1 X46.411 Y61.764 E170.90220
G1 X45.044 Y60.397 E171.02329
G1 X45.578 Y60.235 E171.05826
G1 X47.014 Y61.670 E171.18546
G1 X47.508 Y61.468 E171.21891
G1 X46.112 Y60.073 E171.34258
G1 X46.646 Y59.911 E171.37754
G1 X48.077 Y61.342 E171.50436
G1 X48.647 Y61.215 E171.54092
G1 X47.180 Y59.749 E171.67089
G1 X47.714 Y59.587 E171.70585
G1 X49.216 Y61.089 E171.83897
G1 X49.786 Y60.962 E171.87553
G1 X48.248 Y59.425 E172.01179
G1 X48.782 Y59.262 E172.04676
G1 X50.355 Y60.836 E172.18618
G1 X50.924 Y60.709 E172.22273
G1 X49.316 Y59.100 E172.36530
G1 X49.850 Y58.938 E172.40026
G1 X51.494 Y60.583 E172.54598
G1 X52.063 Y60.456 E172.58253
G1 X50.384 Y58.776 E172.73140
G1 X50.918 Y58.614 E172.76636
G1 X52.633 Y60.329 E172.91838
G1 X53.202 Y60.203 E172.95493
G1 X51.451 Y58.452 E173.11010
G1 X51.985 Y58.290 E173.14506
G1 X53.772 Y60.076 E173.30338
G1 X54.341 Y59.950 E173.33993
G1 X52.519 Y58.128 E173.50139
G1 X53.053 Y57.966 E173.53636
G1 X54.911 Y59.823 E173.70097
G1 X55.480 Y59.697 E173.73753
G1 X53.587 Y57.804 E173.90529
G1 X54.121 Y57.642 E173.94025
G1 X56.050 Y59.570 E174.11116
G1 X56.619 Y59.444 E174.14772
G1 X54.655 Y57.479 E174.32178
G1 X55.189 Y57.317 E174.35674
G1 X57.189 Y59.317 E174.53395
G1 X57.758 Y59.191 E174.57051
G1 X55.723 Y57.155 E174.75086
G1 X56.257 Y56.993 E174.78583
G1 X61.027 Y61.764 E175.20857
G1 X61.723 Y61.764 E175.25219
G1 X56.791 Y56.831 E175.68929
G1 X57.325 Y56.669 E175.72426
G1 X62.419 Y61.764 E176.17573
G1 X63.115 Y61.764 E176.21934
G1 X57.859 Y56.507 E176.68518
G1 X58.393 Y56.345 E176.72014
G1 X63.811 Y61.764 E177.20034
G1 X64.507 Y61.764 E177.24395
G1 X58.926 Y56.183 E177.73852
G1 X59.460 Y56.021 E177.77348
G1 X65.203 Y61.764 E178.28241
G1 X65.714 Y61.578 E178.31645
G1 X59.994 Y55.859 E178.82330
G1 X60.528 Y55.697 E178.85827
G1 X65.946 Y61.114 E179.33837
G1 X66.178 Y60.650 E179.37088
G1 X61.062 Y55.534 E179.82422
G1 X61.596 Y55.372 E179.85919
G1 X66.410 Y60.186 E180.28577
G1 X66.642 Y59.722 E180.31828
G1 X62.130 Y55.210 E180.71811
G1 X62.664 Y55.048 E180.75308
G1 X66.874 Y59.258 E181.12615
G1 X67.106 Y58.794 E181.15866
G1 X63.198 Y54.886 E181.50498
G1 X63.732 Y54.724 E181.53995
G1 X67.338 Y58.330 E181.85951
G1 X67.570 Y57.866 E181.89202
G1 X64.266 Y54.562 E182.18482
G1 X64.800 Y54.400 E182.21979
