; generated by Slic3r 1.2.9 on 2017-09-18 at 17:27:59

; external perimeters extrusion width = 0.50mm
; perimeters extrusion width = 0.58mm
; infill extrusion width = 0.58mm
; solid infill extrusion width = 0.58mm
; top infill extrusion width = 0.58mm

M127
M109 S220 ; set bed temperature
M104 S220 T0 ; set temperature
G28 ; home all axes
G1 Z5 F5000 ; lift nozzle

M73 P0
G1 Z0.500 F7800.000
G1 E-2.00000 F2400.00000
M103 ; extruder off
G1 X27.162 Y52.672 F7800.000
M101 ; extruder on
G1 E0.00000 F2400.00000
G1 X29.337 Y51.810 E0.33242 F1800.000
G1 X30.750 Y51.664 E0.53419
G1 X120.750 Y51.664 E13.32117
M101 ; extruder on
G1 X123.056 Y52.061 E13.65359 F1800.000
G1 X125.096 Y53.207 E13.98601
G1 X126.635 Y54.969 E14.31843
G1 X127.496 Y57.144 E14.65084
G1 X127.643 Y58.557 E14.85262
G1 X127.643 Y64.750 E15.73253
G1 X127.246 Y67.056 E16.06495
G1 X126.100 Y69.096 E16.39737
G1 X124.338 Y70.635 E16.72978
G1 X122.163 Y71.496 E17.06220
G1 X120.750 Y71.643 E17.26398
G1 X30.750 Y71.643 E30.05095
G1 X28.444 Y71.246 E30.38337
G1 X26.404 Y70.100 E30.71579
G1 X24.865 Y68.338 E31.04821
G1 X24.004 Y66.163 E31.38062
G1 X23.857 Y64.750 E31.58240
G1 X23.857 Y58.557 E32.46232
G1 X24.254 Y56.251 E32.79473
G1 X25.400 Y54.211 E33.12715
G1 X27.105 Y52.721 E33.44891
G1 E31.44891 F2400.00000
M103 ; extruder off
G1 X33.035 Y62.465 F7800.000
M101 ; extruder on
G1 E33.44891 F2400.00000
G1 X33.035 Y60.842 E33.67942 F1800.000
G1 X118.465 Y60.842 E45.81698
G1 X118.465 Y62.465 E46.04749
G1 X33.110 Y62.465 E58.17439
G1 X32.143 Y63.357 F7800.000
M101 ; extruder on
G1 X32.143 Y59.950 E58.65856 F1800.000
G1 X119.357 Y59.950 E71.04979
G1 X119.357 Y63.357 E71.53396
G1 X32.218 Y63.357 E83.91454
G1 X31.250 Y64.250 F7800.000
M101 ; extruder on
G1 X31.250 Y59.057 E84.65237 F1800.000
G1 X120.250 Y59.057 E97.29727
G1 X120.250 Y64.250 E98.03510
G1 X31.325 Y64.250 E110.66934
G1 X31.500 Y63.817 F7800.000
G1 X33.482 Y61.653 F7800.000
M101 ; extruder on
G1 X118.018 Y61.653 E136.13447 F1800.000
M73 P0
G1 Z0.900 F7800.000
G1 X31.943 Y63.557 F7800.000
M101 ; extruder on
G1 X31.943 Y59.402 E136.39411 F3600.000
G1 X119.557 Y59.402 E141.86993
G1 X119.557 Y63.557 E142.12957
G1 X32.018 Y63.557 E147.60070
G1 X31.453 Y64.047 F7800.000
M101 ; extruder on
G1 X31.453 Y58.912 E147.92170 F3600.000
G1 X120.047 Y58.912 E153.45888
G1 X120.047 Y64.047 E153.77987
G1 X31.528 Y64.047 E159.31237
G1 X31.000 Y64.500 F7800.000
M101 ; extruder on
G1 X31.000 Y58.459 E159.63092 F1800.000
G1 X120.500 Y58.459 E164.35047
G1 X120.500 Y64.500 E164.66902
G1 X31.075 Y64.500 E169.38462
G1 X31.250 Y64.067 F7800.000
G1 X33.183 Y59.696 F7800.000
M101 ; extruder on
G1 X32.236 Y60.642 E169.46879 F1200.000
G1 X32.236 Y61.341 E169.51271
G1 X33.881 Y59.696 E169.65900
G1 X34.580 Y59.696 E169.70292
G1 X32.236 Y62.039 E169.91131
G1 X32.236 Y62.737 E169.95523
G1 X35.278 Y59.696 E170.22574
G1 X35.977 Y59.696 E170.26966
G1 X32.409 Y63.264 E170.58695
G1 X33.107 Y63.264 E170.63087
G1 X36.675 Y59.696 E170.94816
G1 X37.374 Y59.696 E170.99208
G1 X33.806 Y63.264 E171.30937
G1 X34.504 Y63.264 E171.35329
G1 X38.072 Y59.696 E171.67058
G1 X38.771 Y59.696 E171.71450
G1 X35.203 Y63.264 E172.03179
G1 X35.901 Y63.264 E172.07571
G1 X39.469 Y59.696 E172.39300
G1 X40.167 Y59.696 E172.43692
G1 X36.599 Y63.264 E172.75421
G1 X37.298 Y63.264 E172.79813
G1 X40.866 Y59.696 E173.11542
G1 X41.564 Y59.696 E173.15934
G1 X37.996 Y63.264 E173.47663
G1 X38.695 Y63.264 E173.52055
G1 X42.263 Y59.696 E173.83784
G1 X42.961 Y59.696 E173.88176
G1 X39.393 Y63.264 E174.19905
G1 X40.092 Y63.264 E174.24297
G1 X43.660 Y59.696 E174.56026
G1 X44.358 Y59.696 E174.60418
G1 X40.790 Y63.264 E174.92147
G1 X41.489 Y63.264 E174.96539
G1 X45.056 Y59.696 E175.28268
G1 X45.755 Y59.696 E175.32660
G1 X42.187 Y63.264 E175.64389
G1 X42.885 Y63.264 E175.68781
G1 X46.453 Y59.696 E176.00510
G1 X47.152 Y59.696 E176.04901
G1 X43.584 Y63.264 E176.36631
G1 X44.282 Y63.264 E176.41022
G1 X47.850 Y59.696 E176.72751
G1 X48.549 Y59.696 E176.77143
G1 X44.981 Y63.264 E177.08872
G1 X45.679 Y63.264 E177.13264
G1 X49.247 Y59.696 E177.44993
G1 X49.946 Y59.696 E177.49385
G1 X46.378 Y63.264 E177.81114
G1 X47.076 Y63.264 E177.85506
G1 X50.644 Y59.696 E178.17235
G1 X51.342 Y59.696 E178.21627
G1 X47.774 Y63.264 E178.53356
G1 X48.473 Y63.264 E178.57748
G1 X52.041 Y59.696 E178.89477
G1 X52.739 Y59.696 E178.93869
G1 X49.171 Y63.264 E179.25598
G1 X49.870 Y63.264 E179.29990
G1 X53.438 Y59.696 E179.61719
G1 X54.136 Y59.696 E179.66111
G1 X50.568 Y63.264 E179.97840
G1 X51.267 Y63.264 E180.02232
G1 X54.835 Y59.696 E180.33961
G1 X55.533 Y59.696 E180.38353
G1 X51.965 Y63.264 E180.70082
G1 X52.664 Y63.264 E180.74474
G1 X56.232 Y59.696 E181.06203
G1 X56.930 Y59.696 E181.10595
G1 X53.362 Y63.264 E181.42324
G1 X54.060 Y63.264 E181.46715
G1 X57.628 Y59.696 E181.78445
G1 X58.327 Y59.696 E181.82836
G1 X54.759 Y63.264 E182.14565
G1 X55.457 Y63.264 E182.18957
G1 X59.025 Y59.696 E182.50686
G1 X59.724 Y59.696 E182.55078
G1 X56.156 Y63.264 E182.86807
G1 X56.854 Y63.264 E182.91199
G1 X60.422 Y59.696 E183.22928
G1 X61.121 Y59.696 E183.27320
G1 X57.553 Y63.264 E183.59049
G1 X58.251 Y63.264 E183.63441
G1 X61.819 Y59.696 E183.95170
G1 X62.517 Y59.696 E183.99562
G1 X58.950 Y63.264 E184.31291
G1 X59.648 Y63.264 E184.35683
G1 X63.216 Y59.696 E184.67412
G1 X63.914 Y59.696 E184.71804
G1 X60.346 Y63.264 E185.03533
G1 X61.045 Y63.264 E185.07925
G1 X64.613 Y59.696 E185.39654
G1 X65.311 Y59.696 E185.44046
G1 X61.743 Y63.264 E185.75775
G1 X62.442 Y63.264 E185.80167
G1 X66.010 Y59.696 E186.11896
G1 X66.708 Y59.696 E186.16288
G1 X63.140 Y63.264 E186.48017
G1 X63.839 Y63.264 E186.52409
G1 X67.407 Y59.696 E186.84138
G1 X68.105 Y59.696 E186.88530
G1 X64.537 Y63.264 E187.20259
G1 X65.235 Y63.264 E187.24651
G1 X68.803 Y59.696 E187.56380
G1 X69.502 Y59.696 E187.60772
G1 X65.934 Y63.264 E187.92501
G1 X66.632 Y63.264 E187.96893
G1 X70.200 Y59.696 E188.28622
G1 X70.899 Y59.696 E188.33014
G1 X67.331 Y63.264 E188.64743
G1 X68.029 Y63.264 E188.69134
G1 X71.597 Y59.696 E189.00864
G1 X72.296 Y59.696 E189.05255
G1 X68.728 Y63.264 E189.36984
G1 X69.426 Y63.264 E189.41376
G1 X72.994 Y59.696 E189.73105
G1 X73.692 Y59.696 E189.77497
G1 X70.125 Y63.264 E190.09226
G1 X70.823 Y63.264 E190.13618
G1 X74.391 Y59.696 E190.45347
G1 X75.089 Y59.696 E190.49739
G1 X71.521 Y63.264 E190.81468
G1 X72.220 Y63.264 E190.85860
G1 X75.788 Y59.696 E191.17589
G1 X76.486 Y59.696 E191.21981
G1 X72.918 Y63.264 E191.53710
G1 X73.617 Y63.264 E191.58102
G1 X77.185 Y59.696 E191.89831
G1 X77.883 Y59.696 E191.94223
G1 X74.315 Y63.264 E192.25952
G1 X75.014 Y63.264 E192.30344
G1 X78.582 Y59.696 E192.62073
G1 X79.280 Y59.696 E192.66465
G1 X75.712 Y63.264 E192.98194
G1 X76.410 Y63.264 E193.02586
G1 X79.978 Y59.696 E193.34315
G1 X80.677 Y59.696 E193.38707
G1 X77.109 Y63.264 E193.70436
G1 X77.807 Y63.264 E193.74828
G1 X81.375 Y59.696 E194.06557
G1 X82.074 Y59.696 E194.10949
G1 X78.506 Y63.264 E194.42678
G1 X79.204 Y63.264 E194.47070
G1 X82.772 Y59.696 E194.78799
G1 X83.471 Y59.696 E194.83191
G1 X79.903 Y63.264 E195.14920
G1 X80.601 Y63.264 E195.19311
G1 X84.169 Y59.696 E195.51041
G1 X84.868 Y59.696 E195.55432
G1 X81.300 Y63.264 E195.87161
G1 X81.998 Y63.264 E195.91553
G1 X85.566 Y59.696 E196.23282
G1 X86.264 Y59.696 E196.27674
G1 X82.696 Y63.264 E196.59403
G1 X83.395 Y63.264 E196.63795
G1 X86.963 Y59.696 E196.95524
G1 X87.661 Y59.696 E196.99916
G1 X84.093 Y63.264 E197.31645
G1 X84.792 Y63.264 E197.36037
G1 X88.360 Y59.696 E197.67766
G1 X89.058 Y59.696 E197.72158
G1 X85.490 Y63.264 E198.03887
G1 X86.189 Y63.264 E198.08279
G1 X89.757 Y59.696 E198.40008
G1 X90.455 Y59.696 E198.44400
G1 X86.887 Y63.264 E198.76129
G1 X87.586 Y63.264 E198.80521
G1 X91.153 Y59.696 E199.12250
G1 X91.852 Y59.696 E199.16642
G1 X88.284 Y63.264 E199.48371
G1 X88.982 Y63.264 E199.52763
G1 X92.550 Y59.696 E199.84492
G1 X93.249 Y59.696 E199.88884
G1 X89.681 Y63.264 E200.20613
G1 X90.379 Y63.264 E200.25005
G1 X93.947 Y59.696 E200.56734
G1 X94.646 Y59.696 E200.61126
G1 X91.078 Y63.264 E200.92855
G1 X91.776 Y63.264 E200.97247
G1 X95.344 Y59.696 E201.28976
G1 X96.043 Y59.696 E201.33367
G1 X92.475 Y63.264 E201.65097
G1 X93.173 Y63.264 E201.69488
G1 X96.741 Y59.696 E202.01217
G1 X97.439 Y59.696 E202.05609
G1 X93.871 Y63.264 E202.37338
G1 X94.570 Y63.264 E202.41730
G1 X98.138 Y59.696 E202.73459
G1 X98.836 Y59.696 E202.77851
G1 X95.268 Y63.264 E203.09580
G1 X95.967 Y63.264 E203.13972
G1 X99.535 Y59.696 E203.45701
G1 X100.233 Y59.696 E203.50093
G1 X96.665 Y63.264 E203.81822
G1 X97.364 Y63.264 E203.86214
G1 X100.932 Y59.696 E204.17943
G1 X101.630 Y59.696 E204.22335
G1 X98.062 Y63.264 E204.54064
G1 X98.761 Y63.264 E204.58456
G1 X102.328 Y59.696 E204.90185
G1 X103.027 Y59.696 E204.94577
G1 X99.459 Y63.264 E205.26306
G1 X100.157 Y63.264 E205.30698
G1 X103.725 Y59.696 E205.62427
G1 X104.424 Y59.696 E205.66819
G1 X100.856 Y63.264 E205.98548
G1 X101.554 Y63.264 E206.02940
G1 X105.122 Y59.696 E206.34669
G1 X105.821 Y59.696 E206.39061
G1 X102.253 Y63.264 E206.70790
G1 X102.951 Y63.264 E206.75182
G1 X106.519 Y59.696 E207.06911
G1 X107.218 Y59.696 E207.11303
G1 X103.650 Y63.264 E207.43032
G1 X104.348 Y63.264 E207.47424
G1 X107.916 Y59.696 E207.79153
G1 X108.614 Y59.696 E207.83544
G1 X105.046 Y63.264 E208.15274
G1 X105.745 Y63.264 E208.19665
G1 X109.313 Y59.696 E208.51394
G1 X110.011 Y59.696 E208.55786
G1 X106.443 Y63.264 E208.87515
G1 X107.142 Y63.264 E208.91907
G1 X110.710 Y59.696 E209.23636
G1 X111.408 Y59.696 E209.28028
G1 X107.840 Y63.264 E209.59757
G1 X108.539 Y63.264 E209.64149
G1 X112.107 Y59.696 E209.95878
G1 X112.805 Y59.696 E210.00270
G1 X109.237 Y63.264 E210.31999
G1 X109.936 Y63.264 E210.36391
G1 X113.504 Y59.696 E210.68120
G1 X114.202 Y59.696 E210.72512
G1 X110.634 Y63.264 E211.04241
G1 X111.332 Y63.264 E211.08633
G1 X114.900 Y59.696 E211.40362
G1 X115.599 Y59.696 E211.44754
G1 X112.031 Y63.264 E211.76483
G1 X112.729 Y63.264 E211.80875
G1 X116.297 Y59.696 E212.12604
G1 X116.996 Y59.696 E212.16996
G1 X113.428 Y63.264 E212.48726
G1 X114.126 Y63.264 E212.53117
G1 X117.694 Y59.696 E212.84847
G1 X118.393 Y59.696 E212.89238
G1 X114.825 Y63.264 E213.20968
G1 X115.523 Y63.264 E213.25359
G1 X119.091 Y59.696 E213.57089
G1 X119.264 Y60.222 E213.60569
G1 X116.221 Y63.264 E213.87621
G1 X116.920 Y63.264 E213.92013
G1 X119.264 Y60.920 E214.12854
G1 X119.264 Y61.618 E214.17246
G1 X117.618 Y63.264 E214.31876
G1 X118.317 Y63.264 E214.36268
G1 X119.264 Y62.317 E214.44687
G1 X119.264 Y63.015 E214.49078
G1 X119.015 Y63.264 E214.51286
M73 P1
G1 Z1.300 F7800.000
G1 X31.943 Y63.557 F7800.000
M101 ; extruder on
G1 X31.943 Y59.093 E214.79181 F3600.000
G1 X119.557 Y59.093 E220.26764
G1 X119.557 Y63.557 E220.54659
G1 X59.943 Y63.557 E224.27242
G1 X59.943 Y63.469 E224.27789
G1 X39.373 Y63.469 E225.56351
G1 X39.280 Y63.557 E225.57153
G1 X32.018 Y63.557 E226.02535
G1 X31.453 Y64.047 F7800.000
M101 ; extruder on
G1 X31.453 Y58.603 E226.36566 F3600.000
G1 X120.047 Y58.603 E231.90285
G1 X120.047 Y64.047 E232.24316
G1 X59.453 Y64.047 E236.03035
G1 X59.453 Y63.960 E236.03581
G1 X39.567 Y63.960 E237.27867
G1 X39.473 Y64.047 E237.28668
G1 X31.528 Y64.047 E237.78328
G1 X31.000 Y64.500 F7800.000
M101 ; extruder on
G1 X31.000 Y58.150 E238.11813 F1800.000
G1 X120.500 Y58.150 E242.83768
G1 X120.500 Y64.500 E243.17253
G1 X59.000 Y64.500 E246.41558
G1 X59.000 Y64.412 E246.42019
G1 X39.745 Y64.412 E247.43554
G1 X39.651 Y64.500 E247.44230
G1 X31.075 Y64.500 E247.89456
G1 X31.250 Y64.067 F7800.000
G1 X33.180 Y63.264 F7800.000
M101 ; extruder on
G1 X32.236 Y62.320 E247.97811 F1200.000
G1 X32.236 Y61.625 E248.02165
G1 X33.875 Y63.264 E248.16678
G1 X34.571 Y63.264 E248.21032
G1 X32.236 Y60.929 E248.41703
G1 X32.236 Y60.234 E248.46057
G1 X35.266 Y63.264 E248.72886
G1 X35.962 Y63.264 E248.77240
G1 X32.236 Y59.538 E249.10226
G1 X32.780 Y59.386 E249.13761
G1 X36.657 Y63.264 E249.48091
G1 X37.353 Y63.264 E249.52445
G1 X33.476 Y59.386 E249.86775
G1 X34.171 Y59.386 E249.91129
G1 X38.048 Y63.264 E250.25459
G1 X38.744 Y63.264 E250.29813
G1 X34.867 Y59.386 E250.64143
G1 X35.562 Y59.386 E250.68498
G1 X39.352 Y63.176 E251.02053
G1 X40.047 Y63.176 E251.06407
G1 X36.257 Y59.386 E251.39962
G1 X36.953 Y59.386 E251.44316
G1 X40.742 Y63.176 E251.77871
G1 X41.438 Y63.176 E251.82226
G1 X37.648 Y59.386 E252.15781
G1 X38.344 Y59.386 E252.20135
G1 X42.133 Y63.176 E252.53690
G1 X42.829 Y63.176 E252.58045
G1 X39.039 Y59.386 E252.91600
G1 X39.735 Y59.386 E252.95954
G1 X43.524 Y63.176 E253.29509
G1 X44.220 Y63.176 E253.33863
G1 X40.430 Y59.386 E253.67418
G1 X41.126 Y59.386 E253.71773
G1 X44.915 Y63.176 E254.05328
G1 X45.611 Y63.176 E254.09682
G1 X41.821 Y59.386 E254.43237
G1 X42.516 Y59.386 E254.47591
G1 X46.306 Y63.176 E254.81146
G1 X47.001 Y63.176 E254.85500
G1 X43.212 Y59.386 E255.19056
G1 X43.907 Y59.386 E255.23410
G1 X47.697 Y63.176 E255.56965
G1 X48.392 Y63.176 E255.61319
G1 X44.603 Y59.386 E255.94874
G1 X45.298 Y59.386 E255.99228
G1 X49.088 Y63.176 E256.32783
G1 X49.783 Y63.176 E256.37138
G1 X45.994 Y59.386 E256.70693
G1 X46.689 Y59.386 E256.75047
G1 X50.479 Y63.176 E257.08602
G1 X51.174 Y63.176 E257.12956
G1 X47.385 Y59.386 E257.46511
G1 X48.080 Y59.386 E257.50866
G1 X51.870 Y63.176 E257.84421
G1 X52.565 Y63.176 E257.88775
G1 X48.775 Y59.386 E258.22330
G1 X49.471 Y59.386 E258.26684
G1 X53.260 Y63.176 E258.60239
G1 X53.956 Y63.176 E258.64594
G1 X50.166 Y59.386 E258.98149
G1 X50.862 Y59.386 E259.02503
G1 X54.651 Y63.176 E259.36058
G1 X55.347 Y63.176 E259.40412
G1 X51.557 Y59.386 E259.73967
G1 X52.253 Y59.386 E259.78322
G1 X56.042 Y63.176 E260.11877
G1 X56.738 Y63.176 E260.16231
G1 X52.948 Y59.386 E260.49786
G1 X53.644 Y59.386 E260.54140
G1 X57.433 Y63.176 E260.87695
G1 X58.129 Y63.176 E260.92050
G1 X54.339 Y59.386 E261.25605
G1 X55.034 Y59.386 E261.29959
G1 X58.824 Y63.176 E261.63514
G1 X59.519 Y63.176 E261.67868
G1 X55.730 Y59.386 E262.01423
G1 X56.425 Y59.386 E262.05777
G1 X60.215 Y63.176 E262.39332
G1 X60.998 Y63.264 E262.44265
G1 X57.121 Y59.386 E262.78595
G1 X57.816 Y59.386 E262.82949
G1 X61.693 Y63.264 E263.17279
G1 X62.389 Y63.264 E263.21633
G1 X58.512 Y59.386 E263.55963
G1 X59.207 Y59.386 E263.60317
G1 X63.084 Y63.264 E263.94647
G1 X63.780 Y63.264 E263.99002
G1 X59.903 Y59.386 E264.33331
G1 X60.598 Y59.386 E264.37686
G1 X64.475 Y63.264 E264.72015
G1 X65.170 Y63.264 E264.76370
G1 X61.293 Y59.386 E265.10700
G1 X61.989 Y59.386 E265.15054
G1 X65.866 Y63.264 E265.49384
G1 X66.561 Y63.264 E265.53738
G1 X62.684 Y59.386 E265.88068
G1 X63.380 Y59.386 E265.92422
G1 X67.257 Y63.264 E266.26752
G1 X67.952 Y63.264 E266.31106
G1 X64.075 Y59.386 E266.65436
G1 X64.771 Y59.386 E266.69790
G1 X68.648 Y63.264 E267.04120
G1 X69.343 Y63.264 E267.08474
G1 X65.466 Y59.386 E267.42804
G1 X66.162 Y59.386 E267.47158
G1 X70.039 Y63.264 E267.81488
G1 X70.734 Y63.264 E267.85843
G1 X66.857 Y59.386 E268.20172
G1 X67.552 Y59.386 E268.24527
G1 X71.429 Y63.264 E268.58856
G1 X72.125 Y63.264 E268.63211
G1 X68.248 Y59.386 E268.97541
G1 X68.943 Y59.386 E269.01895
G1 X72.820 Y63.264 E269.36225
G1 X73.516 Y63.264 E269.40579
G1 X69.639 Y59.386 E269.74909
G1 X70.334 Y59.386 E269.79263
G1 X74.211 Y63.264 E270.13593
G1 X74.907 Y63.264 E270.17947
G1 X71.030 Y59.386 E270.52277
G1 X71.725 Y59.386 E270.56631
G1 X75.602 Y63.264 E270.90961
G1 X76.298 Y63.264 E270.95315
G1 X72.421 Y59.386 E271.29645
G1 X73.116 Y59.386 E271.33999
G1 X76.993 Y63.264 E271.68329
G1 X77.688 Y63.264 E271.72684
G1 X73.811 Y59.386 E272.07013
G1 X74.507 Y59.386 E272.11368
G1 X78.384 Y63.264 E272.45697
G1 X79.079 Y63.264 E272.50052
G1 X75.202 Y59.386 E272.84382
G1 X75.898 Y59.386 E272.88736
G1 X79.775 Y63.264 E273.23066
G1 X80.470 Y63.264 E273.27420
G1 X76.593 Y59.386 E273.61750
G1 X77.289 Y59.386 E273.66104
G1 X81.166 Y63.264 E274.00434
G1 X81.861 Y63.264 E274.04788
G1 X77.984 Y59.386 E274.39118
G1 X78.680 Y59.386 E274.43472
G1 X82.557 Y63.264 E274.77802
G1 X83.252 Y63.264 E274.82156
G1 X79.375 Y59.386 E275.16486
G1 X80.070 Y59.386 E275.20840
G1 X83.947 Y63.264 E275.55170
G1 X84.643 Y63.264 E275.59525
G1 X80.766 Y59.386 E275.93854
G1 X81.461 Y59.386 E275.98209
G1 X85.338 Y63.264 E276.32538
G1 X86.034 Y63.264 E276.36893
