; generated by Slic3r 1.2.9 on 2017-09-19 at 17:35:38

; external perimeters extrusion width = 0.50mm
; perimeters extrusion width = 0.58mm
; infill extrusion width = 0.58mm
; solid infill extrusion width = 0.58mm
; top infill extrusion width = 0.58mm

M127
M109 S210 ; set bed temperature
M104 S220 T0 ; set temperature
G28 ; home all axes
G1 Z5 F5000 ; lift nozzle

M73 P0
G1 Z0.500 F7800.000
G1 E-2.00000 F2400.00000
M103 ; extruder off
G1 X32.174 Y32.154 F7800.000
M101 ; extruder on
G1 E0.00000 F2400.00000
G1 X33.936 Y30.615 E0.33242 F1800.000
G1 X35.521 Y29.905 E0.57913
G1 X63.522 Y21.404 E4.73675
G1 X65.524 Y21.107 E5.02432
G1 X85.524 Y21.107 E7.86587
G1 X87.830 Y21.504 E8.19829
M101 ; extruder on
G1 X89.739 Y22.546 E8.50721 F1800.000
G1 X100.739 Y31.046 E10.48231
G1 X102.321 Y32.770 E10.81473
G1 X103.045 Y34.265 E11.05076
G1 X107.832 Y48.233 E13.14856
G1 X108.722 Y51.368 E13.61160
G1 X108.914 Y52.289 E13.74526
G1 X109.304 Y55.128 E14.15249
G1 X109.368 Y56.067 E14.28614
G1 X109.368 Y58.933 E14.69336
G1 X109.304 Y59.872 E14.82700
G1 X108.914 Y62.711 E15.23424
G1 X108.722 Y63.632 E15.36789
G1 X107.832 Y66.767 E15.83093
G1 X103.045 Y80.735 E17.92874
G1 X101.922 Y82.787 E18.26116
G1 X100.739 Y83.954 E18.49718
G1 X89.739 Y92.454 E20.47226
G1 X87.672 Y93.550 E20.80468
G1 X85.524 Y93.893 E21.11362
G1 X65.524 Y93.893 E23.95517
G1 X63.522 Y93.596 E24.24274
G1 X35.522 Y85.095 E28.40020
G1 X33.431 Y84.046 E28.73262
G1 X31.812 Y82.357 E29.06504
G1 X30.851 Y80.224 E29.39746
G1 X30.632 Y78.500 E29.64433
G1 X30.632 Y36.500 E35.61158
G1 X31.029 Y34.194 E35.94400
G1 X32.138 Y32.220 E36.26576
G1 E34.26576 F2400.00000
M103 ; extruder off
G1 X72.323 Y68.285 F7800.000
M101 ; extruder on
G1 E36.26576 F2400.00000
G1 X74.200 Y68.038 E36.53474 F1800.000
M101 ; extruder on
G1 X74.524 Y67.996 E36.58118 F1800.000
G1 X76.726 Y68.285 E36.89660
G1 X78.777 Y69.135 E37.21203
G1 X80.538 Y70.487 E37.52745
G1 X81.889 Y72.248 E37.84287
G1 X82.739 Y74.299 E38.15829
G1 X83.029 Y76.500 E38.47372
G1 X82.739 Y78.701 E38.78914
G1 X81.889 Y80.752 E39.10456
G1 X80.538 Y82.513 E39.41998
G1 X78.777 Y83.865 E39.73540
G1 X76.726 Y84.715 E40.05083
G1 X74.524 Y85.004 E40.36625
G1 X72.323 Y84.715 E40.68167
G1 X70.272 Y83.865 E40.99709
G1 X68.511 Y82.513 E41.31251
G1 X67.160 Y80.752 E41.62794
G1 X66.310 Y78.701 E41.94336
G1 X66.020 Y76.500 E42.25878
G1 X66.310 Y74.299 E42.57420
G1 X67.160 Y72.248 E42.88963
G1 X68.511 Y70.487 E43.20505
G1 X70.272 Y69.135 E43.52047
G1 X72.254 Y68.314 E43.82524
G1 X72.474 Y67.809 F7800.000
G1 X67.086 Y64.752 F7800.000
M101 ; extruder on
G1 X64.781 Y67.756 E44.36320 F1800.000
G1 X61.777 Y70.061 E44.90116
G1 X58.279 Y71.510 E45.43911
G1 X54.524 Y72.004 E45.97708
G1 X50.770 Y71.510 E46.51504
G1 X47.272 Y70.061 E47.05300
G1 X44.268 Y67.756 E47.59096
G1 X41.963 Y64.752 E48.12892
G1 X40.514 Y61.254 E48.66688
G1 X40.020 Y57.500 E49.20484
G1 X40.514 Y53.746 E49.74280
G1 X41.963 Y50.248 E50.28076
G1 X44.268 Y47.244 E50.81872
G1 X47.272 Y44.939 E51.35668
G1 X50.770 Y43.490 E51.89464
G1 X54.006 Y43.064 E52.35835
M101 ; extruder on
G1 X54.524 Y42.996 E52.43260 F1800.000
G1 X58.279 Y43.490 E52.97057
G1 X61.777 Y44.939 E53.50853
G1 X64.781 Y47.244 E54.04649
G1 X67.086 Y50.248 E54.58445
G1 X68.535 Y53.746 E55.12241
G1 X69.029 Y57.500 E55.66037
G1 X68.535 Y61.254 E56.19833
G1 X67.114 Y64.683 E56.72563
G1 X67.316 Y65.196 F7800.000
G1 X72.323 Y46.715 F7800.000
M101 ; extruder on
G1 X70.272 Y45.865 E57.04105 F1800.000
G1 X68.511 Y44.513 E57.35648
G1 X67.160 Y42.752 E57.67190
G1 X66.310 Y40.701 E57.98732
G1 X66.020 Y38.500 E58.30274
G1 X66.310 Y36.299 E58.61816
G1 X67.160 Y34.248 E58.93359
G1 X68.511 Y32.487 E59.24901
G1 X70.272 Y31.135 E59.56443
M101 ; extruder on
G1 X72.323 Y30.285 E59.87985 F1800.000
G1 X74.524 Y29.996 E60.19527
G1 X76.726 Y30.285 E60.51070
G1 X78.777 Y31.135 E60.82612
G1 X80.538 Y32.487 E61.14154
G1 X81.889 Y34.248 E61.45696
G1 X82.739 Y36.299 E61.77238
G1 X83.029 Y38.500 E62.08781
G1 X82.739 Y40.701 E62.40323
G1 X81.889 Y42.752 E62.71865
G1 X80.538 Y44.513 E63.03407
G1 X78.777 Y45.865 E63.34949
G1 X76.726 Y46.715 E63.66492
G1 X74.524 Y47.004 E63.98034
G1 X72.398 Y46.724 E64.28511
G1 X71.955 Y47.052 F7800.000
G1 X74.662 Y49.763 F7800.000
M101 ; extruder on
G1 X76.322 Y48.489 E64.58233 F1800.000
M101 ; extruder on
G1 X78.832 Y47.450 E64.96824 F1800.000
G1 X81.260 Y47.130 E65.31618
G1 X81.524 Y47.095 E65.35415
G1 X84.217 Y47.450 E65.74005
G1 X86.727 Y48.489 E66.12596
G1 X88.882 Y50.143 E66.51187
G1 X90.535 Y52.298 E66.89778
G1 X91.575 Y54.807 E67.28369
G1 X91.929 Y57.500 E67.66959
G1 X91.575 Y60.193 E68.05550
G1 X90.535 Y62.702 E68.44141
G1 X88.882 Y64.857 E68.82731
G1 X86.727 Y66.511 E69.21322
G1 X84.217 Y67.550 E69.59913
G1 X81.524 Y67.905 E69.98504
G1 X78.832 Y67.550 E70.37094
G1 X76.322 Y66.511 E70.75685
G1 X74.167 Y64.857 E71.14276
G1 X72.514 Y62.702 E71.52867
G1 X71.474 Y60.193 E71.91457
G1 X71.120 Y57.500 E72.30048
G1 X71.474 Y54.807 E72.68639
G1 X72.514 Y52.298 E73.07230
G1 X74.167 Y50.143 E73.45820
G1 X74.603 Y49.808 E73.53623
G1 X75.206 Y50.471 F7800.000
M101 ; extruder on
G1 X76.772 Y49.269 E73.81676 F1800.000
G1 X79.065 Y48.320 E74.16927
G1 X81.376 Y48.015 E74.50051
M101 ; extruder on
G1 X81.524 Y47.996 E74.52178 F1800.000
G1 X83.984 Y48.320 E74.87429
G1 X86.277 Y49.269 E75.22680
G1 X88.245 Y50.779 E75.57932
G1 X89.755 Y52.748 E75.93183
G1 X90.705 Y55.040 E76.28434
G1 X91.029 Y57.500 E76.63685
G1 X90.705 Y59.960 E76.98936
G1 X89.755 Y62.252 E77.34187
G1 X88.245 Y64.221 E77.69439
G1 X86.277 Y65.731 E78.04690
G1 X83.984 Y66.680 E78.39941
G1 X81.524 Y67.004 E78.75192
G1 X79.065 Y66.680 E79.10443
G1 X76.911 Y65.788 E79.43567
G1 X76.772 Y65.731 E79.45695
G1 X74.804 Y64.221 E79.80946
G1 X73.293 Y62.252 E80.16197
G1 X72.344 Y59.960 E80.51448
G1 X72.020 Y57.500 E80.86699
G1 X72.344 Y55.040 E81.21950
G1 X73.294 Y52.748 E81.57202
G1 X74.804 Y50.779 E81.92453
G1 X75.146 Y50.517 E81.98585
G1 X75.141 Y49.975 F7800.000
G1 X71.857 Y54.910 F7800.000
G1 X70.524 Y57.369 F7800.000
G1 X70.524 Y57.631 F7800.000
G1 X70.524 Y60.266 F7800.000
G1 X70.549 Y60.632 F7800.000
G1 X70.787 Y60.866 F7800.000
M101 ; extruder on
G1 X71.734 Y63.153 E82.33748 F1800.000
G1 X73.531 Y65.494 E82.75678
G1 X74.456 Y66.204 E82.92249
G1 X71.857 Y66.546 E83.29486
G1 X69.372 Y67.576 E83.67708
G1 X67.238 Y69.213 E84.05929
G1 X65.600 Y71.347 E84.44150
G1 X64.570 Y73.833 E84.82372
G1 X64.219 Y76.500 E85.20593
G1 X64.570 Y79.167 E85.58814
G1 X65.600 Y81.653 E85.97036
G1 X67.238 Y83.787 E86.35257
G1 X67.973 Y84.351 E86.48428
G1 X67.850 Y84.715 E86.53881
G1 X65.864 Y84.715 E86.82098
G1 X39.810 Y76.805 E90.68945
G1 X39.810 Y65.345 E92.31767
G1 X40.241 Y65.260 E92.38012
G1 X40.404 Y65.653 E92.44056
G1 X42.995 Y69.029 E93.04531
G1 X46.372 Y71.621 E93.65006
G1 X50.304 Y73.250 E94.25481
G1 X54.524 Y73.805 E94.85957
G1 X58.745 Y73.250 E95.46432
G1 X62.677 Y71.621 E96.06907
G1 X66.054 Y69.029 E96.67382
G1 X68.645 Y65.653 E97.27857
G1 X70.274 Y61.720 E97.88333
G1 X70.379 Y60.920 E97.99802
G1 X70.712 Y60.876 E98.04576
G1 X70.787 Y54.134 F7800.000
M101 ; extruder on
G1 X70.379 Y54.080 E98.10415 F1800.000
G1 X70.274 Y53.280 E98.21885
G1 X68.645 Y49.347 E98.82360
G1 X66.054 Y45.971 E99.42835
G1 X62.677 Y43.379 E100.03310
G1 X58.745 Y41.750 E100.63785
G1 X54.524 Y41.195 E101.24261
G1 X53.773 Y41.294 E101.35026
G1 X50.304 Y41.750 E101.84736
G1 X46.372 Y43.379 E102.45211
G1 X42.995 Y45.971 E103.05686
G1 X40.404 Y49.347 E103.66161
G1 X40.241 Y49.740 E103.72205
G1 X39.810 Y49.655 E103.78451
G1 X39.810 Y38.195 E105.41273
G1 X65.864 Y30.285 E109.28120
G1 X67.850 Y30.285 E109.56337
G1 X67.973 Y30.649 E109.61790
G1 X67.238 Y31.213 E109.74961
G1 X65.600 Y33.347 E110.13182
G1 X64.570 Y35.833 E110.51403
G1 X64.219 Y38.500 E110.89625
G1 X64.570 Y41.167 E111.27846
G1 X65.600 Y43.653 E111.66067
G1 X67.238 Y45.787 E112.04289
G1 X69.372 Y47.424 E112.42510
G1 X71.857 Y48.454 E112.80731
G1 X74.456 Y48.796 E113.17969
G1 X73.531 Y49.506 E113.34539
G1 X71.734 Y51.847 E113.76469
G1 X70.816 Y54.065 E114.10567
G1 X71.867 Y49.680 F7800.000
G1 X81.146 Y46.268 F7800.000
G1 X85.458 Y44.589 F7800.000
G1 X89.174 Y43.058 F7800.000
G1 X95.524 Y44.166 F7800.000
G1 X95.524 Y46.000 F7800.000
G1 X94.239 Y45.452 F7800.000
M101 ; extruder on
G1 X95.785 Y45.452 E114.32533 F1800.000
G1 X96.809 Y46.711 E114.55591
G1 X98.136 Y48.893 E114.91871
G1 X99.153 Y51.235 E115.28151
G1 X99.842 Y53.693 E115.64431
G1 X100.190 Y56.223 E116.00711
G1 X100.190 Y58.777 E116.36991
G1 X99.842 Y61.307 E116.73271
G1 X99.153 Y63.765 E117.09551
G1 X98.136 Y66.107 E117.45831
G1 X96.809 Y68.289 E117.82111
G1 X95.785 Y69.548 E118.05169
G1 X94.239 Y69.548 E118.27136
G1 X94.239 Y77.378 E119.38376
G1 X84.744 Y84.715 E121.08856
G1 X81.199 Y84.715 E121.59225
G1 X81.076 Y84.351 E121.64678
G1 X81.811 Y83.787 E121.77849
G1 X83.449 Y81.653 E122.16070
G1 X84.478 Y79.167 E122.54292
G1 X84.830 Y76.500 E122.92513
G1 X84.478 Y73.833 E123.30734
G1 X83.449 Y71.347 E123.68956
G1 X81.811 Y69.213 E124.07177
G1 X81.315 Y68.833 E124.16058
G1 X84.450 Y68.420 E124.60985
G1 X87.177 Y67.291 E125.02915
G1 X89.518 Y65.494 E125.44846
G1 X91.315 Y63.153 E125.86776
G1 X92.444 Y60.426 E126.28706
G1 X92.830 Y57.500 E126.70637
G1 X92.444 Y54.574 E127.12567
G1 X91.315 Y51.847 E127.54497
G1 X89.518 Y49.506 E127.96428
G1 X87.177 Y47.709 E128.38358
G1 X84.450 Y46.580 E128.80288
G1 X81.315 Y46.167 E129.25215
G1 X81.811 Y45.787 E129.34096
G1 X83.449 Y43.653 E129.72318
G1 X84.478 Y41.167 E130.10539
G1 X84.830 Y38.500 E130.48760
G1 X84.478 Y35.833 E130.86982
G1 X83.449 Y33.347 E131.25203
G1 X81.811 Y31.213 E131.63424
G1 X81.076 Y30.649 E131.76595
G1 X81.199 Y30.285 E131.82048
G1 X84.744 Y30.285 E132.32417
G1 X94.239 Y37.622 E134.02897
G1 X94.239 Y45.377 E135.13072
G1 X95.132 Y44.559 F7800.000
M101 ; extruder on
G1 X96.210 Y44.559 E135.28387 F1800.000
G1 X97.540 Y46.195 E135.58345
G1 X98.931 Y48.481 E135.96360
G1 X99.997 Y50.935 E136.34375
G1 X100.718 Y53.511 E136.72390
G1 X101.083 Y56.162 E137.10405
G1 X101.083 Y58.838 E137.48420
G1 X100.718 Y61.489 E137.86435
G1 X99.997 Y64.065 E138.24450
G1 X98.931 Y66.519 E138.62465
G1 X97.540 Y68.805 E139.00480
G1 X96.210 Y70.441 E139.30438
G1 X95.132 Y70.441 E139.45753
G1 X95.132 Y77.816 E140.50538
G1 X85.049 Y85.607 E142.31576
G1 X78.030 Y85.607 E143.31308
G1 X77.944 Y85.176 E143.37553
G1 X79.227 Y84.645 E143.57284
G1 X81.175 Y83.150 E143.92166
G1 X82.669 Y81.202 E144.27048
G1 X83.609 Y78.934 E144.61930
G1 X83.929 Y76.500 E144.96811
G1 X83.609 Y74.066 E145.31693
G1 X82.669 Y71.798 E145.66575
G1 X81.175 Y69.850 E146.01457
G1 X79.227 Y68.355 E146.36338
G1 X76.959 Y67.416 E146.71220
G1 X74.524 Y67.095 E147.06102
G1 X74.084 Y67.153 E147.12416
G1 X72.090 Y67.416 E147.40984
G1 X69.822 Y68.355 E147.75866
G1 X67.874 Y69.850 E148.10747
G1 X66.380 Y71.798 E148.45629
G1 X65.440 Y74.066 E148.80511
G1 X65.120 Y76.500 E149.15393
G1 X65.440 Y78.934 E149.50274
G1 X66.380 Y81.202 E149.85156
G1 X67.874 Y83.150 E150.20038
G1 X69.822 Y84.645 E150.54920
G1 X71.105 Y85.176 E150.74651
G1 X71.019 Y85.607 E150.80896
G1 X65.731 Y85.607 E151.56029
G1 X38.917 Y77.467 E155.54164
G1 X38.917 Y59.797 E158.05225
G1 X39.418 Y59.764 E158.12352
G1 X39.645 Y61.487 E158.37047
G1 X41.184 Y65.202 E158.94183
G1 X43.632 Y68.393 E159.51319
G1 X46.822 Y70.841 E160.08454
G1 X50.537 Y72.380 E160.65589
G1 X54.524 Y72.905 E161.22725
G1 X58.512 Y72.380 E161.79861
G1 X62.227 Y70.841 E162.36997
G1 X65.417 Y68.393 E162.94132
G1 X67.865 Y65.202 E163.51268
G1 X69.404 Y61.487 E164.08403
G1 X69.929 Y57.500 E164.65539
G1 X69.404 Y53.513 E165.22675
G1 X67.865 Y49.798 E165.79810
G1 X65.417 Y46.607 E166.36946
G1 X62.227 Y44.159 E166.94081
G1 X58.512 Y42.620 E167.51216
G1 X54.524 Y42.095 E168.08352
G1 X50.537 Y42.620 E168.65488
G1 X46.822 Y44.159 E169.22624
G1 X43.632 Y46.607 E169.79759
G1 X41.184 Y49.798 E170.36895
G1 X39.645 Y53.513 E170.94031
G1 X39.418 Y55.236 E171.18725
G1 X38.917 Y55.203 E171.25853
G1 X38.917 Y37.533 E173.76914
G1 X65.731 Y29.393 E177.75048
G1 X71.019 Y29.393 E178.50182
G1 X71.105 Y29.824 E178.56427
G1 X69.822 Y30.355 E178.76158
G1 X67.874 Y31.850 E179.11040
G1 X66.380 Y33.798 E179.45922
G1 X65.440 Y36.066 E179.80803
G1 X65.120 Y38.500 E180.15685
G1 X65.440 Y40.934 E180.50567
G1 X66.380 Y43.202 E180.85449
G1 X67.874 Y45.150 E181.20330
G1 X69.822 Y46.645 E181.55212
G1 X72.090 Y47.584 E181.90094
G1 X74.524 Y47.905 E182.24976
G1 X76.959 Y47.584 E182.59858
G1 X79.227 Y46.645 E182.94739
G1 X81.175 Y45.150 E183.29621
G1 X82.669 Y43.202 E183.64503
G1 X83.609 Y40.934 E183.99385
G1 X83.929 Y38.500 E184.34266
G1 X83.609 Y36.066 E184.69148
G1 X82.669 Y33.798 E185.04030
G1 X81.175 Y31.850 E185.38912
G1 X79.227 Y30.355 E185.73794
G1 X77.944 Y29.824 E185.93525
G1 X78.030 Y29.393 E185.99770
G1 X85.049 Y29.393 E186.99502
G1 X95.132 Y37.184 E188.80539
G1 X95.132 Y44.484 E189.84259
G1 X96.024 Y43.666 F7800.000
M101 ; extruder on
G1 X96.634 Y43.666 E189.92922 F1800.000
G1 X98.271 Y45.679 E190.29780
G1 X99.725 Y48.069 E190.69530
G1 X100.840 Y50.635 E191.09280
G1 X101.595 Y53.329 E191.49030
G1 X101.976 Y56.101 E191.88780
G1 X101.976 Y58.899 E192.28531
G1 X101.595 Y61.671 E192.68281
G1 X100.840 Y64.365 E193.08031
G1 X99.725 Y66.931 E193.47781
G1 X98.271 Y69.321 E193.87531
G1 X96.634 Y71.334 E194.24389
G1 X96.024 Y71.334 E194.33052
G1 X96.024 Y78.254 E195.31382
G1 X85.354 Y86.500 E197.22977
G1 X65.599 Y86.500 E200.03653
G1 X38.024 Y78.129 E204.13074
G1 X38.024 Y36.871 E209.99265
G1 X65.599 Y28.500 E214.08686
G1 X85.354 Y28.500 E216.89362
G1 X96.024 Y36.746 E218.80957
G1 X96.024 Y43.591 E219.78221
G1 X96.024 Y44.166 F7800.000
G1 E217.78221 F2400.00000
M103 ; extruder off
G1 X96.524 Y71.834 F7800.000
G1 X96.524 Y71.834 F7800.000
G1 X74.698 Y75.853 F7800.000
M101 ; extruder on
G1 E219.78221 F2400.00000
G1 X74.859 Y75.920 E219.80704 F1800.000
G1 X74.998 Y76.027 E219.83188
G1 X75.104 Y76.165 E219.85671
G1 X75.171 Y76.327 E219.88155
G1 X75.194 Y76.500 E219.90638
G1 X75.171 Y76.673 E219.93122
G1 X75.104 Y76.835 E219.95605
G1 X74.998 Y76.973 E219.98089
G1 X74.859 Y77.080 E220.00572
G1 X74.698 Y77.147 E220.03056
G1 X74.524 Y77.170 E220.05539
G1 X74.351 Y77.147 E220.08022
G1 X74.190 Y77.080 E220.10506
G1 X74.051 Y76.973 E220.12990
G1 X73.945 Y76.835 E220.15473
G1 X73.878 Y76.673 E220.17957
G1 X73.855 Y76.500 E220.20440
G1 X73.878 Y76.327 E220.22924
G1 X73.945 Y76.165 E220.25407
G1 X74.051 Y76.027 E220.27891
G1 X74.190 Y75.920 E220.30374
G1 X74.351 Y75.853 E220.32858
G1 X74.524 Y75.830 E220.35341
G1 X74.623 Y75.843 E220.36759
G1 X75.039 Y75.028 F7800.000
M101 ; extruder on
G1 X75.309 Y75.140 E220.40912 F1800.000
G1 X75.635 Y75.390 E220.46735
G1 X75.884 Y75.715 E220.52558
G1 X76.041 Y76.094 E220.58381
G1 X76.094 Y76.500 E220.64204
G1 X76.041 Y76.906 E220.70027
G1 X75.884 Y77.285 E220.75851
G1 X75.635 Y77.610 E220.81673
G1 X75.309 Y77.860 E220.87497
G1 X74.931 Y78.016 E220.93320
G1 X74.524 Y78.070 E220.99143
G1 X74.118 Y78.016 E221.04966
G1 X73.739 Y77.860 E221.10789
G1 X73.414 Y77.610 E221.16612
G1 X73.165 Y77.285 E221.22435
G1 X73.008 Y76.906 E221.28258
G1 X72.954 Y76.500 E221.34081
G1 X73.008 Y76.094 E221.39904
G1 X73.165 Y75.715 E221.45727
G1 X73.414 Y75.390 E221.51550
G1 X73.739 Y75.140 E221.57373
G1 X74.118 Y74.984 E221.63196
G1 X74.524 Y74.930 E221.69019
G1 X74.931 Y74.984 E221.74842
M101 ; extruder on
G1 X74.970 Y75.000 E221.75447 F1800.000
G1 X75.078 Y75.318 F7800.000
G1 E219.75447 F2400.00000
M103 ; extruder off
G1 X65.524 Y87.000 F7800.000
G1 X65.524 Y87.000 F7800.000
G1 X58.604 Y61.579 F7800.000
M101 ; extruder on
G1 E221.75447 F2400.00000
G1 X57.409 Y62.496 E221.96845 F1800.000
G1 X56.018 Y63.073 E222.18242
G1 X54.524 Y63.269 E222.39641
G1 X53.031 Y63.073 E222.61039
G1 X51.640 Y62.496 E222.82436
G1 X50.445 Y61.579 E223.03835
G1 X49.528 Y60.385 E223.25232
G1 X48.952 Y58.993 E223.46629
G1 X48.755 Y57.500 E223.68027
G1 X48.952 Y56.007 E223.89425
G1 X49.528 Y54.615 E224.10823
G1 X50.445 Y53.421 E224.32220
G1 X51.640 Y52.504 E224.53618
G1 X53.031 Y51.927 E224.75015
G1 X54.524 Y51.731 E224.96414
G1 X56.018 Y51.927 E225.17812
M101 ; extruder on
G1 X57.409 Y52.504 E225.39209 F1800.000
