; generated by Slic3r 1.2.9 on 2017-09-20 at 19:40:39

; external perimeters extrusion width = 0.50mm
; perimeters extrusion width = 0.58mm
; infill extrusion width = 0.58mm
; solid infill extrusion width = 0.58mm
; top infill extrusion width = 0.58mm

M127
M109 S210 ; set bed temperature
M104 S220 T0 ; set temperature
G28 ; home all axes
G1 Z5 F5000 ; lift nozzle

M73 P0
G1 Z0.500 F7800.000
G1 E-2.00000 F2400.00000
M103 ; extruder off
G1 X19.793 Y22.656 F7800.000
M101 ; extruder on
G1 E0.00000 F2400.00000
G1 X20.412 Y22.115 E0.11680 F1800.000
G1 X22.587 Y21.254 E0.44922
G1 X24.000 Y21.107 E0.65100
G1 X116.000 Y21.107 E13.72213
G1 X118.306 Y21.504 E14.05454
M101 ; extruder on
G1 X120.346 Y22.650 E14.38696 F1800.000
G1 X121.885 Y24.412 E14.71938
G1 X122.746 Y26.587 E15.05180
G1 X122.893 Y28.000 E15.25358
G1 X122.893 Y87.000 E23.63615
G1 X122.496 Y89.306 E23.96856
G1 X121.350 Y91.346 E24.30098
G1 X119.588 Y92.885 E24.63340
G1 X117.413 Y93.746 E24.96582
G1 X116.000 Y93.893 E25.16760
G1 X24.000 Y93.893 E38.23872
G1 X21.694 Y93.496 E38.57114
G1 X19.654 Y92.350 E38.90356
G1 X18.115 Y90.588 E39.23598
G1 X17.254 Y88.413 E39.56839
G1 X17.107 Y87.000 E39.77017
G1 X17.107 Y28.000 E48.15274
G1 X17.504 Y25.694 E48.48516
G1 X18.650 Y23.654 E48.81758
G1 X19.736 Y22.705 E49.02254
G1 E47.02254 F2400.00000
M103 ; extruder off
G1 X21.728 Y24.591 F7800.000
M101 ; extruder on
G1 E49.02254 F2400.00000
G1 X22.336 Y23.983 E49.14471 F1800.000
G1 X117.664 Y23.983 E62.68866
G1 X120.017 Y26.336 E63.16148
M101 ; extruder on
G1 X120.017 Y38.789 E64.93076 F1800.000
G1 X117.664 Y41.142 E65.40358
G1 X108.640 Y41.142 E66.68567
G1 X108.117 Y41.665 E66.79074
G1 X108.117 Y56.335 E68.87500
G1 X108.640 Y56.858 E68.98007
G1 X117.664 Y56.858 E70.26216
G1 X120.017 Y59.211 E70.73498
G1 X120.017 Y69.057 E72.13384
G1 X117.664 Y71.410 E72.60666
G1 X99.336 Y71.410 E75.21065
G1 X96.983 Y69.057 E75.68347
G1 X96.983 Y35.540 E80.44544
G1 X96.460 Y35.017 E80.55051
G1 X78.540 Y35.017 E83.09652
G1 X78.017 Y35.540 E83.20159
G1 X78.017 Y42.039 E84.12493
G1 X75.664 Y44.392 E84.59775
G1 X66.336 Y44.392 E85.92304
G1 X63.983 Y42.039 E86.39586
G1 X63.983 Y35.540 E87.31921
G1 X63.460 Y35.017 E87.42428
G1 X43.540 Y35.017 E90.25444
G1 X43.017 Y35.540 E90.35951
G1 X43.017 Y70.626 E95.34436
G1 X40.664 Y72.979 E95.81718
G1 X22.336 Y72.979 E98.42117
G1 X19.983 Y70.626 E98.89399
G1 X19.983 Y59.211 E100.51573
G1 X22.336 Y56.858 E100.98855
G1 X31.460 Y56.858 E102.28485
G1 X31.983 Y56.335 E102.38992
G1 X31.983 Y41.665 E104.47418
G1 X31.460 Y41.142 E104.57925
G1 X22.336 Y41.142 E105.87555
G1 X19.983 Y38.789 E106.34837
G1 X19.983 Y26.336 E108.11765
G1 X21.675 Y24.644 E108.45764
G1 X22.359 Y25.222 F7800.000
M101 ; extruder on
G1 X22.706 Y24.876 E108.52728 F1800.000
G1 X117.294 Y24.876 E121.96615
M101 ; extruder on
G1 X119.124 Y26.706 E122.33390 F1800.000
G1 X119.124 Y38.419 E123.99811
G1 X117.294 Y40.249 E124.36586
G1 X107.747 Y40.249 E125.72225
G1 X107.224 Y40.772 E125.82732
G1 X107.224 Y57.228 E128.16524
G1 X107.747 Y57.751 E128.27031
G1 X117.294 Y57.751 E129.62670
G1 X119.124 Y59.581 E129.99445
G1 X119.124 Y68.687 E131.28823
G1 X117.294 Y70.517 E131.65598
G1 X99.706 Y70.517 E134.15490
G1 X97.876 Y68.687 E134.52265
G1 X97.876 Y34.647 E139.35891
G1 X97.353 Y34.124 E139.46399
G1 X77.647 Y34.124 E142.26366
G1 X77.124 Y34.647 E142.36873
G1 X77.124 Y41.669 E143.36637
G1 X75.294 Y43.499 E143.73412
G1 X66.706 Y43.499 E144.95433
G1 X64.876 Y41.669 E145.32208
G1 X64.876 Y34.647 E146.31972
G1 X64.353 Y34.124 E146.42480
G1 X42.647 Y34.124 E149.50862
G1 X42.124 Y34.647 E149.61369
G1 X42.124 Y70.256 E154.67284
G1 X40.294 Y72.086 E155.04059
G1 X22.706 Y72.086 E157.53951
G1 X20.876 Y70.256 E157.90726
G1 X20.876 Y59.581 E159.42393
G1 X22.706 Y57.751 E159.79168
G1 X32.353 Y57.751 E161.16227
G1 X32.876 Y57.228 E161.26734
G1 X32.876 Y40.772 E163.60526
G1 X32.353 Y40.249 E163.71033
G1 X22.706 Y40.249 E165.08093
G1 X20.876 Y38.419 E165.44868
G1 X20.876 Y26.706 E167.11289
G1 X22.306 Y25.275 E167.40034
G1 X22.990 Y25.853 F7800.000
M101 ; extruder on
G1 X23.076 Y25.768 E167.41744 F1800.000
G1 X116.924 Y25.768 E180.75125
G1 X118.232 Y27.076 E181.01393
M101 ; extruder on
G1 X118.232 Y38.049 E182.57306 F1800.000
G1 X116.924 Y39.357 E182.83574
G1 X106.855 Y39.357 E184.26643
G1 X106.332 Y39.880 E184.37150
G1 X106.332 Y58.120 E186.96308
G1 X106.855 Y58.643 E187.06815
G1 X116.924 Y58.643 E188.49884
G1 X118.232 Y59.951 E188.76151
G1 X118.232 Y68.317 E189.95023
G1 X116.924 Y69.625 E190.21291
G1 X100.076 Y69.625 E192.60675
G1 X98.768 Y68.317 E192.86943
G1 X98.768 Y33.755 E197.77999
G1 X98.245 Y33.232 E197.88506
G1 X76.755 Y33.232 E200.93840
G1 X76.232 Y33.755 E201.04347
G1 X76.232 Y41.299 E202.11541
G1 X74.924 Y42.607 E202.37809
G1 X67.076 Y42.607 E203.49323
G1 X65.768 Y41.299 E203.75591
G1 X65.768 Y33.755 E204.82785
G1 X65.245 Y33.232 E204.93292
G1 X41.755 Y33.232 E208.27041
G1 X41.232 Y33.755 E208.37548
G1 X41.232 Y69.886 E213.50893
G1 X39.924 Y71.193 E213.77161
G1 X23.076 Y71.193 E216.16545
G1 X21.768 Y69.886 E216.42813
G1 X21.768 Y59.951 E217.83973
G1 X23.076 Y58.643 E218.10240
G1 X33.245 Y58.643 E219.54730
G1 X33.768 Y58.120 E219.65237
G1 X33.768 Y39.880 E222.24395
G1 X33.245 Y39.357 E222.34902
G1 X23.076 Y39.357 E223.79391
G1 X21.768 Y38.049 E224.05659
G1 X21.768 Y27.076 E225.61573
G1 X22.937 Y25.906 E225.85065
G1 X23.445 Y26.661 F7800.000
M101 ; extruder on
G1 X116.555 Y26.661 E239.07938 F1800.000
M101 ; extruder on
G1 X117.339 Y27.445 E239.23699 F1800.000
G1 X117.339 Y37.680 E240.69106
G1 X116.555 Y38.464 E240.84866
G1 X105.962 Y38.464 E242.35364
G1 X105.439 Y38.987 E242.45871
G1 X105.439 Y59.013 E245.30396
G1 X105.962 Y59.536 E245.40904
G1 X116.555 Y59.536 E246.91402
G1 X117.339 Y60.320 E247.07162
G1 X117.339 Y67.947 E248.15527
G1 X116.555 Y68.732 E248.31288
G1 X100.445 Y68.732 E250.60164
G1 X99.661 Y67.947 E250.75925
G1 X99.661 Y32.862 E255.74411
G1 X99.138 Y32.339 E255.84918
G1 X75.862 Y32.339 E259.15619
G1 X75.339 Y32.862 E259.26126
G1 X75.339 Y40.930 E260.40749
G1 X74.555 Y41.714 E260.56510
G1 X67.445 Y41.714 E261.57517
G1 X66.661 Y40.930 E261.73278
G1 X66.661 Y32.862 E262.87901
G1 X66.138 Y32.339 E262.98408
G1 X40.862 Y32.339 E266.57524
G1 X40.339 Y32.862 E266.68031
G1 X40.339 Y69.516 E271.88805
G1 X39.555 Y70.301 E272.04566
G1 X23.445 Y70.301 E274.33443
G1 X22.661 Y69.516 E274.49204
G1 X22.661 Y60.320 E275.79857
G1 X23.445 Y59.536 E275.95617
G1 X34.138 Y59.536 E277.47536
G1 X34.661 Y59.013 E277.58043
G1 X34.661 Y38.987 E280.42568
G1 X34.138 Y38.464 E280.53075
G1 X23.445 Y38.464 E282.04994
G1 X22.661 Y37.680 E282.20755
G1 X22.661 Y27.445 E283.66161
G1 X23.392 Y26.714 E283.80856
G1 X23.815 Y27.554 F7800.000
M101 ; extruder on
G1 X116.185 Y27.554 E296.93223 F1800.000
G1 X116.446 Y27.815 E296.98476
M101 ; extruder on
G1 X116.446 Y37.310 E298.33375 F1800.000
G1 X116.185 Y37.571 E298.38629
G1 X105.069 Y37.571 E299.96557
G1 X104.546 Y38.094 E300.07064
G1 X104.546 Y59.906 E303.16955
G1 X105.069 Y60.429 E303.27462
G1 X116.185 Y60.429 E304.85390
G1 X116.446 Y60.690 E304.90644
G1 X116.446 Y67.578 E305.88501
G1 X116.185 Y67.839 E305.93755
G1 X100.815 Y67.839 E308.12124
G1 X100.554 Y67.578 E308.17378
G1 X100.554 Y31.969 E313.23294
G1 X100.031 Y31.446 E313.33801
G1 X74.969 Y31.446 E316.89867
G1 X74.446 Y31.969 E317.00375
G1 X74.446 Y40.560 E318.22428
G1 X74.185 Y40.821 E318.27681
G1 X67.815 Y40.821 E319.18181
G1 X67.554 Y40.560 E319.23435
G1 X67.554 Y31.969 E320.45488
G1 X67.031 Y31.446 E320.55995
G1 X39.969 Y31.446 E324.40477
G1 X39.446 Y31.969 E324.50984
G1 X39.446 Y69.146 E329.79188
G1 X39.185 Y69.408 E329.84442
G1 X23.815 Y69.408 E332.02812
G1 X23.554 Y69.146 E332.08065
G1 X23.554 Y60.690 E333.28211
G1 X23.815 Y60.429 E333.33465
G1 X35.031 Y60.429 E334.92813
G1 X35.554 Y59.906 E335.03320
G1 X35.554 Y38.094 E338.13212
G1 X35.031 Y37.571 E338.23719
G1 X23.815 Y37.571 E339.83067
G1 X23.554 Y37.310 E339.88321
G1 X23.554 Y27.815 E341.23220
G1 X23.762 Y27.607 E341.27408
G1 E339.27408 F2400.00000
M103 ; extruder off
G1 X63.983 Y51.765 F7800.000
M101 ; extruder on
G1 E341.27408 F2400.00000
G1 X66.336 Y49.411 E341.74690 F1800.000
G1 X75.664 Y49.411 E343.07219
G1 X78.017 Y51.765 E343.54501
M101 ; extruder on
G1 X78.017 Y69.057 E346.00184 F1800.000
G1 X75.664 Y71.410 E346.47466
G1 X66.336 Y71.410 E347.79995
G1 X63.983 Y69.057 E348.27277
G1 X63.983 Y51.840 E350.71894
G1 X64.876 Y52.134 F7800.000
M101 ; extruder on
G1 X66.706 Y50.304 E351.08669 F1800.000
G1 X75.294 Y50.304 E352.30691
M101 ; extruder on
G1 X77.124 Y52.134 E352.67466 F1800.000
G1 X77.124 Y68.687 E355.02642
G1 X75.294 Y70.517 E355.39417
G1 X66.706 Y70.517 E356.61438
G1 X64.876 Y68.687 E356.98213
G1 X64.876 Y52.209 E359.32323
G1 X65.768 Y52.504 F7800.000
M101 ; extruder on
G1 X67.076 Y51.197 E359.58591 F1800.000
G1 X74.924 Y51.197 E360.70105
G1 X76.232 Y52.504 E360.96373
M101 ; extruder on
G1 X76.232 Y68.317 E363.21042 F1800.000
G1 X74.924 Y69.625 E363.47310
G1 X67.076 Y69.625 E364.58824
G1 X65.768 Y68.317 E364.85092
G1 X65.768 Y52.579 E367.08695
G1 X66.661 Y52.874 F7800.000
M101 ; extruder on
G1 X67.445 Y52.090 E367.24456 F1800.000
G1 X74.555 Y52.090 E368.25463
M101 ; extruder on
G1 X75.339 Y52.874 E368.41224 F1800.000
G1 X75.339 Y67.947 E370.55385
G1 X74.555 Y68.732 E370.71146
G1 X67.445 Y68.732 E371.72153
G1 X66.661 Y67.947 E371.87914
G1 X66.661 Y52.949 E374.01010
G1 X67.554 Y53.244 F7800.000
M101 ; extruder on
G1 X67.815 Y52.982 E374.06264 F1800.000
G1 X74.185 Y52.982 E374.96764
G1 X74.446 Y53.244 E375.02017
M101 ; extruder on
G1 X74.446 Y67.578 E377.05672 F1800.000
G1 X74.185 Y67.839 E377.10925
G1 X67.815 Y67.839 E378.01425
G1 X67.554 Y67.578 E378.06679
G1 X67.554 Y53.319 E380.09268
G1 E378.09268 F2400.00000
M103 ; extruder off
G1 X67.554 Y74.983 F7800.000
M101 ; extruder on
G1 E380.09268 F2400.00000
G1 X75.664 Y74.983 E381.24497 F1800.000
G1 X78.017 Y77.336 E381.71779
G1 X78.017 Y78.460 E381.87747
G1 X78.540 Y78.983 E381.98254
G1 X96.460 Y78.983 E384.52855
G1 X96.983 Y78.460 E384.63362
G1 X96.983 Y77.336 E384.79329
G1 X99.336 Y74.983 E385.26612
G1 X117.664 Y74.983 E387.87010
G1 X120.017 Y77.336 E388.34292
G1 X120.017 Y88.664 E389.95236
G1 X117.664 Y91.017 E390.42518
G1 X22.336 Y91.017 E403.96913
G1 X19.983 Y88.664 E404.44195
G1 X19.983 Y77.336 E406.05139
G1 X22.336 Y74.983 E406.52422
G1 X40.664 Y74.983 E409.12820
G1 X43.017 Y77.336 E409.60102
M101 ; extruder on
G1 X43.017 Y78.460 E409.76070 F1800.000
G1 X43.540 Y78.983 E409.86577
G1 X63.460 Y78.983 E412.69593
G1 X63.983 Y78.460 E412.80100
G1 X63.983 Y77.336 E412.96068
G1 X66.336 Y74.983 E413.43350
G1 X67.479 Y74.983 E413.59584
G1 X67.554 Y75.876 F7800.000
M101 ; extruder on
G1 X75.294 Y75.876 E414.69560 F1800.000
G1 X77.124 Y77.706 E415.06335
G1 X77.124 Y79.353 E415.29732
G1 X77.647 Y79.876 E415.40239
G1 X97.353 Y79.876 E418.20206
G1 X97.876 Y79.353 E418.30714
G1 X97.876 Y77.706 E418.54111
G1 X99.706 Y75.876 E418.90886
G1 X117.294 Y75.876 E421.40777
G1 X119.124 Y77.706 E421.77552
G1 X119.124 Y88.294 E423.27989
G1 X117.294 Y90.124 E423.64764
G1 X22.706 Y90.124 E437.08652
G1 X20.876 Y88.294 E437.45427
G1 X20.876 Y77.706 E438.95864
G1 X22.706 Y75.876 E439.32639
G1 X40.294 Y75.876 E441.82530
M101 ; extruder on
G1 X42.124 Y77.706 E442.19305 F1800.000
G1 X42.124 Y79.353 E442.42703
G1 X42.647 Y79.876 E442.53210
G1 X64.353 Y79.876 E445.61592
G1 X64.876 Y79.353 E445.72100
G1 X64.876 Y77.706 E445.95497
G1 X66.706 Y75.876 E446.32272
G1 X67.479 Y75.876 E446.43252
G1 X67.554 Y76.768 F7800.000
M101 ; extruder on
G1 X74.924 Y76.768 E447.47974 F1800.000
G1 X76.232 Y78.076 E447.74242
G1 X76.232 Y80.245 E448.05069
G1 X76.755 Y80.768 E448.15576
G1 X98.245 Y80.768 E451.20910
G1 X98.768 Y80.245 E451.31417
G1 X98.768 Y78.076 E451.62244
G1 X100.076 Y76.768 E451.88512
G1 X116.924 Y76.768 E454.27896
G1 X118.232 Y78.076 E454.54164
G1 X118.232 Y87.924 E455.94094
G1 X116.924 Y89.232 E456.20362
G1 X23.076 Y89.232 E469.53742
G1 X21.768 Y87.924 E469.80010
G1 X21.768 Y78.076 E471.19940
G1 X23.076 Y76.768 E471.46208
G1 X39.924 Y76.768 E473.85592
G1 X41.232 Y78.076 E474.11860
M101 ; extruder on
G1 X41.232 Y80.245 E474.42687 F1800.000
G1 X41.755 Y80.768 E474.53194
G1 X65.245 Y80.768 E477.86943
G1 X65.768 Y80.245 E477.97450
G1 X65.768 Y78.076 E478.28278
G1 X67.076 Y76.768 E478.54545
G1 X67.479 Y76.768 E478.60272
G1 X67.554 Y77.661 F7800.000
M101 ; extruder on
G1 X74.555 Y77.661 E479.59741 F1800.000
G1 X75.339 Y78.445 E479.75501
G1 X75.339 Y81.138 E480.13758
G1 X75.862 Y81.661 E480.24265
G1 X99.138 Y81.661 E483.54965
G1 X99.661 Y81.138 E483.65473
G1 X99.661 Y78.445 E484.03729
G1 X100.445 Y77.661 E484.19490
G1 X116.555 Y77.661 E486.48367
G1 X117.339 Y78.445 E486.64128
G1 X117.339 Y87.555 E487.93550
G1 X116.555 Y88.339 E488.09311
G1 X23.445 Y88.339 E501.32185
G1 X22.661 Y87.555 E501.47945
G1 X22.661 Y78.445 E502.77368
G1 X23.445 Y77.661 E502.93129
G1 X39.555 Y77.661 E505.22006
M101 ; extruder on
G1 X40.339 Y78.445 E505.37766 F1800.000
G1 X40.339 Y81.138 E505.76023
G1 X40.862 Y81.661 E505.86530
G1 X66.138 Y81.661 E509.45646
G1 X66.661 Y81.138 E509.56153
G1 X66.661 Y78.445 E509.94410
G1 X67.445 Y77.661 E510.10171
G1 X67.479 Y77.661 E510.10644
G1 X67.815 Y78.554 F7800.000
M101 ; extruder on
G1 X74.185 Y78.554 E511.01144 F1800.000
G1 X74.446 Y78.815 E511.06397
G1 X74.446 Y82.031 E511.52084
G1 X74.969 Y82.554 E511.62591
G1 X100.031 Y82.554 E515.18658
G1 X100.554 Y82.031 E515.29165
G1 X100.554 Y78.815 E515.74851
G1 X100.815 Y78.554 E515.80105
G1 X116.185 Y78.554 E517.98475
G1 X116.446 Y78.815 E518.03728
G1 X116.446 Y87.185 E519.22644
G1 X116.185 Y87.446 E519.27897
G1 X23.815 Y87.446 E532.40264
G1 X23.554 Y87.185 E532.45517
G1 X23.554 Y78.815 E533.64433
G1 X23.815 Y78.554 E533.69686
G1 X39.185 Y78.554 E535.88056
G1 X39.446 Y78.815 E535.93310
G1 X39.446 Y82.031 E536.38996
G1 X39.969 Y82.554 E536.49503
G1 X67.031 Y82.554 E540.33985
G1 X67.554 Y82.031 E540.44492
G1 X67.554 Y78.815 E540.90179
G1 X67.762 Y78.607 E540.94367
G1 E538.94367 F2400.00000
M103 ; extruder off
G1 X101.500 Y83.500 F7800.000
M101 ; extruder on
G1 E540.94367 F2400.00000
G1 X101.500 Y79.500 E541.51198 F1800.000
G1 X115.500 Y79.500 E543.50106
G1 X115.500 Y86.500 E544.49561
G1 X24.500 Y86.500 E557.42466
G1 X24.500 Y79.500 E558.41920
G1 X38.500 Y79.500 E560.40828
G1 X38.500 Y83.500 E560.97659
G1 X68.500 Y83.500 E565.23892
G1 X68.500 Y79.500 E565.80723
G1 X73.500 Y79.500 E566.51761
G1 X73.500 Y83.500 E567.08592
G1 X101.425 Y83.500 E571.05344
G1 X102.000 Y83.500 F7800.000
G1 X112.203 Y85.607 F7800.000
M101 ; extruder on
G1 X112.759 Y84.980 E571.17255 F1800.000
G1 X113.178 Y84.221 E571.29564
G1 X113.378 Y83.410 E571.41435
G1 X113.378 Y82.590 E571.53092
G1 X113.182 Y81.793 E571.64747
G1 X112.830 Y81.122 E571.75515
G1 X112.211 Y80.393 E571.89107
G1 X114.607 Y80.393 E572.23158
G1 X114.607 Y85.607 E572.97245
G1 X112.278 Y85.607 E573.30336
G1 X111.660 Y84.874 F7800.000
M101 ; extruder on
G1 X111.164 Y85.217 E573.38911 F1800.000
G1 X110.599 Y85.431 E573.47487
G1 X110.000 Y85.504 E573.56063
G1 X109.401 Y85.431 E573.64638
G1 X108.836 Y85.217 E573.73214
G1 X108.340 Y84.874 E573.81789
G1 X107.940 Y84.422 E573.90364
G1 X107.659 Y83.888 E573.98939
G1 X107.515 Y83.302 E574.07514
G1 X107.515 Y82.698 E574.16091
G1 X107.659 Y82.112 E574.24665
G1 X107.940 Y81.578 E574.33240
G1 X108.340 Y81.126 E574.41816
G1 X108.836 Y80.783 E574.50391
G1 X109.401 Y80.569 E574.58967
G1 X109.849 Y80.515 E574.65380
M101 ; extruder on
G1 X110.000 Y80.496 E574.67542 F1800.000
G1 X110.599 Y80.569 E574.76117
G1 X111.164 Y80.783 E574.84693
G1 X111.665 Y81.129 E574.93346
G1 X112.085 Y81.624 E575.02575
G1 X112.341 Y82.112 E575.10401
G1 X112.485 Y82.698 E575.18976
G1 X112.485 Y83.302 E575.27552
G1 X112.340 Y83.893 E575.36205
G1 X112.026 Y84.462 E575.45434
G1 X111.710 Y84.818 E575.52195
G1 X111.740 Y85.368 F7800.000
G1 E573.52195 F2400.00000
M103 ; extruder off
G1 X107.525 Y84.708 F7800.000
G1 X105.673 Y84.440 F7800.000
G1 X104.509 Y83.491 F7800.000
G1 X104.000 Y84.000 F7800.000
G1 X102.000 Y84.000 F7800.000
G1 X102.393 Y84.393 F7800.000
M101 ; extruder on
G1 E575.52195 F2400.00000
