; generated by Slic3r 1.2.9 on 2017-09-20 at 19:42:38

; external perimeters extrusion width = 0.50mm
; perimeters extrusion width = 0.58mm
; infill extrusion width = 0.58mm
; solid infill extrusion width = 0.58mm
; top infill extrusion width = 0.58mm

M127
M109 S210 ; set bed temperature
M104 S220 T0 ; set temperature
G28 ; home all axes
G1 Z5 F5000 ; lift nozzle

M73 P0
G1 Z0.500 F7800.000
G1 E-2.00000 F2400.00000
M103 ; extruder off
G1 X39.010 Y44.653 F7800.000
M101 ; extruder on
G1 E0.00000 F2400.00000
G1 X39.912 Y43.865 E0.17013 F1800.000
G1 X42.087 Y43.004 E0.50255
G1 X43.500 Y42.857 E0.70433
G1 X102.500 Y42.857 E9.08690
G1 X104.806 Y43.254 E9.41932
M101 ; extruder on
G1 X106.846 Y44.400 E9.75174 F1800.000
G1 X108.385 Y46.162 E10.08415
G1 X109.246 Y48.337 E10.41657
G1 X109.393 Y49.750 E10.61835
G1 X109.393 Y55.750 E11.47082
G1 X108.996 Y58.056 E11.80323
G1 X107.850 Y60.096 E12.13565
G1 X106.088 Y61.635 E12.46807
G1 X104.502 Y62.345 E12.71494
G1 X76.502 Y70.845 E16.87239
G1 X74.500 Y71.143 E17.15997
G1 X54.500 Y71.143 E20.00152
G1 X52.194 Y70.746 E20.33394
G1 X50.285 Y69.704 E20.64288
G1 X39.285 Y61.204 E22.61796
G1 X37.704 Y59.480 E22.95038
G1 X36.790 Y57.326 E23.28280
G1 X36.607 Y55.750 E23.50823
G1 X36.607 Y49.750 E24.36070
G1 X37.004 Y47.444 E24.69312
G1 X38.150 Y45.404 E25.02553
G1 X38.954 Y44.702 E25.17716
G1 E23.17716 F2400.00000
M103 ; extruder off
G1 X40.963 Y46.606 F7800.000
M101 ; extruder on
G1 E25.17716 F2400.00000
G1 X41.836 Y45.733 E25.35255 F1800.000
G1 X104.164 Y45.733 E34.20794
G1 X106.517 Y48.086 E34.68076
M101 ; extruder on
G1 X106.517 Y57.077 E35.95816 F1800.000
G1 X104.936 Y59.209 E36.33521
G1 X75.383 Y68.180 E40.72326
G1 X74.797 Y68.267 E40.80753
G1 X53.833 Y68.267 E43.78595
G1 X52.571 Y67.836 E43.97542
G1 X40.305 Y58.358 E46.17777
G1 X39.483 Y56.683 E46.44291
G1 X39.483 Y48.086 E47.66436
G1 X40.910 Y46.659 E47.95114
G1 X41.594 Y47.237 F7800.000
M101 ; extruder on
G1 X42.206 Y46.626 E48.07399 F1800.000
G1 X103.794 Y46.626 E56.82431
M101 ; extruder on
G1 X105.624 Y48.456 E57.19206 F1800.000
G1 X105.624 Y56.782 E58.37503
G1 X104.395 Y58.440 E58.66829
G1 X75.187 Y67.307 E63.00509
G1 X74.731 Y67.374 E63.07063
G1 X53.981 Y67.374 E66.01863
G1 X53.000 Y67.039 E66.16600
G1 X41.015 Y57.779 E68.31785
G1 X40.376 Y56.476 E68.52407
G1 X40.376 Y48.456 E69.66352
G1 X41.541 Y47.290 E69.89776
G1 X42.226 Y47.868 F7800.000
M101 ; extruder on
G1 X42.576 Y47.518 E69.96808 F1800.000
G1 X103.424 Y47.518 E78.61333
G1 X104.732 Y48.826 E78.87600
M101 ; extruder on
G1 X104.732 Y56.487 E79.96454 F1800.000
G1 X103.854 Y57.671 E80.17402
G1 X74.991 Y66.433 E84.45957
G1 X74.665 Y66.482 E84.50639
G1 X54.130 Y66.482 E87.42397
G1 X53.428 Y66.242 E87.52924
G1 X41.725 Y57.199 E89.63058
G1 X41.268 Y56.268 E89.77788
G1 X41.268 Y48.826 E90.83533
G1 X42.173 Y47.921 E91.01704
G1 X42.857 Y48.499 F7800.000
M101 ; extruder on
G1 X42.945 Y48.411 E91.03482 F1800.000
G1 X103.055 Y48.411 E99.57500
M101 ; extruder on
G1 X103.839 Y49.195 E99.73261 F1800.000
G1 X103.839 Y56.192 E100.72672
G1 X103.312 Y56.903 E100.85240
G1 X74.794 Y65.560 E105.08671
G1 X74.599 Y65.589 E105.11480
G1 X54.278 Y65.589 E108.00197
G1 X53.857 Y65.445 E108.06512
G1 X42.435 Y56.619 E110.11596
G1 X42.161 Y56.061 E110.20434
G1 X42.161 Y49.195 E111.17980
G1 X42.804 Y48.552 E111.30898
G1 E109.30898 F2400.00000
M103 ; extruder off
G1 X35.618 Y50.218 F7800.000
G1 X35.843 Y66.907 F7800.000
G1 X37.086 Y67.250 F7800.000
G1 X79.598 Y67.250 F7800.000
G1 X79.598 Y66.250 F7800.000
G1 X102.771 Y56.134 F7800.000
M101 ; extruder on
G1 E111.30898 F2400.00000
G1 X74.598 Y64.687 E115.49204 F1800.000
G1 X54.426 Y64.696 E118.35806
G1 X54.286 Y64.648 E118.37911
G1 X43.145 Y56.040 E120.37944
G1 X43.054 Y55.854 E120.40890
G1 X43.054 Y49.565 E121.30236
G1 X43.315 Y49.304 E121.35490
G1 X102.685 Y49.304 E129.79001
G1 X102.946 Y49.565 E129.84254
G1 X102.946 Y55.897 E130.74222
G1 X102.815 Y56.074 E130.77346
G1 X102.000 Y55.379 F7800.000
M101 ; extruder on
G1 X74.426 Y63.750 E134.86768 F1800.000
G1 X54.671 Y63.750 E137.67443
G1 X44.000 Y55.504 E139.59038
G1 X44.000 Y50.250 E140.33692
G1 X102.000 Y50.250 E148.57742
G1 X102.000 Y55.304 E149.29551
G1 X101.527 Y55.219 F7800.000
G1 X101.107 Y54.717 F7800.000
M101 ; extruder on
G1 X74.293 Y62.857 E153.27686 F1800.000
G1 X54.975 Y62.857 E156.02149
G1 X44.893 Y55.066 E157.83187
G1 X44.893 Y51.143 E158.38930
G1 X101.107 Y51.143 E166.37613
G1 X101.107 Y54.642 E166.87334
G1 X100.215 Y54.055 F7800.000
M101 ; extruder on
G1 X74.161 Y61.965 E170.74182 F1800.000
G1 X55.280 Y61.965 E173.42433
G1 X45.785 Y54.628 E175.12913
G1 X45.785 Y52.035 E175.49745
G1 X100.215 Y52.035 E183.23061
G1 X100.215 Y53.980 E183.50695
G1 X99.665 Y53.004 F7800.000
M101 ; extruder on
G1 X99.246 Y52.585 E183.59122 F1800.000
G1 X99.227 Y53.830 E183.76844
G1 X97.982 Y52.585 E184.01902
G1 X96.717 Y52.585 E184.19896
G1 X98.257 Y54.124 E184.50881
G1 X97.287 Y54.419 E184.65307
G1 X95.453 Y52.585 E185.02217
G1 X94.189 Y52.585 E185.20211
G1 X96.317 Y54.713 E185.63048
G1 X95.347 Y55.008 E185.77474
G1 X92.924 Y52.585 E186.26237
G1 X91.660 Y52.585 E186.44231
G1 X94.377 Y55.302 E186.98920
G1 X93.407 Y55.597 E187.13346
G1 X90.395 Y52.585 E187.73961
G1 X89.131 Y52.585 E187.91955
G1 X92.437 Y55.891 E188.58496
G1 X91.467 Y56.186 E188.72922
G1 X87.866 Y52.585 E189.45390
G1 X86.602 Y52.585 E189.63384
G1 X90.497 Y56.480 E190.41777
G1 X89.527 Y56.775 E190.56203
G1 X85.337 Y52.585 E191.40523
G1 X84.073 Y52.585 E191.58517
G1 X88.557 Y57.069 E192.48763
G1 X87.587 Y57.364 E192.63188
G1 X82.808 Y52.585 E193.59360
G1 X81.544 Y52.585 E193.77355
G1 X86.617 Y57.658 E194.79453
G1 X85.647 Y57.953 E194.93878
G1 X80.279 Y52.585 E196.01903
G1 X79.015 Y52.585 E196.19897
G1 X84.677 Y58.247 E197.33847
G1 X83.707 Y58.541 E197.48273
G1 X77.750 Y52.585 E198.68149
G1 X76.486 Y52.585 E198.86143
G1 X82.737 Y58.836 E200.11946
G1 X81.767 Y59.130 E200.26372
G1 X75.221 Y52.585 E201.58100
G1 X73.957 Y52.585 E201.76094
G1 X80.797 Y59.425 E203.13749
G1 X79.827 Y59.719 E203.28175
G1 X72.692 Y52.585 E204.71756
G1 X71.428 Y52.585 E204.89750
G1 X78.857 Y60.014 E206.39257
G1 X77.887 Y60.308 E206.53683
G1 X70.163 Y52.585 E208.09116
G1 X68.899 Y52.585 E208.27110
G1 X76.917 Y60.603 E209.88469
G1 X75.947 Y60.897 E210.02895
G1 X67.634 Y52.585 E211.70181
G1 X66.370 Y52.585 E211.88175
G1 X74.977 Y61.192 E213.61386
G1 X73.936 Y61.415 E213.76537
G1 X65.105 Y52.585 E215.54247
G1 X63.841 Y52.585 E215.72241
G1 X72.671 Y61.415 E217.49951
G1 X71.407 Y61.415 E217.67945
G1 X62.577 Y52.585 E219.45656
G1 X61.312 Y52.585 E219.63650
G1 X70.142 Y61.415 E221.41360
G1 X68.878 Y61.415 E221.59354
G1 X60.048 Y52.585 E223.37064
G1 X58.783 Y52.585 E223.55058
G1 X67.613 Y61.415 E225.32768
G1 X66.349 Y61.415 E225.50763
G1 X57.519 Y52.585 E227.28473
G1 X56.254 Y52.585 E227.46467
G1 X65.085 Y61.415 E229.24177
G1 X63.820 Y61.415 E229.42171
G1 X54.990 Y52.585 E231.19881
G1 X53.725 Y52.585 E231.37875
G1 X62.556 Y61.415 E233.15586
G1 X61.291 Y61.415 E233.33580
G1 X52.461 Y52.585 E235.11290
G1 X51.196 Y52.585 E235.29284
G1 X60.027 Y61.415 E237.06994
G1 X58.762 Y61.415 E237.24988
G1 X49.932 Y52.585 E239.02698
G1 X48.667 Y52.585 E239.20692
G1 X57.498 Y61.415 E240.98403
G1 X56.233 Y61.415 E241.16397
G1 X47.403 Y52.585 E242.94107
G1 X46.335 Y52.781 E243.09559
G1 X52.408 Y58.855 E244.31791
G1 X46.845 Y54.556 F7800.000
M101 ; extruder on
G1 X46.335 Y54.046 E244.42053 F1800.000
M73 P0
G1 Z0.900 F7800.000
G1 X101.307 Y54.865 F7800.000
M101 ; extruder on
G1 X74.323 Y63.057 E246.18301 F3600.000
G1 X54.907 Y63.057 E247.39648
G1 X44.693 Y55.164 E248.20323
G1 X44.693 Y50.943 E248.46702
G1 X101.307 Y50.943 E252.00535
G1 X101.307 Y54.790 E252.24577
G1 X101.797 Y55.229 F7800.000
M101 ; extruder on
G1 X74.396 Y63.547 E254.03555 F3600.000
G1 X54.740 Y63.547 E255.26405
G1 X44.203 Y55.405 E256.09634
G1 X44.203 Y50.453 E256.40587
G1 X101.797 Y50.453 E260.00556
G1 X101.797 Y55.154 E260.29941
G1 X102.250 Y55.565 F7800.000
M101 ; extruder on
G1 X74.463 Y64.000 E261.83072 F1800.000
G1 X54.585 Y64.000 E262.87891
G1 X43.750 Y55.627 E263.60099
G1 X43.750 Y50.000 E263.89773
G1 X102.250 Y50.000 E266.98257
G1 X102.250 Y55.490 E267.27205
G1 X101.777 Y55.404 F7800.000
G1 X100.755 Y54.690 F7800.000
M101 ; extruder on
G1 X101.014 Y54.432 E267.29514 F1200.000
G1 X101.014 Y53.730 E267.33952
G1 X99.747 Y54.996 E267.45272
G1 X98.739 Y55.302 E267.51931
G1 X101.014 Y53.027 E267.72263
G1 X101.014 Y52.325 E267.76701
G1 X97.731 Y55.608 E268.06044
G1 X96.723 Y55.914 E268.12703
G1 X101.014 Y51.623 E268.51058
G1 X100.698 Y51.236 E268.54212
G1 X95.715 Y56.220 E268.98760
G1 X94.707 Y56.526 E269.05420
G1 X99.996 Y51.236 E269.52704
G1 X99.294 Y51.236 E269.57141
G1 X93.699 Y56.832 E270.07161
G1 X92.690 Y57.138 E270.13820
G1 X98.592 Y51.236 E270.66575
G1 X97.890 Y51.236 E270.71013
G1 X91.682 Y57.444 E271.26504
G1 X90.674 Y57.750 E271.33163
G1 X97.188 Y51.236 E271.91390
G1 X96.486 Y51.236 E271.95827
G1 X89.666 Y58.056 E272.56789
G1 X88.658 Y58.362 E272.63449
G1 X95.784 Y51.236 E273.27146
G1 X95.082 Y51.236 E273.31584
G1 X87.650 Y58.668 E273.98018
G1 X86.642 Y58.974 E274.04677
G1 X94.380 Y51.236 E274.73846
G1 X93.678 Y51.236 E274.78283
G1 X85.634 Y59.280 E275.50188
G1 X84.626 Y59.586 E275.56847
G1 X92.976 Y51.236 E276.31488
G1 X92.273 Y51.236 E276.35925
G1 X83.617 Y59.892 E277.13301
G1 X82.609 Y60.198 E277.19960
G1 X91.571 Y51.236 E278.00072
G1 X90.869 Y51.236 E278.04510
G1 X81.601 Y60.504 E278.87357
G1 X80.593 Y60.811 E278.94016
G1 X90.167 Y51.236 E279.79599
G1 X89.465 Y51.236 E279.84036
G1 X79.585 Y61.117 E280.72355
G1 X78.577 Y61.423 E280.79014
G1 X88.763 Y51.236 E281.70068
G1 X88.061 Y51.236 E281.74506
G1 X77.569 Y61.729 E282.68296
G1 X76.561 Y62.035 E282.74955
G1 X87.359 Y51.236 E283.71480
G1 X86.657 Y51.236 E283.75918
G1 X75.553 Y62.341 E284.75179
G1 X74.545 Y62.647 E284.81838
G1 X85.955 Y51.236 E285.83835
G1 X85.253 Y51.236 E285.88272
G1 X73.726 Y62.764 E286.91313
G1 X73.024 Y62.764 E286.95751
G1 X84.551 Y51.236 E287.98792
G1 X83.849 Y51.236 E288.03229
G1 X72.322 Y62.764 E289.06270
G1 X71.619 Y62.764 E289.10708
G1 X83.147 Y51.236 E290.13749
G1 X82.444 Y51.236 E290.18186
G1 X70.917 Y62.764 E291.21227
G1 X70.215 Y62.764 E291.25665
G1 X81.742 Y51.236 E292.28706
G1 X81.040 Y51.236 E292.33143
G1 X69.513 Y62.764 E293.36184
G1 X68.811 Y62.764 E293.40622
G1 X80.338 Y51.236 E294.43663
G1 X79.636 Y51.236 E294.48100
G1 X68.109 Y62.764 E295.51141
G1 X67.407 Y62.764 E295.55579
G1 X78.934 Y51.236 E296.58620
G1 X78.232 Y51.236 E296.63057
G1 X66.705 Y62.764 E297.66098
G1 X66.003 Y62.764 E297.70536
G1 X77.530 Y51.236 E298.73577
G1 X76.828 Y51.236 E298.78014
G1 X65.301 Y62.764 E299.81055
G1 X64.599 Y62.764 E299.85493
G1 X76.126 Y51.236 E300.88534
G1 X75.424 Y51.236 E300.92971
G1 X63.897 Y62.764 E301.96012
G1 X63.195 Y62.764 E302.00450
G1 X74.722 Y51.236 E303.03491
G1 X74.020 Y51.236 E303.07929
G1 X62.493 Y62.764 E304.10969
G1 X61.790 Y62.764 E304.15407
G1 X73.318 Y51.236 E305.18448
G1 X72.615 Y51.236 E305.22886
G1 X61.088 Y62.764 E306.25926
G1 X60.386 Y62.764 E306.30364
G1 X71.913 Y51.236 E307.33405
G1 X71.211 Y51.236 E307.37843
G1 X59.684 Y62.764 E308.40883
G1 X58.982 Y62.764 E308.45321
G1 X70.509 Y51.236 E309.48362
G1 X69.807 Y51.236 E309.52800
G1 X58.280 Y62.764 E310.55840
G1 X57.578 Y62.764 E310.60278
G1 X69.105 Y51.236 E311.63319
G1 X68.403 Y51.236 E311.67757
G1 X56.876 Y62.764 E312.70798
G1 X56.174 Y62.764 E312.75235
G1 X67.701 Y51.236 E313.78276
G1 X66.999 Y51.236 E313.82714
G1 X55.472 Y62.764 E314.85755
G1 X54.843 Y62.690 E314.89754
G1 X66.297 Y51.236 E315.92136
G1 X65.595 Y51.236 E315.96573
G1 X54.447 Y62.384 E316.96220
G1 X54.051 Y62.078 E316.99383
G1 X64.893 Y51.236 E317.96294
G1 X64.191 Y51.236 E318.00732
G1 X53.655 Y61.772 E318.94907
G1 X53.259 Y61.466 E318.98071
G1 X63.489 Y51.236 E319.89510
G1 X62.786 Y51.236 E319.93948
G1 X52.863 Y61.160 E320.82652
G1 X52.467 Y60.854 E320.85815
G1 X62.084 Y51.236 E321.71784
G1 X61.382 Y51.236 E321.76221
G1 X52.071 Y60.548 E322.59454
G1 X51.675 Y60.242 E322.62618
G1 X60.680 Y51.236 E323.43115
G1 X59.978 Y51.236 E323.47552
G1 X51.279 Y59.936 E324.25314
G1 X50.883 Y59.630 E324.28477
G1 X59.276 Y51.236 E325.03503
G1 X58.574 Y51.236 E325.07941
G1 X50.487 Y59.323 E325.80231
G1 X50.091 Y59.017 E325.83395
G1 X57.872 Y51.236 E326.52949
G1 X57.170 Y51.236 E326.57387
G1 X49.695 Y58.711 E327.24206
G1 X49.299 Y58.405 E327.27369
G1 X56.468 Y51.236 E327.91452
G1 X55.766 Y51.236 E327.95890
G1 X48.903 Y58.099 E328.57238
G1 X48.507 Y57.793 E328.60401
G1 X55.064 Y51.236 E329.19013
G1 X54.362 Y51.236 E329.23451
G1 X48.111 Y57.487 E329.79327
G1 X47.715 Y57.181 E329.82491
G1 X53.659 Y51.236 E330.35632
G1 X52.957 Y51.236 E330.40070
G1 X47.319 Y56.875 E330.90475
G1 X46.923 Y56.569 E330.93638
G1 X52.255 Y51.236 E331.41308
G1 X51.553 Y51.236 E331.45745
G1 X46.527 Y56.263 E331.90679
G1 X46.131 Y55.957 E331.93843
G1 X50.851 Y51.236 E332.36041
G1 X50.149 Y51.236 E332.40479
G1 X45.735 Y55.651 E332.79941
G1 X45.338 Y55.345 E332.83105
G1 X49.447 Y51.236 E333.19832
G1 X48.745 Y51.236 E333.24269
G1 X44.986 Y54.995 E333.57867
G1 X44.986 Y54.293 E333.62305
G1 X48.043 Y51.236 E333.89626
G1 X47.341 Y51.236 E333.94064
G1 X44.986 Y53.591 E334.15110
G1 X44.986 Y52.889 E334.19548
G1 X46.639 Y51.236 E334.34318
G1 X45.937 Y51.236 E334.38755
G1 X44.986 Y52.187 E334.47250
G1 X44.986 Y51.485 E334.51687
G1 X45.235 Y51.236 E334.53906
M73 P0
G1 Z1.300 F7800.000
G1 X101.307 Y54.865 F7800.000
M101 ; extruder on
G1 X74.323 Y63.057 E336.30154 F3600.000
G1 X54.907 Y63.057 E337.51501
G1 X44.693 Y55.164 E338.32176
G1 X44.693 Y50.943 E338.58555
G1 X101.307 Y50.943 E342.12388
G1 X101.307 Y54.790 E342.36430
G1 X101.797 Y55.229 F7800.000
M101 ; extruder on
G1 X74.396 Y63.547 E344.15408 F3600.000
G1 X54.740 Y63.547 E345.38258
G1 X44.203 Y55.405 E346.21487
G1 X44.203 Y50.453 E346.52440
G1 X101.797 Y50.453 E350.12409
G1 X101.797 Y55.154 E350.41793
G1 X102.250 Y55.565 F7800.000
M101 ; extruder on
G1 X74.463 Y64.000 E351.94924 F1800.000
G1 X54.585 Y64.000 E352.99743
G1 X43.750 Y55.627 E353.71952
G1 X43.750 Y50.000 E354.01626
G1 X102.250 Y50.000 E357.10110
G1 X102.250 Y55.490 E357.39058
G1 X101.777 Y55.404 F7800.000
G1 X101.014 Y51.485 F7800.000
M101 ; extruder on
G1 X100.765 Y51.236 E357.41266 F1200.000
G1 X100.067 Y51.236 E357.45660
G1 X101.014 Y52.183 E357.54081
G1 X101.014 Y52.882 E357.58474
G1 X99.368 Y51.236 E357.73109
G1 X98.670 Y51.236 E357.77502
G1 X101.014 Y53.580 E357.98350
G1 X101.014 Y54.279 E358.02743
G1 X97.971 Y51.236 E358.29804
G1 X97.272 Y51.236 E358.34198
G1 X100.781 Y54.745 E358.65405
G1 X100.245 Y54.908 E358.68928
G1 X96.574 Y51.236 E359.01582
G1 X95.875 Y51.236 E359.05976
G1 X99.709 Y55.071 E359.40077
G1 X99.174 Y55.233 E359.43600
G1 X95.177 Y51.236 E359.79148
G1 X94.478 Y51.236 E359.83541
G1 X98.638 Y55.396 E360.20537
G1 X98.102 Y55.559 E360.24059
G1 X93.780 Y51.236 E360.62502
G1 X93.081 Y51.236 E360.66895
G1 X97.566 Y55.721 E361.06784
G1 X97.030 Y55.884 E361.10306
G1 X92.383 Y51.236 E361.51643
G1 X91.684 Y51.236 E361.56036
G1 X96.494 Y56.047 E361.98819
G1 X95.958 Y56.209 E362.02341
G1 X90.985 Y51.236 E362.46571
G1 X90.287 Y51.236 E362.50965
G1 X95.422 Y56.372 E362.96642
G1 X94.887 Y56.535 E363.00164
G1 X89.588 Y51.236 E363.47288
G1 X88.890 Y51.236 E363.51681
G1 X94.351 Y56.697 E364.00252
G1 X93.815 Y56.860 E364.03774
G1 X88.191 Y51.236 E364.53791
G1 X87.493 Y51.236 E364.58185
G1 X93.279 Y57.023 E365.09649
G1 X92.743 Y57.185 E365.13172
G1 X86.794 Y51.236 E365.66083
G1 X86.096 Y51.236 E365.70476
G1 X92.207 Y57.348 E366.24835
G1 X91.671 Y57.511 E366.28357
G1 X85.397 Y51.236 E366.84162
G1 X84.698 Y51.236 E366.88556
G1 X91.135 Y57.673 E367.45808
G1 X90.599 Y57.836 E367.49330
G1 X84.000 Y51.236 E368.08029
G1 X83.301 Y51.236 E368.12422
G1 X90.064 Y57.999 E368.72568
G1 X89.528 Y58.161 E368.76091
G1 X82.603 Y51.236 E369.37684
G1 X81.904 Y51.236 E369.42077
G1 X88.992 Y58.324 E370.05117
G1 X88.456 Y58.487 E370.08639
G1 X81.206 Y51.236 E370.73126
G1 X80.507 Y51.236 E370.77519
G1 X87.920 Y58.649 E371.43453
G1 X87.384 Y58.812 E371.46975
G1 X79.809 Y51.236 E372.14355
G1 X79.110 Y51.236 E372.18749
