; generated by Slic3r 1.2.9 on 2017-09-18 at 17:27:35

; external perimeters extrusion width = 0.50mm
; perimeters extrusion width = 0.58mm
; infill extrusion width = 0.58mm
; solid infill extrusion width = 0.58mm
; top infill extrusion width = 0.58mm

M127
M109 S220 ; set bed temperature
M104 S220 T0 ; set temperature
G28 ; home all axes
G1 Z5 F5000 ; lift nozzle

M73 P0
G1 Z0.500 F7800.000
G1 E-2.00000 F2400.00000
M103 ; extruder off
G1 X36.912 Y45.865 F7800.000
M101 ; extruder on
G1 E0.00000 F2400.00000
G1 X39.087 Y45.004 E0.33242 F1800.000
G1 X40.500 Y44.857 E0.53420
G1 X99.500 Y44.857 E8.91677
G1 X101.806 Y45.254 E9.24919
M101 ; extruder on
G1 X103.846 Y46.400 E9.58160 F1800.000
G1 X105.385 Y48.162 E9.91402
G1 X106.246 Y50.337 E10.24644
G1 X106.393 Y51.750 E10.44822
G1 X106.393 Y54.750 E10.87445
G1 X105.996 Y57.056 E11.20687
G1 X104.850 Y59.096 E11.53929
G1 X103.715 Y60.204 E11.76472
G1 X92.715 Y68.704 E13.73981
G1 X90.647 Y69.800 E14.07222
G1 X88.500 Y70.143 E14.38116
G1 X68.500 Y70.143 E17.22271
G1 X66.498 Y69.845 E17.51030
G1 X38.497 Y61.345 E21.66780
G1 X36.406 Y60.295 E22.00021
G1 X34.787 Y58.607 E22.33263
G1 X33.826 Y56.473 E22.66505
G1 X33.607 Y54.750 E22.91187
G1 X33.607 Y51.750 E23.33810
G1 X34.004 Y49.444 E23.67052
G1 X35.150 Y47.404 E24.00294
G1 X36.855 Y45.914 E24.32470
G1 E22.32470 F2400.00000
M103 ; extruder off
G1 X67.088 Y58.035 F7800.000
M101 ; extruder on
G1 E24.32470 F2400.00000
G1 X89.912 Y58.035 E27.56760 F1800.000
G1 X91.912 Y54.035 E28.20299
G1 X96.094 Y54.035 E28.79711
G1 X96.218 Y54.398 E28.85154
G1 X87.720 Y60.965 E30.37738
G1 X68.839 Y60.965 E33.05989
G1 X52.542 Y56.017 E35.47976
G1 X52.673 Y55.518 E35.55302
G1 X58.803 Y56.881 E36.44526
G1 X60.116 Y54.035 E36.89049
G1 X65.088 Y54.035 E37.59682
G1 X67.054 Y57.968 E38.22155
G1 X67.639 Y57.143 F7800.000
M101 ; extruder on
G1 X89.361 Y57.143 E41.30768 F1800.000
G1 X91.361 Y53.143 E41.94307
G1 X98.107 Y53.143 E42.90161
G1 X98.107 Y54.066 E43.03281
G1 X88.025 Y61.857 E44.84318
G1 X68.707 Y61.857 E47.58782
G1 X41.893 Y53.717 E51.56916
G1 X41.893 Y53.143 E51.65080
G1 X47.107 Y53.143 E52.39168
G1 X47.107 Y53.367 E52.42357
G1 X58.294 Y55.853 E54.05172
G1 X59.545 Y53.143 E54.47585
G1 X65.639 Y53.143 E55.34172
G1 X67.606 Y57.076 E55.96645
G1 X68.191 Y56.250 F7800.000
M101 ; extruder on
G1 X88.809 Y56.250 E58.89581 F1800.000
G1 X90.809 Y52.250 E59.53120
G1 X99.000 Y52.250 E60.69495
G1 X99.000 Y54.504 E61.01526
G1 X88.329 Y62.750 E62.93121
G1 X68.574 Y62.750 E65.73797
G1 X41.000 Y54.379 E69.83218
G1 X41.000 Y52.250 E70.13470
G1 X48.000 Y52.250 E71.12924
G1 X48.000 Y52.651 E71.18623
G1 X57.785 Y54.826 E72.61038
G1 X58.974 Y52.250 E73.01340
G1 X66.191 Y52.250 E74.03881
G1 X68.157 Y56.183 E74.66354
G1 X68.268 Y56.744 F7800.000
G1 X66.109 Y57.541 F7800.000
M101 ; extruder on
G1 X63.153 Y54.585 E75.27026 F1800.000
G1 X60.047 Y55.348 F7800.000
M101 ; extruder on
G1 X63.360 Y58.661 E75.95032 F1800.000
G1 X61.508 Y58.099 E76.23123
G1 X59.640 Y56.231 E76.61476
G1 X59.233 Y57.113 E76.75582
G1 X59.656 Y57.537 E76.84282
G1 X65.212 Y59.223 F7800.000
M101 ; extruder on
G1 X60.574 Y54.585 E77.79495 F1800.000
G1 X61.863 Y54.585 E77.98215
G1 X67.064 Y59.786 E79.04968
G1 X67.153 Y58.585 E79.22444
G1 X68.916 Y60.348 E79.58630
G1 X70.273 Y60.415 E79.78354
G1 X68.443 Y58.585 E80.15925
G1 X69.733 Y58.585 E80.34645
G1 X71.563 Y60.415 E80.72217
G1 X72.853 Y60.415 E80.90936
G1 X71.022 Y58.585 E81.28508
G1 X72.312 Y58.585 E81.47228
G1 X74.142 Y60.415 E81.84799
G1 X75.432 Y60.415 E82.03519
G1 X73.602 Y58.585 E82.41091
G1 X74.891 Y58.585 E82.59810
G1 X76.722 Y60.415 E82.97382
G1 X78.012 Y60.415 E83.16102
G1 X76.181 Y58.585 E83.53673
G1 X77.471 Y58.585 E83.72393
G1 X79.301 Y60.415 E84.09965
G1 X80.591 Y60.415 E84.28684
G1 X78.761 Y58.585 E84.66256
G1 X80.050 Y58.585 E84.84976
G1 X81.881 Y60.415 E85.22547
G1 X83.170 Y60.415 E85.41267
G1 X81.340 Y58.585 E85.78839
G1 X82.630 Y58.585 E85.97558
G1 X84.460 Y60.415 E86.35130
G1 X85.750 Y60.415 E86.53849
G1 X83.919 Y58.585 E86.91421
G1 X85.209 Y58.585 E87.10141
G1 X87.040 Y60.415 E87.47713
G1 X88.036 Y60.122 E87.62791
G1 X86.499 Y58.585 E87.94348
G1 X87.789 Y58.585 E88.13068
G1 X88.764 Y59.560 E88.33085
G1 X89.078 Y58.585 E88.47958
G1 X89.477 Y58.984 E88.56142
G1 X90.246 Y58.419 F7800.000
M101 ; extruder on
G1 X91.762 Y56.576 E88.90061 F1800.000
G1 X92.253 Y56.057 F7800.000
M101 ; extruder on
G1 X91.714 Y55.517 E89.04973 F1800.000
G1 X92.518 Y54.585 E89.29041
G1 X93.688 Y55.755 E89.61382
G1 X94.255 Y54.585 E89.86792
G1 X94.654 Y54.984 E89.97814
G1 X90.890 Y57.636 F7800.000
G1 X65.211 Y58.086 F7800.000
G1 X60.849 Y56.684 F7800.000
G1 X57.692 Y57.102 F7800.000
G1 X47.211 Y54.351 F7800.000
G1 X52.175 Y55.654 F7800.000
M101 ; extruder on
G1 X46.560 Y54.180 E91.72703 F1800.000
G1 X46.321 Y54.081 E91.80489
G1 X44.731 Y53.845 E92.28916
G1 X44.731 Y53.845 F7800.000
M101 ; extruder on
G1 X43.179 Y53.615 E92.51205 F1800.000
M73 P0
G1 Z0.900 F7800.000
G1 X67.762 Y56.943 F7800.000
M101 ; extruder on
G1 X89.238 Y56.943 E93.85425 F3600.000
G1 X91.238 Y52.943 E94.13375
G1 X98.307 Y52.943 E94.57557
G1 X98.307 Y54.164 E94.65186
G1 X88.093 Y62.057 E95.45861
G1 X68.677 Y62.057 E96.67208
G1 X41.693 Y53.865 E98.43456
G1 X41.693 Y52.943 E98.49217
G1 X47.307 Y52.943 E98.84300
G1 X47.307 Y53.207 E98.85949
G1 X58.180 Y55.624 E99.55568
G1 X59.417 Y52.943 E99.74018
G1 X65.762 Y52.943 E100.13675
G1 X67.729 Y56.876 E100.41157
G1 X68.066 Y56.453 F7800.000
M101 ; extruder on
G1 X88.934 Y56.453 E101.71584 F3600.000
G1 X90.934 Y52.453 E101.99535
G1 X98.797 Y52.453 E102.48680
G1 X98.797 Y54.405 E102.60884
G1 X88.260 Y62.547 E103.44113
G1 X68.604 Y62.547 E104.66962
G1 X41.203 Y54.229 E106.45941
G1 X41.203 Y52.453 E106.57044
G1 X47.797 Y52.453 E106.98263
G1 X47.797 Y52.814 E107.00519
G1 X57.901 Y55.059 E107.65204
G1 X59.103 Y52.453 E107.83143
G1 X66.066 Y52.453 E108.26659
G1 X68.032 Y56.385 E108.54141
G1 X68.345 Y56.000 F7800.000
M101 ; extruder on
G1 X88.655 Y56.000 E109.61235 F1800.000
G1 X90.655 Y52.000 E109.84818
G1 X99.250 Y52.000 E110.30144
G1 X99.250 Y54.627 E110.43998
G1 X88.415 Y63.000 E111.16206
G1 X68.537 Y63.000 E112.21025
G1 X40.750 Y54.565 E113.74156
G1 X40.750 Y52.000 E113.87680
G1 X48.250 Y52.000 E114.27230
G1 X48.250 Y52.451 E114.29605
G1 X57.643 Y54.538 E114.80343
G1 X58.814 Y52.000 E114.95081
G1 X66.345 Y52.000 E115.34798
G1 X68.312 Y55.933 E115.57985
G1 X68.422 Y56.494 F7800.000
G1 X60.331 Y53.236 F7800.000
M101 ; extruder on
G1 X59.091 Y54.476 E115.68972 F1200.000
G1 X42.235 Y53.236 F7800.000
M101 ; extruder on
G1 X41.986 Y53.485 E115.71171 F1200.000
G1 X42.375 Y53.793 E115.74275
G1 X42.931 Y53.236 E115.79203
G1 X43.627 Y53.236 E115.83564
G1 X42.909 Y53.955 E115.89929
G1 X43.442 Y54.117 E115.93425
G1 X44.323 Y53.236 E116.01226
G1 X45.019 Y53.236 E116.05587
G1 X43.976 Y54.279 E116.14824
G1 X44.510 Y54.441 E116.18321
G1 X45.715 Y53.236 E116.28994
G1 X46.411 Y53.236 E116.33355
G1 X45.044 Y54.603 E116.45465
G1 X45.578 Y54.765 E116.48962
G1 X47.014 Y53.330 E116.61681
G1 X47.508 Y53.532 E116.65026
G1 X46.112 Y54.927 E116.77393
G1 X46.646 Y55.089 E116.80890
G1 X48.077 Y53.658 E116.93572
G1 X48.647 Y53.785 E116.97227
G1 X47.180 Y55.251 E117.10224
G1 X47.714 Y55.413 E117.13721
G1 X49.216 Y53.911 E117.27033
G1 X49.786 Y54.038 E117.30688
G1 X48.248 Y55.575 E117.44315
G1 X48.782 Y55.738 E117.47812
G1 X50.355 Y54.164 E117.61753
G1 X50.924 Y54.291 E117.65409
G1 X49.316 Y55.900 E117.79665
G1 X49.850 Y56.062 E117.83162
G1 X51.494 Y54.417 E117.97734
G1 X52.063 Y54.544 E118.01389
G1 X50.384 Y56.224 E118.16276
G1 X50.918 Y56.386 E118.19772
G1 X52.633 Y54.671 E118.34974
G1 X53.202 Y54.797 E118.38629
G1 X51.451 Y56.548 E118.54146
G1 X51.985 Y56.710 E118.57642
G1 X53.772 Y54.924 E118.73473
G1 X54.341 Y55.050 E118.77129
G1 X52.519 Y56.872 E118.93275
G1 X53.053 Y57.034 E118.96772
G1 X54.911 Y55.177 E119.13233
G1 X55.480 Y55.303 E119.16888
G1 X53.587 Y57.196 E119.33665
G1 X54.121 Y57.358 E119.37161
G1 X56.050 Y55.430 E119.54252
G1 X56.619 Y55.556 E119.57908
G1 X54.655 Y57.521 E119.75314
G1 X55.189 Y57.683 E119.78810
G1 X57.189 Y55.683 E119.96531
G1 X57.758 Y55.809 E120.00187
G1 X55.723 Y57.845 E120.18222
G1 X56.257 Y58.007 E120.21719
G1 X61.027 Y53.236 E120.63993
G1 X61.723 Y53.236 E120.68355
G1 X56.791 Y58.169 E121.12065
G1 X57.325 Y58.331 E121.15562
G1 X62.419 Y53.236 E121.60709
G1 X63.115 Y53.236 E121.65070
G1 X57.859 Y58.493 E122.11654
G1 X58.393 Y58.655 E122.15150
G1 X63.811 Y53.236 E122.63170
G1 X64.507 Y53.236 E122.67531
G1 X58.926 Y58.817 E123.16988
G1 X59.460 Y58.979 E123.20484
G1 X65.203 Y53.236 E123.71377
G1 X65.714 Y53.422 E123.74781
G1 X59.994 Y59.141 E124.25466
G1 X60.528 Y59.303 E124.28963
G1 X65.946 Y53.886 E124.76973
G1 X66.178 Y54.350 E124.80224
G1 X61.062 Y59.466 E125.25558
G1 X61.596 Y59.628 E125.29055
G1 X66.410 Y54.814 E125.71713
G1 X66.642 Y55.278 E125.74964
G1 X62.130 Y59.790 E126.14947
G1 X62.664 Y59.952 E126.18444
G1 X66.874 Y55.742 E126.55751
G1 X67.106 Y56.206 E126.59002
G1 X63.198 Y60.114 E126.93634
G1 X63.732 Y60.276 E126.97131
G1 X67.338 Y56.670 E127.29087
G1 X67.570 Y57.134 E127.32338
G1 X64.266 Y60.438 E127.61618
G1 X64.800 Y60.600 E127.65115
G1 X68.163 Y57.236 E127.94923
G1 X68.859 Y57.236 E127.99285
G1 X65.334 Y60.762 E128.30530
G1 X65.868 Y60.924 E128.34026
G1 X69.555 Y57.236 E128.66708
G1 X70.251 Y57.236 E128.71070
G1 X66.401 Y61.086 E129.05187
G1 X66.935 Y61.248 E129.08684
G1 X70.947 Y57.236 E129.44238
G1 X71.643 Y57.236 E129.48600
G1 X67.469 Y61.411 E129.85591
G1 X68.003 Y61.573 E129.89087
G1 X72.339 Y57.236 E130.27514
G1 X73.035 Y57.236 E130.31876
G1 X68.537 Y61.735 E130.71739
G1 X69.204 Y61.764 E130.75924
G1 X73.732 Y57.236 E131.16043
G1 X74.428 Y57.236 E131.20404
G1 X69.900 Y61.764 E131.60523
G1 X70.597 Y61.764 E131.64884
G1 X75.124 Y57.236 E132.05003
G1 X75.820 Y57.236 E132.09364
G1 X71.293 Y61.764 E132.49483
G1 X71.989 Y61.764 E132.53844
G1 X76.516 Y57.236 E132.93963
G1 X77.212 Y57.236 E132.98324
G1 X72.685 Y61.764 E133.38443
G1 X73.381 Y61.764 E133.42804
G1 X77.908 Y57.236 E133.82923
G1 X78.604 Y57.236 E133.87284
G1 X74.077 Y61.764 E134.27403
G1 X74.773 Y61.764 E134.31764
G1 X79.300 Y57.236 E134.71882
G1 X79.996 Y57.236 E134.76244
G1 X75.469 Y61.764 E135.16362
G1 X76.165 Y61.764 E135.20724
G1 X80.692 Y57.236 E135.60842
G1 X81.388 Y57.236 E135.65204
G1 X76.861 Y61.764 E136.05322
G1 X77.557 Y61.764 E136.09684
G1 X82.084 Y57.236 E136.49802
G1 X82.780 Y57.236 E136.54164
G1 X78.253 Y61.764 E136.94282
G1 X78.949 Y61.764 E136.98644
G1 X83.476 Y57.236 E137.38762
G1 X84.172 Y57.236 E137.43124
G1 X79.645 Y61.764 E137.83242
G1 X80.341 Y61.764 E137.87604
G1 X84.868 Y57.236 E138.27722
G1 X85.564 Y57.236 E138.32083
G1 X81.037 Y61.764 E138.72202
G1 X81.733 Y61.764 E138.76563
G1 X86.260 Y57.236 E139.16682
G1 X86.956 Y57.236 E139.21043
G1 X82.429 Y61.764 E139.61162
G1 X83.125 Y61.764 E139.65523
G1 X87.652 Y57.236 E140.05642
G1 X88.348 Y57.236 E140.10003
G1 X83.821 Y61.764 E140.50122
G1 X84.517 Y61.764 E140.54483
G1 X89.044 Y57.236 E140.94602
G1 X89.922 Y56.358 F7800.000
M101 ; extruder on
G1 X93.044 Y53.236 E141.22266 F1200.000
G1 X93.740 Y53.236 E141.26627
G1 X85.213 Y61.764 E142.02194
G1 X85.909 Y61.764 E142.06555
G1 X94.436 Y53.236 E142.82122
G1 X91.314 Y53.574 F7800.000
M101 ; extruder on
G1 X91.652 Y53.236 E142.85114 F1200.000
G1 X92.348 Y53.236 E142.89475
G1 X90.618 Y54.966 E143.04803
G1 X91.549 Y58.907 F7800.000
M101 ; extruder on
G1 X97.220 Y53.236 E143.55058 F1200.000
G1 X96.524 Y53.236 E143.59420
G1 X88.487 Y61.274 E144.30647
G1 X87.301 Y61.764 F7800.000
M101 ; extruder on
G1 X95.828 Y53.236 E145.06213 F1200.000
G1 X95.132 Y53.236 E145.10575
G1 X86.605 Y61.764 E145.86141
G1 X94.612 Y56.541 F7800.000
M101 ; extruder on
G1 X97.916 Y53.236 E146.15425 F1200.000
G1 X98.014 Y53.835 E146.19225
G1 X97.674 Y54.174 E146.22233
M73 P0
G1 Z1.300 F7800.000
G1 E144.22233 F2400.00000
M103 ; extruder off
G1 X67.762 Y56.943 F7800.000
M101 ; extruder on
G1 E146.22233 F2400.00000
G1 X89.238 Y56.943 E147.56453 F3600.000
G1 X91.238 Y52.943 E147.84403
G1 X98.307 Y52.943 E148.28585
G1 X98.307 Y54.164 E148.36214
G1 X88.093 Y62.057 E149.16889
G1 X68.677 Y62.057 E150.38236
G1 X41.693 Y53.865 E152.14484
G1 X41.693 Y52.943 E152.20245
G1 X47.307 Y52.943 E152.55328
G1 X47.307 Y53.207 E152.56977
G1 X58.180 Y55.624 E153.26596
G1 X59.417 Y52.943 E153.45046
G1 X65.762 Y52.943 E153.84703
G1 X67.729 Y56.876 E154.12185
G1 X68.066 Y56.453 F7800.000
M101 ; extruder on
G1 X88.934 Y56.453 E155.42612 F3600.000
G1 X90.934 Y52.453 E155.70563
G1 X98.797 Y52.453 E156.19708
G1 X98.797 Y54.405 E156.31912
G1 X88.260 Y62.547 E157.15141
G1 X68.604 Y62.547 E158.37990
G1 X41.203 Y54.229 E160.16969
G1 X41.203 Y52.453 E160.28072
G1 X47.797 Y52.453 E160.69291
G1 X47.797 Y52.814 E160.71547
G1 X57.901 Y55.059 E161.36232
G1 X59.103 Y52.453 E161.54171
G1 X66.066 Y52.453 E161.97687
G1 X68.032 Y56.385 E162.25169
G1 X68.345 Y56.000 F7800.000
M101 ; extruder on
G1 X88.655 Y56.000 E163.32263 F1800.000
G1 X90.655 Y52.000 E163.55846
G1 X99.250 Y52.000 E164.01172
G1 X99.250 Y54.627 E164.15026
G1 X88.415 Y63.000 E164.87234
G1 X68.537 Y63.000 E165.92053
G1 X40.750 Y54.565 E167.45184
G1 X40.750 Y52.000 E167.58708
G1 X48.250 Y52.000 E167.98258
G1 X48.250 Y52.451 E168.00633
G1 X57.643 Y54.538 E168.51371
G1 X58.814 Y52.000 E168.66109
G1 X66.345 Y52.000 E169.05826
G1 X68.312 Y55.933 E169.29013
G1 X68.422 Y56.494 F7800.000
G1 X66.853 Y55.909 F7800.000
M101 ; extruder on
G1 X64.181 Y53.236 E169.52818 F1200.000
G1 X63.481 Y53.236 E169.57226
G1 X67.553 Y57.308 E169.93497
G1 X68.181 Y57.236 E169.97480
G1 X72.708 Y61.764 E170.37809
G1 X73.408 Y61.764 E170.42217
G1 X68.881 Y57.236 E170.82546
G1 X69.580 Y57.236 E170.86953
G1 X74.107 Y61.764 E171.27283
G1 X74.807 Y61.764 E171.31690
G1 X70.280 Y57.236 E171.72019
G1 X70.980 Y57.236 E171.76427
G1 X75.507 Y61.764 E172.16756
G1 X76.206 Y61.764 E172.21164
G1 X71.679 Y57.236 E172.61493
G1 X72.379 Y57.236 E172.65900
G1 X76.906 Y61.764 E173.06230
G1 X77.606 Y61.764 E173.10637
G1 X73.079 Y57.236 E173.50966
G1 X73.778 Y57.236 E173.55374
G1 X78.305 Y61.764 E173.95703
G1 X79.005 Y61.764 E174.00111
G1 X74.478 Y57.236 E174.40440
G1 X75.178 Y57.236 E174.44847
G1 X79.705 Y61.764 E174.85177
G1 X80.404 Y61.764 E174.89584
G1 X75.877 Y57.236 E175.29913
G1 X76.577 Y57.236 E175.34321
G1 X81.104 Y61.764 E175.74650
G1 X81.804 Y61.764 E175.79058
G1 X77.277 Y57.236 E176.19387
G1 X77.976 Y57.236 E176.23794
G1 X82.503 Y61.764 E176.64124
G1 X83.203 Y61.764 E176.68531
G1 X78.676 Y57.236 E177.08860
G1 X79.376 Y57.236 E177.13268
G1 X83.903 Y61.764 E177.53597
G1 X84.602 Y61.764 E177.58005
G1 X80.075 Y57.236 E177.98334
G1 X80.775 Y57.236 E178.02741
G1 X85.302 Y61.764 E178.43071
G1 X86.002 Y61.764 E178.47478
G1 X81.475 Y57.236 E178.87807
G1 X82.174 Y57.236 E178.92215
G1 X86.701 Y61.764 E179.32544
G1 X87.401 Y61.764 E179.36952
G1 X82.874 Y57.236 E179.77281
G1 X83.574 Y57.236 E179.81688
G1 X88.083 Y61.746 E180.21864
G1 X88.478 Y61.441 E180.25006
G1 X84.273 Y57.236 E180.62465
G1 X84.973 Y57.236 E180.66872
G1 X88.873 Y61.136 E181.01614
G1 X89.268 Y60.831 E181.04756
G1 X85.673 Y57.236 E181.36781
G1 X86.372 Y57.236 E181.41188
G1 X89.662 Y60.526 E181.70496
G1 X90.057 Y60.221 E181.73638
G1 X87.072 Y57.236 E182.00229
G1 X87.772 Y57.236 E182.04636
G1 X90.452 Y59.916 E182.28510
G1 X90.846 Y59.611 E182.31652
G1 X88.471 Y57.236 E182.52809
G1 X89.171 Y57.236 E182.57216
G1 X91.241 Y59.306 E182.75656
G1 X91.636 Y59.001 E182.78798
G1 X89.543 Y56.909 E182.97442
G1 X89.776 Y56.442 E183.00727
G1 X92.030 Y58.696 E183.20809
G1 X92.425 Y58.391 E183.23951
G1 X90.009 Y55.976 E183.45472
G1 X90.243 Y55.509 E183.48757
G1 X92.820 Y58.086 E183.71716
G1 X93.214 Y57.781 E183.74859
G1 X90.476 Y55.043 E183.99256
G1 X90.709 Y54.576 E184.02541
G1 X93.609 Y57.476 E184.28377
G1 X94.004 Y57.171 E184.31519
G1 X90.942 Y54.110 E184.58794
G1 X91.175 Y53.643 E184.62079
G1 X94.399 Y56.866 E184.90792
G1 X94.793 Y56.561 E184.93934
G1 X91.468 Y53.236 E185.23555
G1 X92.168 Y53.236 E185.27962
G1 X95.188 Y56.257 E185.54866
G1 X95.583 Y55.952 E185.58008
G1 X92.868 Y53.236 E185.82195
G1 X93.567 Y53.236 E185.86603
