; generated by Slic3r 1.2.9 on 2017-09-18 at 17:46:43

; external perimeters extrusion width = 0.50mm
; perimeters extrusion width = 0.58mm
; infill extrusion width = 0.58mm
; solid infill extrusion width = 0.58mm
; top infill extrusion width = 0.58mm

M127
M109 S220 ; set bed temperature
M104 S220 T0 ; set temperature
G28 ; home all axes
G1 Z5 F5000 ; lift nozzle

M73 P0
G1 Z0.500 F7800.000
G1 X20.412 Y33.615 F7800.000
M101 ; extruder on
G1 X22.587 Y32.754 E0.33242 F1800.000
G1 X24.000 Y32.607 E0.53420
G1 X116.000 Y32.607 E13.60532
G1 X118.306 Y33.004 E13.93774
M101 ; extruder on
G1 X120.346 Y34.150 E14.27016 F1800.000
G1 X121.885 Y35.912 E14.60258
G1 X122.746 Y38.087 E14.93499
G1 X122.893 Y39.500 E15.13677
G1 X122.893 Y75.500 E20.25156
G1 X122.496 Y77.806 E20.58398
G1 X121.350 Y79.846 E20.91640
G1 X119.588 Y81.385 E21.24882
G1 X117.413 Y82.246 E21.58123
G1 X116.000 Y82.393 E21.78301
G1 X24.000 Y82.393 E34.85414
G1 X21.694 Y81.996 E35.18656
G1 X19.654 Y80.850 E35.51898
G1 X18.115 Y79.088 E35.85139
G1 X17.254 Y76.913 E36.18381
G1 X17.107 Y75.500 E36.38559
G1 X17.107 Y39.500 E41.50038
G1 X17.504 Y37.194 E41.83280
G1 X18.650 Y35.154 E42.16522
G1 X20.355 Y33.664 E42.48698
G1 E40.48698 F2400.00000
M103 ; extruder off
G1 X26.285 Y73.215 F7800.000
M101 ; extruder on
G1 E42.48698 F2400.00000
G1 X26.285 Y41.785 E46.95236 F1800.000
G1 X113.715 Y41.785 E59.37408
G1 X113.715 Y73.215 E63.83946
G1 X26.360 Y73.215 E76.25052
G1 X25.393 Y74.107 F7800.000
M101 ; extruder on
G1 X25.393 Y40.893 E80.96957 F1800.000
G1 X114.607 Y40.893 E93.64495
G1 X114.607 Y74.107 E98.36400
G1 X25.468 Y74.107 E111.02873
G1 X24.500 Y75.000 F7800.000
M101 ; extruder on
G1 X24.500 Y40.000 E116.00144 F1800.000
G1 X115.500 Y40.000 E128.93049
G1 X115.500 Y75.000 E133.90320
G1 X24.575 Y75.000 E146.82160
G1 X24.750 Y74.567 F7800.000
G1 X27.254 Y72.665 F7800.000
M101 ; extruder on
G1 X26.835 Y72.246 E146.90642 F1800.000
G1 X26.835 Y70.974 E147.08873
G1 X28.526 Y72.665 E147.43138
G1 X29.799 Y72.665 E147.61369
G1 X26.835 Y69.701 E148.21417
G1 X26.835 Y68.428 E148.39648
G1 X31.072 Y72.665 E149.25479
G1 X32.345 Y72.665 E149.43710
G1 X26.835 Y67.155 E150.55323
G1 X26.835 Y65.883 E150.73554
G1 X33.617 Y72.665 E152.10950
G1 X34.890 Y72.665 E152.29181
G1 X26.835 Y64.610 E153.92360
G1 X26.835 Y63.337 E154.10591
G1 X36.163 Y72.665 E155.99553
G1 X37.436 Y72.665 E156.17784
G1 X26.835 Y62.064 E158.32528
G1 X26.835 Y60.791 E158.50759
G1 X38.709 Y72.665 E160.91286
G1 X39.981 Y72.665 E161.09518
G1 X26.835 Y59.519 E163.75827
G1 X26.835 Y58.246 E163.94058
G1 X41.254 Y72.665 E166.86151
G1 X42.527 Y72.665 E167.04382
G1 X26.835 Y56.973 E170.22257
G1 X26.835 Y55.700 E170.40489
G1 X43.800 Y72.665 E173.84147
G1 X45.073 Y72.665 E174.02378
G1 X26.835 Y54.427 E177.71819
G1 X26.835 Y53.155 E177.90050
G1 X46.345 Y72.665 E181.85273
G1 X47.618 Y72.665 E182.03505
G1 X26.835 Y51.882 E186.24511
G1 X26.835 Y50.609 E186.42742
G1 X48.891 Y72.665 E190.89531
G1 X50.164 Y72.665 E191.07762
G1 X26.835 Y49.336 E195.80334
G1 X26.835 Y48.064 E195.98565
G1 X51.436 Y72.665 E200.96920
G1 X52.709 Y72.665 E201.15151
G1 X26.835 Y46.791 E206.39288
G1 X26.835 Y45.518 E206.57520
G1 X53.982 Y72.665 E212.07440
G1 X55.255 Y72.665 E212.25671
G1 X26.835 Y44.245 E218.01374
G1 X26.835 Y42.972 E218.19605
G1 X56.528 Y72.665 E224.21090
G1 X57.800 Y72.665 E224.39322
G1 X27.470 Y42.335 E230.53724
G1 X28.743 Y42.335 E230.71955
G1 X59.073 Y72.665 E236.86357
G1 X60.346 Y72.665 E237.04588
G1 X30.016 Y42.335 E243.18991
G1 X31.288 Y42.335 E243.37222
G1 X61.619 Y72.665 E249.51624
G1 X62.891 Y72.665 E249.69855
G1 X32.561 Y42.335 E255.84257
G1 X33.834 Y42.335 E256.02489
G1 X64.164 Y72.665 E262.16891
G1 X65.437 Y72.665 E262.35122
G1 X35.107 Y42.335 E268.49524
G1 X36.379 Y42.335 E268.67755
G1 X66.710 Y72.665 E274.82157
G1 X67.983 Y72.665 E275.00389
G1 X37.652 Y42.335 E281.14791
G1 X38.925 Y42.335 E281.33022
G1 X69.255 Y72.665 E287.47424
G1 X70.528 Y72.665 E287.65655
G1 X40.198 Y42.335 E293.80058
G1 X41.471 Y42.335 E293.98289
G1 X71.801 Y72.665 E300.12691
G1 X73.074 Y72.665 E300.30922
G1 X42.743 Y42.335 E306.45324
G1 X44.016 Y42.335 E306.63555
G1 X74.347 Y72.665 E312.77958
G1 X75.619 Y72.665 E312.96189
G1 X45.289 Y42.335 E319.10591
G1 X46.562 Y42.335 E319.28822
G1 X76.892 Y72.665 E325.43224
G1 X78.165 Y72.665 E325.61455
G1 X47.834 Y42.335 E331.75858
G1 X49.107 Y42.335 E331.94089
G1 X79.438 Y72.665 E338.08491
G1 X80.710 Y72.665 E338.26722
G1 X50.380 Y42.335 E344.41124
G1 X51.653 Y42.335 E344.59356
G1 X81.983 Y72.665 E350.73758
G1 X83.256 Y72.665 E350.91989
G1 X52.926 Y42.335 E357.06391
G1 X54.198 Y42.335 E357.24622
G1 X84.529 Y72.665 E363.39024
G1 X85.802 Y72.665 E363.57256
G1 X55.471 Y42.335 E369.71658
G1 X56.744 Y42.335 E369.89889
G1 X87.074 Y72.665 E376.04291
G1 X88.347 Y72.665 E376.22522
G1 X58.017 Y42.335 E382.36925
G1 X59.290 Y42.335 E382.55156
G1 X89.620 Y72.665 E388.69558
G1 X90.893 Y72.665 E388.87789
G1 X60.562 Y42.335 E395.02191
G1 X61.835 Y42.335 E395.20422
G1 X92.165 Y72.665 E401.34825
G1 X93.438 Y72.665 E401.53056
G1 X63.108 Y42.335 E407.67458
G1 X64.381 Y42.335 E407.85689
G1 X94.711 Y72.665 E414.00091
G1 X95.984 Y72.665 E414.18323
G1 X65.653 Y42.335 E420.32725
G1 X66.926 Y42.335 E420.50956
G1 X97.257 Y72.665 E426.65358
G1 X98.529 Y72.665 E426.83589
G1 X68.199 Y42.335 E432.97992
G1 X69.472 Y42.335 E433.16223
G1 X99.802 Y72.665 E439.30625
G1 X101.075 Y72.665 E439.48856
G1 X70.745 Y42.335 E445.63258
G1 X72.017 Y42.335 E445.81489
G1 X102.348 Y72.665 E451.95892
G1 X103.621 Y72.665 E452.14123
G1 X73.290 Y42.335 E458.28525
G1 X74.563 Y42.335 E458.46756
G1 X104.893 Y72.665 E464.61158
G1 X106.166 Y72.665 E464.79389
G1 X75.836 Y42.335 E470.93792
G1 X77.109 Y42.335 E471.12023
G1 X107.439 Y72.665 E477.26425
G1 X108.712 Y72.665 E477.44656
G1 X78.381 Y42.335 E483.59058
G1 X79.654 Y42.335 E483.77290
G1 X109.984 Y72.665 E489.91692
G1 X111.257 Y72.665 E490.09923
G1 X80.927 Y42.335 E496.24325
G1 X82.200 Y42.335 E496.42556
G1 X112.530 Y72.665 E502.56958
G1 X113.165 Y72.028 E502.69850
G1 X83.472 Y42.335 E508.71336
G1 X84.745 Y42.335 E508.89567
G1 X113.165 Y70.755 E514.65270
G1 X113.165 Y69.482 E514.83501
G1 X86.018 Y42.335 E520.33421
G1 X87.291 Y42.335 E520.51652
G1 X113.165 Y68.209 E525.75790
G1 X113.165 Y66.936 E525.94021
G1 X88.564 Y42.335 E530.92376
G1 X89.836 Y42.335 E531.10607
G1 X113.165 Y65.664 E535.83179
G1 X113.165 Y64.391 E536.01410
G1 X91.109 Y42.335 E540.48199
G1 X92.382 Y42.335 E540.66430
G1 X113.165 Y63.118 E544.87437
G1 X113.165 Y61.845 E545.05668
G1 X93.655 Y42.335 E549.00892
G1 X94.927 Y42.335 E549.19123
G1 X113.165 Y60.573 E552.88564
G1 X113.165 Y59.300 E553.06795
G1 X96.200 Y42.335 E556.50454
G1 X97.473 Y42.335 E556.68685
G1 X113.165 Y58.027 E559.86560
G1 X113.165 Y56.754 E560.04791
G1 X98.746 Y42.335 E562.96884
G1 X100.019 Y42.335 E563.15115
G1 X113.165 Y55.481 E565.81425
G1 X113.165 Y54.209 E565.99656
G1 X101.291 Y42.335 E568.40184
G1 X102.564 Y42.335 E568.58415
G1 X113.165 Y52.936 E570.73159
G1 X113.165 Y51.663 E570.91390
G1 X103.837 Y42.335 E572.80352
G1 X105.110 Y42.335 E572.98583
G1 X113.165 Y50.390 E574.61762
G1 X113.165 Y49.117 E574.79993
G1 X106.383 Y42.335 E576.17390
G1 X107.655 Y42.335 E576.35621
G1 X113.165 Y47.845 E577.47234
G1 X113.165 Y46.572 E577.65465
G1 X108.928 Y42.335 E578.51296
G1 X110.201 Y42.335 E578.69527
G1 X113.165 Y45.299 E579.29575
G1 X113.165 Y44.026 E579.47806
G1 X111.474 Y42.335 E579.82072
G1 X112.746 Y42.335 E580.00303
G1 X113.165 Y42.754 E580.08785
M73 P5
G1 Z0.900 F7800.000
G1 X25.193 Y74.307 F7800.000
M101 ; extruder on
G1 X25.193 Y40.693 E582.18868 F3600.000
G1 X114.807 Y40.693 E587.78950
G1 X114.807 Y74.307 E589.89033
G1 X25.268 Y74.307 E595.48647
G1 X24.703 Y74.797 F7800.000
M101 ; extruder on
G1 X24.703 Y40.203 E597.64866 F3600.000
G1 X115.297 Y40.203 E603.31084
G1 X115.297 Y74.797 E605.47303
G1 X24.778 Y74.797 E611.13052
G1 X24.250 Y75.250 F7800.000
M101 ; extruder on
G1 X24.250 Y39.750 E613.00252 F1800.000
G1 X115.750 Y39.750 E617.82754
G1 X115.750 Y75.250 E619.69954
G1 X24.325 Y75.250 E624.52060
G1 X24.500 Y74.817 F7800.000
G1 X26.429 Y40.986 F7800.000
M101 ; extruder on
G1 X25.486 Y41.929 E624.60397 F1200.000
G1 X25.486 Y42.624 E624.64741
G1 X27.124 Y40.986 E624.79221
G1 X27.818 Y40.986 E624.83565
G1 X25.486 Y43.318 E625.04189
G1 X25.486 Y44.013 E625.08533
G1 X28.513 Y40.986 E625.35299
G1 X29.208 Y40.986 E625.39643
G1 X25.486 Y44.708 E625.72554
G1 X25.486 Y45.402 E625.76897
G1 X29.902 Y40.986 E626.15951
G1 X30.597 Y40.986 E626.20295
G1 X25.486 Y46.097 E626.65492
G1 X25.486 Y46.791 E626.69835
G1 X31.291 Y40.986 E627.21175
G1 X31.986 Y40.986 E627.25519
G1 X25.486 Y47.486 E627.83003
G1 X25.486 Y48.181 E627.87347
G1 X32.681 Y40.986 E628.50973
G1 X33.375 Y40.986 E628.55317
G1 X25.486 Y48.875 E629.25087
G1 X25.486 Y49.570 E629.29431
G1 X34.070 Y40.986 E630.05344
G1 X34.765 Y40.986 E630.09688
G1 X25.486 Y50.265 E630.91744
G1 X25.486 Y50.959 E630.96088
G1 X35.459 Y40.986 E631.84287
G1 X36.154 Y40.986 E631.88631
G1 X25.486 Y51.654 E632.82974
G1 X25.486 Y52.348 E632.87318
G1 X36.848 Y40.986 E633.87804
G1 X37.543 Y40.986 E633.92148
G1 X25.486 Y53.043 E634.98777
G1 X25.486 Y53.738 E635.03121
G1 X38.238 Y40.986 E636.15894
G1 X38.932 Y40.986 E636.20238
G1 X25.486 Y54.432 E637.39154
G1 X25.486 Y55.127 E637.43498
G1 X39.627 Y40.986 E638.68557
G1 X40.321 Y40.986 E638.72901
G1 X25.486 Y55.821 E640.04103
G1 X25.486 Y56.516 E640.08447
G1 X41.016 Y40.986 E641.45793
G1 X41.711 Y40.986 E641.50137
G1 X25.486 Y57.211 E642.93626
G1 X25.486 Y57.905 E642.97970
G1 X42.405 Y40.986 E644.47602
G1 X43.100 Y40.986 E644.51946
G1 X25.486 Y58.600 E646.07722
G1 X25.486 Y59.295 E646.12065
G1 X43.795 Y40.986 E647.73984
G1 X44.489 Y40.986 E647.78328
G1 X25.486 Y59.989 E649.46390
G1 X25.486 Y60.684 E649.50734
G1 X45.184 Y40.986 E651.24940
G1 X45.878 Y40.986 E651.29283
G1 X25.486 Y61.378 E653.09632
G1 X25.486 Y62.073 E653.13976
G1 X46.573 Y40.986 E655.00468
G1 X47.268 Y40.986 E655.04812
G1 X25.486 Y62.768 E656.97447
G1 X25.486 Y63.462 E657.01791
G1 X47.962 Y40.986 E659.00569
G1 X48.657 Y40.986 E659.04913
G1 X25.486 Y64.157 E661.09835
G1 X25.486 Y64.851 E661.14179
G1 X49.351 Y40.986 E663.25244
G1 X50.046 Y40.986 E663.29588
G1 X25.486 Y65.546 E665.46796
G1 X25.486 Y66.241 E665.51140
G1 X50.741 Y40.986 E667.74491
G1 X51.435 Y40.986 E667.78835
G1 X25.486 Y66.935 E670.08330
G1 X25.486 Y67.630 E670.12674
G1 X52.130 Y40.986 E672.48312
G1 X52.825 Y40.986 E672.52656
G1 X25.486 Y68.325 E674.94437
G1 X25.486 Y69.019 E674.98781
G1 X53.519 Y40.986 E677.46705
G1 X54.214 Y40.986 E677.51049
G1 X25.486 Y69.714 E680.05117
G1 X25.486 Y70.408 E680.09461
G1 X54.908 Y40.986 E682.69672
G1 X55.603 Y40.986 E682.74016
G1 X25.486 Y71.103 E685.40370
G1 X25.486 Y71.798 E685.44714
G1 X56.298 Y40.986 E688.17212
G1 X56.992 Y40.986 E688.21556
G1 X25.486 Y72.492 E691.00197
G1 X25.486 Y73.187 E691.04541
G1 X57.687 Y40.986 E693.89325
G1 X58.381 Y40.986 E693.93669
G1 X25.486 Y73.881 E696.84596
G1 X26.049 Y74.014 E696.88210
G1 X59.076 Y40.986 E699.80305
G1 X59.771 Y40.986 E699.84649
G1 X26.744 Y74.014 E702.76744
G1 X27.438 Y74.014 E702.81088
G1 X60.465 Y40.986 E705.73183
G1 X61.160 Y40.986 E705.77527
G1 X28.133 Y74.014 E708.69622
G1 X28.828 Y74.014 E708.73966
G1 X61.855 Y40.986 E711.66062
G1 X62.549 Y40.986 E711.70406
G1 X29.522 Y74.014 E714.62501
G1 X30.217 Y74.014 E714.66845
G1 X63.244 Y40.986 E717.58940
G1 X63.938 Y40.986 E717.63284
G1 X30.911 Y74.014 E720.55379
G1 X31.606 Y74.014 E720.59723
G1 X64.633 Y40.986 E723.51818
G1 X65.328 Y40.986 E723.56162
G1 X32.301 Y74.014 E726.48257
G1 X32.995 Y74.014 E726.52601
G1 X66.022 Y40.986 E729.44697
G1 X66.717 Y40.986 E729.49040
G1 X33.690 Y74.014 E732.41136
G1 X34.384 Y74.014 E732.45480
G1 X67.411 Y40.986 E735.37575
G1 X68.106 Y40.986 E735.41919
G1 X35.079 Y74.014 E738.34014
G1 X35.774 Y74.014 E738.38358
G1 X68.801 Y40.986 E741.30453
G1 X69.495 Y40.986 E741.34797
G1 X36.468 Y74.014 E744.26892
G1 X37.163 Y74.014 E744.31236
G1 X70.190 Y40.986 E747.23331
G1 X70.885 Y40.986 E747.27675
G1 X37.858 Y74.014 E750.19771
G1 X38.552 Y74.014 E750.24115
G1 X71.579 Y40.986 E753.16210
G1 X72.274 Y40.986 E753.20554
G1 X39.247 Y74.014 E756.12649
G1 X39.941 Y74.014 E756.16993
G1 X72.968 Y40.986 E759.09088
G1 X73.663 Y40.986 E759.13432
G1 X40.636 Y74.014 E762.05527
G1 X41.331 Y74.014 E762.09871
G1 X74.358 Y40.986 E765.01966
G1 X75.052 Y40.986 E765.06310
G1 X42.025 Y74.014 E767.98406
G1 X42.720 Y74.014 E768.02749
G1 X75.747 Y40.986 E770.94845
G1 X76.441 Y40.986 E770.99189
G1 X43.414 Y74.014 E773.91284
G1 X44.109 Y74.014 E773.95628
G1 X77.136 Y40.986 E776.87723
G1 X77.831 Y40.986 E776.92067
G1 X44.804 Y74.014 E779.84162
G1 X45.498 Y74.014 E779.88506
G1 X78.525 Y40.986 E782.80601
G1 X79.220 Y40.986 E782.84945
G1 X46.193 Y74.014 E785.77040
G1 X46.888 Y74.014 E785.81384
G1 X79.915 Y40.986 E788.73480
G1 X80.609 Y40.986 E788.77824
G1 X47.582 Y74.014 E791.69919
G1 X48.277 Y74.014 E791.74263
G1 X81.304 Y40.986 E794.66358
G1 X81.998 Y40.986 E794.70702
G1 X48.971 Y74.014 E797.62797
G1 X49.666 Y74.014 E797.67141
G1 X82.693 Y40.986 E800.59236
G1 X83.388 Y40.986 E800.63580
G1 X50.361 Y74.014 E803.55675
G1 X51.055 Y74.014 E803.60019
G1 X84.082 Y40.986 E806.52114
G1 X84.777 Y40.986 E806.56458
G1 X51.750 Y74.014 E809.48554
G1 X52.444 Y74.014 E809.52898
G1 X85.471 Y40.986 E812.44993
G1 X86.166 Y40.986 E812.49337
G1 X53.139 Y74.014 E815.41432
G1 X53.834 Y74.014 E815.45776
G1 X86.861 Y40.986 E818.37871
G1 X87.555 Y40.986 E818.42215
G1 X54.528 Y74.014 E821.34310
G1 X55.223 Y74.014 E821.38654
G1 X88.250 Y40.986 E824.30749
G1 X88.945 Y40.986 E824.35093
G1 X55.918 Y74.014 E827.27189
G1 X56.612 Y74.014 E827.31533
G1 X89.639 Y40.986 E830.23628
G1 X90.334 Y40.986 E830.27972
G1 X57.307 Y74.014 E833.20067
G1 X58.001 Y74.014 E833.24411
G1 X91.028 Y40.986 E836.16506
G1 X91.723 Y40.986 E836.20850
G1 X58.696 Y74.014 E839.12945
G1 X59.391 Y74.014 E839.17289
G1 X92.418 Y40.986 E842.09384
G1 X93.112 Y40.986 E842.13728
G1 X60.085 Y74.014 E845.05823
G1 X60.780 Y74.014 E845.10167
G1 X93.807 Y40.986 E848.02263
G1 X94.501 Y40.986 E848.06607
G1 X61.474 Y74.014 E850.98702
G1 X62.169 Y74.014 E851.03046
G1 X95.196 Y40.986 E853.95141
G1 X95.891 Y40.986 E853.99485
G1 X62.864 Y74.014 E856.91580
G1 X63.558 Y74.014 E856.95924
G1 X96.585 Y40.986 E859.88019
G1 X97.280 Y40.986 E859.92363
G1 X64.253 Y74.014 E862.84458
G1 X64.948 Y74.014 E862.88802
G1 X97.975 Y40.986 E865.80898
G1 X98.669 Y40.986 E865.85241
G1 X65.642 Y74.014 E868.77337
G1 X66.337 Y74.014 E868.81681
G1 X99.364 Y40.986 E871.73776
G1 X100.058 Y40.986 E871.78120
G1 X67.031 Y74.014 E874.70215
G1 X67.726 Y74.014 E874.74559
G1 X100.753 Y40.986 E877.66654
G1 X101.448 Y40.986 E877.70998
G1 X68.421 Y74.014 E880.63093
G1 X69.115 Y74.014 E880.67437
G1 X102.142 Y40.986 E883.59532
G1 X102.837 Y40.986 E883.63876
G1 X69.810 Y74.014 E886.55972
G1 X70.504 Y74.014 E886.60316
G1 X103.531 Y40.986 E889.52411
G1 X104.226 Y40.986 E889.56755
G1 X71.199 Y74.014 E892.48850
G1 X71.894 Y74.014 E892.53194
G1 X104.921 Y40.986 E895.45289
G1 X105.615 Y40.986 E895.49633
G1 X72.588 Y74.014 E898.41728
G1 X73.283 Y74.014 E898.46072
G1 X106.310 Y40.986 E901.38167
G1 X107.005 Y40.986 E901.42511
G1 X73.978 Y74.014 E904.34607
G1 X74.672 Y74.014 E904.38951
G1 X107.699 Y40.986 E907.31046
G1 X108.394 Y40.986 E907.35390
G1 X75.367 Y74.014 E910.27485
G1 X76.061 Y74.014 E910.31829
G1 X109.088 Y40.986 E913.23924
G1 X109.783 Y40.986 E913.28268
G1 X76.756 Y74.014 E916.20363
G1 X77.451 Y74.014 E916.24707
G1 X110.478 Y40.986 E919.16802
G1 X111.172 Y40.986 E919.21146
G1 X78.145 Y74.014 E922.13242
G1 X78.840 Y74.014 E922.17585
G1 X111.867 Y40.986 E925.09681
G1 X112.562 Y40.986 E925.14025
G1 X79.534 Y74.014 E928.06120
G1 X80.229 Y74.014 E928.10464
G1 X113.256 Y40.986 E931.02559
G1 X113.951 Y40.986 E931.06903
G1 X80.924 Y74.014 E933.98998
G1 X81.618 Y74.014 E934.03342
G1 X114.514 Y41.118 E936.94271
G1 X114.514 Y41.813 E936.98615
G1 X82.313 Y74.014 E939.83401
G1 X83.008 Y74.014 E939.87745
G1 X114.514 Y42.508 E942.66388
G1 X114.514 Y43.202 E942.70732
G1 X83.702 Y74.014 E945.43231
G1 X84.397 Y74.014 E945.47575
G1 X114.514 Y43.897 E948.13931
