; generated by Slic3r 1.2.9 on 2017-09-18 at 17:28:16

; external perimeters extrusion width = 0.50mm
; perimeters extrusion width = 0.58mm
; infill extrusion width = 0.58mm
; solid infill extrusion width = 0.58mm
; top infill extrusion width = 0.58mm

M127
M109 S220 ; set bed temperature
M104 S220 T0 ; set temperature
G28 ; home all axes
G1 Z5 F5000 ; lift nozzle

M73 P0
G1 Z0.500 F7800.000
G1 E-2.00000 F2400.00000
M103 ; extruder off
G1 X39.352 Y50.926 F7800.000
M101 ; extruder on
G1 E0.00000 F2400.00000
G1 X47.286 Y44.795 E1.42458 F1800.000
G1 X49.354 Y43.700 E1.75700
G1 X51.500 Y43.357 E2.06582
G1 X71.500 Y43.357 E4.90737
G1 X73.502 Y43.655 E5.19495
M101 ; extruder on
G1 X101.502 Y52.155 E9.35241 F1800.000
G1 X103.593 Y53.204 E9.68483
G1 X105.213 Y54.893 E10.01724
G1 X106.174 Y57.026 E10.34966
G1 X106.393 Y58.750 E10.59653
G1 X106.393 Y64.750 E11.44899
G1 X105.996 Y67.056 E11.78141
G1 X104.850 Y69.096 E12.11383
G1 X103.088 Y70.635 E12.44624
G1 X100.913 Y71.496 E12.77866
G1 X99.500 Y71.643 E12.98044
G1 X40.500 Y71.643 E21.36301
G1 X38.194 Y71.246 E21.69543
G1 X36.154 Y70.100 E22.02785
G1 X34.615 Y68.338 E22.36026
G1 X33.754 Y66.163 E22.69268
G1 X33.607 Y64.750 E22.89446
G1 X33.607 Y58.750 E23.74693
G1 X34.004 Y56.444 E24.07934
G1 X35.150 Y54.404 E24.41176
G1 X36.285 Y53.297 E24.63706
G1 X39.293 Y50.972 E25.17717
G1 E23.17717 F2400.00000
M103 ; extruder off
G1 X97.215 Y62.465 F7800.000
M101 ; extruder on
G1 E25.17717 F2400.00000
G1 X42.785 Y62.465 E32.91033 F1800.000
G1 X42.785 Y59.872 E33.27865
G1 X52.280 Y52.535 E34.98345
G1 X71.161 Y52.535 E37.66596
G1 X97.215 Y60.445 E41.53444
G1 X97.215 Y62.390 E41.81078
G1 X98.107 Y63.357 F7800.000
M101 ; extruder on
G1 X41.893 Y63.357 E49.79760 F1800.000
G1 X41.893 Y59.434 E50.35504
G1 X51.975 Y51.643 E52.16541
G1 X71.293 Y51.643 E54.91005
G1 X98.107 Y59.783 E58.89139
G1 X98.107 Y63.282 E59.38861
G1 X99.000 Y64.250 F7800.000
M101 ; extruder on
G1 X41.000 Y64.250 E67.62910 F1800.000
G1 X41.000 Y58.996 E68.37564
G1 X51.671 Y50.750 E70.29159
G1 X71.426 Y50.750 E73.09835
G1 X99.000 Y59.121 E77.19256
G1 X99.000 Y64.175 E77.91066
G1 X98.567 Y64.000 F7800.000
G1 X96.665 Y61.217 F7800.000
M101 ; extruder on
G1 X96.236 Y60.788 E77.99776 F1800.000
G1 X96.087 Y61.915 E78.16111
G1 X94.404 Y60.231 E78.50317
G1 X94.811 Y61.915 E78.75201
G1 X92.571 Y59.675 E79.20710
G1 X90.738 Y59.119 E79.48225
G1 X93.534 Y61.915 E80.05037
G1 X92.258 Y61.915 E80.23373
G1 X88.905 Y58.562 E80.91488
G1 X87.072 Y58.006 E81.19003
G1 X90.982 Y61.915 E81.98421
G1 X89.705 Y61.915 E82.16757
G1 X85.239 Y57.449 E83.07478
G1 X83.407 Y56.893 E83.34993
G1 X88.429 Y61.915 E84.37018
G1 X87.152 Y61.915 E84.55354
G1 X81.574 Y56.337 E85.68682
G1 X79.741 Y55.780 E85.96197
G1 X85.876 Y61.915 E87.20828
G1 X84.599 Y61.915 E87.39164
G1 X77.908 Y55.224 E88.75098
G1 X76.075 Y54.668 E89.02613
G1 X83.323 Y61.915 E90.49851
G1 X82.047 Y61.915 E90.68186
G1 X74.242 Y54.111 E92.26727
G1 X72.410 Y53.555 E92.54242
G1 X80.770 Y61.915 E94.24086
G1 X79.494 Y61.915 E94.42422
G1 X70.663 Y53.085 E96.21812
G1 X69.387 Y53.085 E96.40148
G1 X78.217 Y61.915 E98.19538
G1 X76.941 Y61.915 E98.37874
G1 X68.110 Y53.085 E100.17264
G1 X66.834 Y53.085 E100.35600
G1 X75.664 Y61.915 E102.14990
G1 X74.388 Y61.915 E102.33326
G1 X65.558 Y53.085 E104.12717
G1 X64.281 Y53.085 E104.31052
G1 X73.112 Y61.915 E106.10443
G1 X71.835 Y61.915 E106.28779
G1 X63.005 Y53.085 E108.08169
G1 X61.728 Y53.085 E108.26505
G1 X70.559 Y61.915 E110.05895
G1 X69.282 Y61.915 E110.24231
G1 X60.452 Y53.085 E112.03621
G1 X59.175 Y53.085 E112.21957
G1 X68.006 Y61.915 E114.01347
G1 X66.729 Y61.915 E114.19683
G1 X57.899 Y53.085 E115.99073
G1 X56.623 Y53.085 E116.17409
G1 X65.453 Y61.915 E117.96799
G1 X64.176 Y61.915 E118.15135
G1 X55.346 Y53.085 E119.94525
G1 X54.070 Y53.085 E120.12861
G1 X62.900 Y61.915 E121.92252
G1 X61.624 Y61.915 E122.10587
G1 X52.793 Y53.085 E123.89978
G1 X51.877 Y53.445 E124.04121
G1 X60.347 Y61.915 E125.76195
G1 X59.071 Y61.915 E125.94531
G1 X51.157 Y54.001 E127.55303
G1 X50.437 Y54.558 E127.68374
G1 X57.794 Y61.915 E129.17843
G1 X56.518 Y61.915 E129.36178
G1 X49.717 Y55.114 E130.74343
G1 X48.997 Y55.670 E130.87415
G1 X55.241 Y61.915 E132.14277
G1 X53.965 Y61.915 E132.32613
G1 X48.277 Y56.227 E133.48171
G1 X47.557 Y56.783 E133.61243
G1 X52.689 Y61.915 E134.65498
G1 X51.412 Y61.915 E134.83834
G1 X46.837 Y57.340 E135.76787
G1 X46.117 Y57.896 E135.89858
G1 X50.136 Y61.915 E136.71507
G1 X48.859 Y61.915 E136.89843
G1 X45.397 Y58.452 E137.60189
G1 X44.676 Y59.009 E137.73261
G1 X47.583 Y61.915 E138.32303
G1 X46.306 Y61.915 E138.50639
G1 X43.956 Y59.565 E138.98379
G1 X43.335 Y60.220 E139.11348
G1 X45.030 Y61.915 E139.45786
G1 X43.754 Y61.915 E139.64122
G1 X43.335 Y61.496 E139.72628
M73 P0
G1 Z0.900 F7800.000
G1 X98.307 Y63.557 F7800.000
M101 ; extruder on
G1 X41.693 Y63.557 E143.26461 F3600.000
G1 X41.693 Y59.336 E143.52840
G1 X51.907 Y51.443 E144.33515
G1 X71.323 Y51.443 E145.54862
G1 X98.307 Y59.635 E147.31110
G1 X98.307 Y63.482 E147.55152
G1 X98.797 Y64.047 F7800.000
M101 ; extruder on
G1 X41.203 Y64.047 E151.15121 F3600.000
G1 X41.203 Y59.095 E151.46074
G1 X51.740 Y50.953 E152.29303
G1 X71.396 Y50.953 E153.52153
G1 X98.797 Y59.271 E155.31131
G1 X98.797 Y63.972 E155.60516
G1 X99.250 Y64.500 F7800.000
M101 ; extruder on
G1 X40.750 Y64.500 E158.69001 F1800.000
G1 X40.750 Y58.873 E158.98675
G1 X51.585 Y50.500 E159.70883
G1 X71.463 Y50.500 E160.75702
G1 X99.250 Y58.935 E162.28833
G1 X99.250 Y64.425 E162.57781
G1 X98.817 Y64.250 F7800.000
G1 X97.765 Y63.264 F7800.000
M101 ; extruder on
G1 X98.014 Y63.015 E162.59989 F1200.000
G1 X98.014 Y62.317 E162.64383
G1 X97.067 Y63.264 E162.72804
G1 X96.368 Y63.264 E162.77197
G1 X98.014 Y61.618 E162.91832
G1 X98.014 Y60.920 E162.96225
G1 X95.670 Y63.264 E163.17073
G1 X94.971 Y63.264 E163.21466
G1 X98.014 Y60.221 E163.48527
G1 X97.781 Y59.755 E163.51803
G1 X94.272 Y63.264 E163.83011
G1 X93.574 Y63.264 E163.87405
G1 X97.245 Y59.592 E164.20059
G1 X96.709 Y59.429 E164.23581
G1 X92.875 Y63.264 E164.57683
G1 X92.177 Y63.264 E164.62077
G1 X96.174 Y59.267 E164.97625
G1 X95.638 Y59.104 E165.01147
G1 X91.478 Y63.264 E165.38143
G1 X90.780 Y63.264 E165.42536
G1 X95.102 Y58.941 E165.80979
G1 X94.566 Y58.779 E165.84501
G1 X90.081 Y63.264 E166.24390
G1 X89.383 Y63.264 E166.28783
G1 X94.030 Y58.616 E166.70120
G1 X93.494 Y58.453 E166.73642
G1 X88.684 Y63.264 E167.16425
G1 X87.985 Y63.264 E167.20818
G1 X92.958 Y58.291 E167.65048
G1 X92.422 Y58.128 E167.68571
G1 X87.287 Y63.264 E168.14248
G1 X86.588 Y63.264 E168.18641
G1 X91.887 Y57.965 E168.65765
G1 X91.351 Y57.803 E168.69287
G1 X85.890 Y63.264 E169.17858
G1 X85.191 Y63.264 E169.22251
G1 X90.815 Y57.640 E169.72269
G1 X90.279 Y57.477 E169.75791
G1 X84.493 Y63.264 E170.27256
G1 X83.794 Y63.264 E170.31649
G1 X89.743 Y57.315 E170.84560
G1 X89.207 Y57.152 E170.88083
G1 X83.096 Y63.264 E171.42441
G1 X82.397 Y63.264 E171.46834
G1 X88.671 Y56.989 E172.02640
G1 X88.135 Y56.827 E172.06162
G1 X81.698 Y63.264 E172.63414
G1 X81.000 Y63.264 E172.67807
G1 X87.599 Y56.664 E173.26506
G1 X87.064 Y56.501 E173.30029
G1 X80.301 Y63.264 E173.90175
G1 X79.603 Y63.264 E173.94568
G1 X86.528 Y56.339 E174.56161
G1 X85.992 Y56.176 E174.59683
G1 X78.904 Y63.264 E175.22723
G1 X78.206 Y63.264 E175.27116
G1 X85.456 Y56.013 E175.91603
G1 X84.920 Y55.851 E175.95125
G1 X77.507 Y63.264 E176.61059
G1 X76.809 Y63.264 E176.65452
G1 X84.384 Y55.688 E177.32833
G1 X83.848 Y55.525 E177.36355
G1 X76.110 Y63.264 E178.05182
G1 X75.411 Y63.264 E178.09576
G1 X83.312 Y55.362 E178.79850
G1 X82.777 Y55.200 E178.83372
G1 X74.713 Y63.264 E179.55094
G1 X74.014 Y63.264 E179.59487
G1 X82.241 Y55.037 E180.32655
G1 X81.705 Y54.874 E180.36177
G1 X73.316 Y63.264 E181.10792
G1 X72.617 Y63.264 E181.15186
G1 X81.169 Y54.712 E181.91248
G1 X80.633 Y54.549 E181.94770
G1 X71.919 Y63.264 E182.72279
G1 X71.220 Y63.264 E182.76672
G1 X80.097 Y54.386 E183.55628
G1 X79.561 Y54.224 E183.59150
G1 X70.522 Y63.264 E184.39553
G1 X69.823 Y63.264 E184.43946
G1 X79.025 Y54.061 E185.25796
G1 X78.490 Y53.898 E185.29318
G1 X69.124 Y63.264 E186.12615
G1 X68.426 Y63.264 E186.17008
G1 X77.954 Y53.736 E187.01751
G1 X77.418 Y53.573 E187.05273
G1 X67.727 Y63.264 E187.91464
G1 X67.029 Y63.264 E187.95857
G1 X76.882 Y53.410 E188.83494
G1 X76.346 Y53.248 E188.87017
G1 X66.330 Y63.264 E189.76101
G1 X65.632 Y63.264 E189.80494
G1 X75.810 Y53.085 E190.71025
G1 X75.274 Y52.922 E190.74548
G1 X64.933 Y63.264 E191.66526
G1 X64.234 Y63.264 E191.70919
G1 X74.738 Y52.760 E192.64344
G1 X74.203 Y52.597 E192.67866
G1 X63.536 Y63.264 E193.62738
G1 X62.837 Y63.264 E193.67131
G1 X73.667 Y52.434 E194.63450
G1 X73.131 Y52.272 E194.66972
G1 X62.139 Y63.264 E195.64737
G1 X61.440 Y63.264 E195.69131
G1 X72.595 Y52.109 E196.68343
G1 X72.059 Y51.946 E196.71866
G1 X60.742 Y63.264 E197.72525
G1 X60.043 Y63.264 E197.76918
G1 X71.523 Y51.784 E198.79025
G1 X70.872 Y51.736 E198.83133
G1 X59.345 Y63.264 E199.85658
G1 X58.646 Y63.264 E199.90051
G1 X70.173 Y51.736 E200.92576
G1 X69.475 Y51.736 E200.96969
G1 X57.947 Y63.264 E201.99495
G1 X57.249 Y63.264 E202.03888
G1 X68.776 Y51.736 E203.06413
G1 X68.077 Y51.736 E203.10806
G1 X56.550 Y63.264 E204.13331
G1 X55.852 Y63.264 E204.17725
G1 X67.379 Y51.736 E205.20250
G1 X66.680 Y51.736 E205.24643
G1 X55.153 Y63.264 E206.27168
G1 X54.455 Y63.264 E206.31562
G1 X65.982 Y51.736 E207.34087
G1 X65.283 Y51.736 E207.38480
G1 X53.756 Y63.264 E208.41005
G1 X53.058 Y63.264 E208.45399
G1 X64.585 Y51.736 E209.47924
G1 X63.886 Y51.736 E209.52317
G1 X52.359 Y63.264 E210.54842
G1 X51.660 Y63.264 E210.59235
G1 X63.187 Y51.736 E211.61761
G1 X62.489 Y51.736 E211.66154
G1 X50.962 Y63.264 E212.68679
G1 X50.263 Y63.264 E212.73072
G1 X61.790 Y51.736 E213.75597
G1 X61.092 Y51.736 E213.79991
G1 X49.565 Y63.264 E214.82516
G1 X48.866 Y63.264 E214.86909
G1 X60.393 Y51.736 E215.89434
G1 X59.695 Y51.736 E215.93828
G1 X48.168 Y63.264 E216.96353
G1 X47.469 Y63.264 E217.00746
G1 X58.996 Y51.736 E218.03271
G1 X58.298 Y51.736 E218.07665
G1 X46.771 Y63.264 E219.10190
G1 X46.072 Y63.264 E219.14583
G1 X57.599 Y51.736 E220.17108
G1 X56.900 Y51.736 E220.21501
G1 X45.373 Y63.264 E221.24027
G1 X44.675 Y63.264 E221.28420
G1 X56.202 Y51.736 E222.30945
G1 X55.503 Y51.736 E222.35338
G1 X43.976 Y63.264 E223.37863
G1 X43.278 Y63.264 E223.42257
G1 X54.805 Y51.736 E224.44782
G1 X54.106 Y51.736 E224.49175
G1 X42.579 Y63.264 E225.51700
G1 X41.986 Y63.158 E225.55487
G1 X53.408 Y51.736 E226.57071
G1 X52.709 Y51.736 E226.61464
G1 X41.986 Y62.459 E227.56835
G1 X41.986 Y61.761 E227.61228
G1 X51.546 Y52.201 E228.46258
G1 X48.473 Y54.576 F7800.000
M101 ; extruder on
G1 X41.986 Y61.062 E229.03949 F1200.000
G1 X41.986 Y60.363 E229.08342
G1 X45.399 Y56.951 E229.38696
G1 X42.325 Y59.326 F7800.000
M101 ; extruder on
G1 X41.986 Y59.665 E229.41712 F1200.000
M73 P0
G1 Z1.300 F7800.000
G1 X98.307 Y63.557 F7800.000
M101 ; extruder on
G1 X41.693 Y63.557 E232.95544 F3600.000
G1 X41.693 Y59.336 E233.21923
G1 X51.907 Y51.443 E234.02599
G1 X71.323 Y51.443 E235.23945
G1 X98.307 Y59.635 E237.00194
G1 X98.307 Y63.482 E237.24236
G1 X98.797 Y64.047 F7800.000
M101 ; extruder on
G1 X41.203 Y64.047 E240.84204 F3600.000
G1 X41.203 Y59.095 E241.15157
G1 X51.740 Y50.953 E241.98387
G1 X71.396 Y50.953 E243.21236
G1 X98.797 Y59.271 E245.00215
G1 X98.797 Y63.972 E245.29599
G1 X99.250 Y64.500 F7800.000
M101 ; extruder on
G1 X40.750 Y64.500 E248.38084 F1800.000
G1 X40.750 Y58.873 E248.67758
G1 X51.585 Y50.500 E249.39966
G1 X71.463 Y50.500 E250.44785
G1 X99.250 Y58.935 E251.97916
G1 X99.250 Y64.425 E252.26864
G1 X98.817 Y64.250 F7800.000
G1 X98.014 Y60.068 F7800.000
M101 ; extruder on
G1 X97.755 Y59.810 E252.29173 F1200.000
G1 X98.014 Y60.770 E252.35459
G1 X96.747 Y59.504 E252.46779
G1 X95.739 Y59.198 E252.53438
G1 X98.014 Y61.473 E252.73770
G1 X98.014 Y62.175 E252.78208
G1 X94.731 Y58.892 E253.07551
G1 X93.723 Y58.586 E253.14210
G1 X98.014 Y62.877 E253.52565
G1 X97.698 Y63.264 E253.55719
G1 X92.715 Y58.280 E254.00267
G1 X91.707 Y57.974 E254.06926
G1 X96.996 Y63.264 E254.54210
G1 X96.294 Y63.264 E254.58648
G1 X90.699 Y57.668 E255.08668
G1 X89.690 Y57.362 E255.15327
G1 X95.592 Y63.264 E255.68082
G1 X94.890 Y63.264 E255.72520
G1 X88.682 Y57.056 E256.28011
G1 X87.674 Y56.750 E256.34670
G1 X94.188 Y63.264 E256.92896
G1 X93.486 Y63.264 E256.97334
G1 X86.666 Y56.444 E257.58296
G1 X85.658 Y56.138 E257.64955
G1 X92.784 Y63.264 E258.28653
G1 X92.082 Y63.264 E258.33091
G1 X84.650 Y55.832 E258.99524
G1 X83.642 Y55.526 E259.06183
G1 X91.380 Y63.264 E259.75352
G1 X90.678 Y63.264 E259.79790
G1 X82.634 Y55.220 E260.51695
G1 X81.626 Y54.914 E260.58354
G1 X89.976 Y63.264 E261.32994
G1 X89.273 Y63.264 E261.37432
G1 X80.618 Y54.608 E262.14808
G1 X79.609 Y54.302 E262.21467
G1 X88.571 Y63.264 E263.01578
G1 X87.869 Y63.264 E263.06016
G1 X78.601 Y53.996 E263.88863
G1 X77.593 Y53.689 E263.95522
G1 X87.167 Y63.264 E264.81105
G1 X86.465 Y63.264 E264.85543
G1 X76.585 Y53.383 E265.73861
G1 X75.577 Y53.077 E265.80520
G1 X85.763 Y63.264 E266.71574
G1 X85.061 Y63.264 E266.76012
G1 X74.569 Y52.771 E267.69802
G1 X73.561 Y52.465 E267.76461
G1 X84.359 Y63.264 E268.72986
G1 X83.657 Y63.264 E268.77424
G1 X72.553 Y52.159 E269.76685
G1 X71.545 Y51.853 E269.83344
G1 X82.955 Y63.264 E270.85341
G1 X82.253 Y63.264 E270.89778
G1 X70.726 Y51.736 E271.92819
G1 X70.024 Y51.736 E271.97257
G1 X81.551 Y63.264 E273.00298
G1 X80.849 Y63.264 E273.04735
G1 X69.322 Y51.736 E274.07776
G1 X68.619 Y51.736 E274.12214
G1 X80.147 Y63.264 E275.15255
G1 X79.444 Y63.264 E275.19692
G1 X67.917 Y51.736 E276.22733
G1 X67.215 Y51.736 E276.27171
G1 X78.742 Y63.264 E277.30212
G1 X78.040 Y63.264 E277.34649
G1 X66.513 Y51.736 E278.37690
G1 X65.811 Y51.736 E278.42128
G1 X77.338 Y63.264 E279.45169
G1 X76.636 Y63.264 E279.49606
G1 X65.109 Y51.736 E280.52647
G1 X64.407 Y51.736 E280.57085
G1 X75.934 Y63.264 E281.60126
G1 X75.232 Y63.264 E281.64563
G1 X63.705 Y51.736 E282.67604
G1 X63.003 Y51.736 E282.72042
G1 X74.530 Y63.264 E283.75083
G1 X73.828 Y63.264 E283.79520
G1 X62.301 Y51.736 E284.82561
G1 X61.599 Y51.736 E284.86999
G1 X73.126 Y63.264 E285.90040
G1 X72.424 Y63.264 E285.94477
G1 X60.897 Y51.736 E286.97518
G1 X60.195 Y51.736 E287.01956
G1 X71.722 Y63.264 E288.04997
G1 X71.020 Y63.264 E288.09434
G1 X59.493 Y51.736 E289.12475
G1 X58.790 Y51.736 E289.16913
G1 X70.318 Y63.264 E290.19954
G1 X69.615 Y63.264 E290.24392
G1 X58.088 Y51.736 E291.27432
G1 X57.386 Y51.736 E291.31870
G1 X68.913 Y63.264 E292.34911
G1 X68.211 Y63.264 E292.39349
G1 X56.684 Y51.736 E293.42389
G1 X55.982 Y51.736 E293.46827
G1 X67.509 Y63.264 E294.49868
G1 X66.807 Y63.264 E294.54306
G1 X55.280 Y51.736 E295.57346
G1 X54.578 Y51.736 E295.61784
G1 X66.105 Y63.264 E296.64825
G1 X65.403 Y63.264 E296.69263
G1 X53.876 Y51.736 E297.72303
G1 X53.174 Y51.736 E297.76741
G1 X64.701 Y63.264 E298.79782
G1 X63.999 Y63.264 E298.84220
G1 X52.472 Y51.736 E299.87261
G1 X51.843 Y51.810 E299.91260
G1 X63.297 Y63.264 E300.93642
G1 X62.595 Y63.264 E300.98079
G1 X51.447 Y52.116 E301.97726
G1 X51.051 Y52.422 E302.00889
G1 X61.893 Y63.264 E302.97800
G1 X61.191 Y63.264 E303.02238
G1 X50.655 Y52.728 E303.96413
G1 X50.259 Y53.034 E303.99577
G1 X60.489 Y63.264 E304.91016
G1 X59.786 Y63.264 E304.95454
G1 X49.863 Y53.340 E305.84158
G1 X49.467 Y53.646 E305.87321
G1 X59.084 Y63.264 E306.73290
G1 X58.382 Y63.264 E306.77727
G1 X49.071 Y53.952 E307.60960
G1 X48.675 Y54.258 E307.64124
G1 X57.680 Y63.264 E308.44621
G1 X56.978 Y63.264 E308.49058
G1 X48.279 Y54.564 E309.26820
G1 X47.883 Y54.870 E309.29983
G1 X56.276 Y63.264 E310.05009
G1 X55.574 Y63.264 E310.09447
G1 X47.487 Y55.177 E310.81737
G1 X47.091 Y55.483 E310.84900
G1 X54.872 Y63.264 E311.54455
G1 X54.170 Y63.264 E311.58893
G1 X46.695 Y55.789 E312.25711
G1 X46.299 Y56.095 E312.28875
G1 X53.468 Y63.264 E312.92958
G1 X52.766 Y63.264 E312.97396
G1 X45.903 Y56.401 E313.58744
G1 X45.507 Y56.707 E313.61907
G1 X52.064 Y63.264 E314.20519
G1 X51.362 Y63.264 E314.24957
G1 X45.111 Y57.013 E314.80833
G1 X44.715 Y57.319 E314.83997
G1 X50.659 Y63.264 E315.37138
G1 X49.957 Y63.264 E315.41575
G1 X44.319 Y57.625 E315.91980
G1 X43.923 Y57.931 E315.95144
