; generated by Slic3r 1.2.9 on 2017-09-19 at 17:37:04

; external perimeters extrusion width = 0.50mm
; perimeters extrusion width = 0.58mm
; infill extrusion width = 0.58mm
; solid infill extrusion width = 0.58mm
; top infill extrusion width = 0.58mm

M127
M109 S210 ; set bed temperature
M104 S220 T0 ; set temperature
G28 ; home all axes
G1 Z5 F5000 ; lift nozzle

M73 P0
G1 Z0.500 F7800.000
G1 E-2.00000 F2400.00000
M103 ; extruder off
G1 X39.010 Y44.653 F7800.000
M101 ; extruder on
G1 E0.00000 F2400.00000
G1 X39.912 Y43.865 E0.17013 F1800.000
G1 X42.087 Y43.004 E0.50255
G1 X43.500 Y42.857 E0.70433
G1 X102.500 Y42.857 E9.08690
G1 X104.806 Y43.254 E9.41932
M101 ; extruder on
G1 X106.846 Y44.400 E9.75174 F1800.000
G1 X108.385 Y46.162 E10.08415
G1 X109.246 Y48.337 E10.41657
G1 X109.393 Y49.750 E10.61835
G1 X109.393 Y55.750 E11.47082
G1 X108.996 Y58.056 E11.80323
G1 X107.850 Y60.096 E12.13565
G1 X106.088 Y61.635 E12.46807
G1 X104.502 Y62.345 E12.71495
G1 X76.502 Y70.845 E16.87239
G1 X74.500 Y71.143 E17.15997
G1 X54.500 Y71.143 E20.00152
G1 X52.194 Y70.746 E20.33394
G1 X50.285 Y69.704 E20.64288
G1 X39.285 Y61.204 E22.61797
G1 X37.704 Y59.480 E22.95039
G1 X36.790 Y57.326 E23.28280
G1 X36.607 Y55.750 E23.50823
G1 X36.607 Y49.750 E24.36070
G1 X37.004 Y47.444 E24.69312
G1 X38.150 Y45.404 E25.02553
G1 X38.954 Y44.702 E25.17716
G1 E23.17716 F2400.00000
M103 ; extruder off
G1 X100.215 Y54.055 F7800.000
M101 ; extruder on
G1 E25.17716 F2400.00000
G1 X74.161 Y61.965 E29.04563 F1800.000
G1 X55.280 Y61.965 E31.72815
G1 X45.785 Y54.628 E33.43295
G1 X45.785 Y52.035 E33.80127
G1 X100.215 Y52.035 E41.53443
G1 X100.215 Y53.980 E41.81077
G1 X101.107 Y54.717 F7800.000
M101 ; extruder on
G1 X74.293 Y62.857 E45.79212 F1800.000
G1 X54.975 Y62.857 E48.53675
G1 X44.893 Y55.066 E50.34713
G1 X44.893 Y51.143 E50.90456
G1 X101.107 Y51.143 E58.89139
G1 X101.107 Y54.642 E59.38860
G1 X102.000 Y55.379 F7800.000
M101 ; extruder on
G1 X74.426 Y63.750 E63.48282 F1800.000
G1 X54.671 Y63.750 E66.28958
G1 X44.000 Y55.504 E68.20553
G1 X44.000 Y50.250 E68.95207
G1 X102.000 Y50.250 E77.19256
G1 X102.000 Y55.304 E77.91066
G1 X101.527 Y55.219 F7800.000
G1 X99.665 Y53.004 F7800.000
M101 ; extruder on
G1 X99.246 Y52.585 E77.99493 F1800.000
G1 X99.227 Y53.830 E78.17214
G1 X97.982 Y52.585 E78.42273
G1 X96.717 Y52.585 E78.60267
G1 X98.257 Y54.124 E78.91251
G1 X97.287 Y54.419 E79.05677
G1 X95.453 Y52.585 E79.42588
G1 X94.189 Y52.585 E79.60582
G1 X96.317 Y54.713 E80.03419
G1 X95.347 Y55.008 E80.17844
G1 X92.924 Y52.585 E80.66607
G1 X91.660 Y52.585 E80.84601
G1 X94.377 Y55.302 E81.39290
G1 X93.407 Y55.597 E81.53716
G1 X90.395 Y52.585 E82.14331
G1 X89.131 Y52.585 E82.32325
G1 X92.437 Y55.891 E82.98867
G1 X91.467 Y56.186 E83.13293
G1 X87.866 Y52.585 E83.85760
G1 X86.602 Y52.585 E84.03754
G1 X90.497 Y56.480 E84.82148
G1 X89.527 Y56.775 E84.96573
G1 X85.337 Y52.585 E85.80893
G1 X84.073 Y52.585 E85.98887
G1 X88.557 Y57.069 E86.89133
G1 X87.587 Y57.364 E87.03559
G1 X82.808 Y52.585 E87.99731
G1 X81.544 Y52.585 E88.17725
G1 X86.617 Y57.658 E89.19823
G1 X85.647 Y57.953 E89.34249
G1 X80.279 Y52.585 E90.42273
G1 X79.015 Y52.585 E90.60267
G1 X84.677 Y58.247 E91.74217
G1 X83.707 Y58.541 E91.88643
G1 X77.750 Y52.585 E93.08520
G1 X76.486 Y52.585 E93.26514
G1 X82.737 Y58.836 E94.52316
G1 X81.767 Y59.130 E94.66742
G1 X75.221 Y52.585 E95.98471
G1 X73.957 Y52.585 E96.16465
G1 X80.797 Y59.425 E97.54120
G1 X79.827 Y59.719 E97.68545
G1 X72.692 Y52.585 E99.12126
G1 X71.428 Y52.585 E99.30120
G1 X78.857 Y60.014 E100.79627
G1 X77.887 Y60.308 E100.94053
G1 X70.163 Y52.585 E102.49486
G1 X68.899 Y52.585 E102.67480
G1 X76.917 Y60.603 E104.28840
G1 X75.947 Y60.897 E104.43265
G1 X67.634 Y52.585 E106.10551
G1 X66.370 Y52.585 E106.28545
G1 X74.977 Y61.192 E108.01756
G1 X73.936 Y61.415 E108.16907
G1 X65.105 Y52.585 E109.94617
G1 X63.841 Y52.585 E110.12612
G1 X72.671 Y61.415 E111.90322
G1 X71.407 Y61.415 E112.08316
G1 X62.577 Y52.585 E113.86026
G1 X61.312 Y52.585 E114.04020
G1 X70.142 Y61.415 E115.81730
G1 X68.878 Y61.415 E115.99724
G1 X60.048 Y52.585 E117.77435
G1 X58.783 Y52.585 E117.95429
G1 X67.613 Y61.415 E119.73139
G1 X66.349 Y61.415 E119.91133
G1 X57.519 Y52.585 E121.68843
G1 X56.254 Y52.585 E121.86837
G1 X65.085 Y61.415 E123.64547
G1 X63.820 Y61.415 E123.82541
G1 X54.990 Y52.585 E125.60252
G1 X53.725 Y52.585 E125.78246
G1 X62.556 Y61.415 E127.55956
G1 X61.291 Y61.415 E127.73950
G1 X52.461 Y52.585 E129.51660
G1 X51.196 Y52.585 E129.69654
G1 X60.027 Y61.415 E131.47364
G1 X58.762 Y61.415 E131.65359
G1 X49.932 Y52.585 E133.43069
G1 X48.667 Y52.585 E133.61063
G1 X57.498 Y61.415 E135.38773
G1 X56.233 Y61.415 E135.56767
G1 X47.403 Y52.585 E137.34477
G1 X46.335 Y52.781 E137.49930
G1 X52.408 Y58.855 E138.72161
G1 X46.845 Y54.556 F7800.000
M101 ; extruder on
G1 X46.335 Y54.046 E138.82423 F1800.000
M73 P0
G1 Z0.900 F7800.000
G1 X101.307 Y54.865 F7800.000
M101 ; extruder on
G1 X74.323 Y63.057 E140.58672 F3600.000
G1 X54.907 Y63.057 E141.80018
G1 X44.693 Y55.164 E142.60694
G1 X44.693 Y50.943 E142.87073
G1 X101.307 Y50.943 E146.40905
G1 X101.307 Y54.790 E146.64947
G1 X101.797 Y55.229 F7800.000
M101 ; extruder on
G1 X74.396 Y63.547 E148.43926 F3600.000
G1 X54.740 Y63.547 E149.66775
G1 X44.203 Y55.405 E150.50004
G1 X44.203 Y50.453 E150.80958
G1 X101.797 Y50.453 E154.40926
G1 X101.797 Y55.154 E154.70311
G1 X102.250 Y55.565 F7800.000
M101 ; extruder on
G1 X74.463 Y64.000 E156.23442 F1800.000
G1 X54.585 Y64.000 E157.28261
G1 X43.750 Y55.627 E158.00469
G1 X43.750 Y50.000 E158.30143
G1 X102.250 Y50.000 E161.38628
G1 X102.250 Y55.490 E161.67576
G1 X101.777 Y55.404 F7800.000
G1 X100.755 Y54.690 F7800.000
M101 ; extruder on
G1 X101.014 Y54.432 E161.69885 F1200.000
G1 X101.014 Y53.730 E161.74322
G1 X99.747 Y54.996 E161.85643
G1 X98.739 Y55.302 E161.92302
G1 X101.014 Y53.027 E162.12633
G1 X101.014 Y52.325 E162.17071
G1 X97.731 Y55.608 E162.46414
G1 X96.723 Y55.914 E162.53074
G1 X101.014 Y51.623 E162.91428
G1 X100.698 Y51.236 E162.94582
G1 X95.715 Y56.220 E163.39131
G1 X94.707 Y56.526 E163.45790
G1 X99.996 Y51.236 E163.93074
G1 X99.294 Y51.236 E163.97512
G1 X93.699 Y56.832 E164.47531
G1 X92.690 Y57.138 E164.54190
G1 X98.592 Y51.236 E165.06946
G1 X97.890 Y51.236 E165.11383
G1 X91.682 Y57.444 E165.66874
G1 X90.674 Y57.750 E165.73533
G1 X97.188 Y51.236 E166.31760
G1 X96.486 Y51.236 E166.36198
G1 X89.666 Y58.056 E166.97160
G1 X88.658 Y58.362 E167.03819
G1 X95.784 Y51.236 E167.67517
G1 X95.082 Y51.236 E167.71954
G1 X87.650 Y58.668 E168.38388
G1 X86.642 Y58.974 E168.45047
G1 X94.380 Y51.236 E169.14216
G1 X93.678 Y51.236 E169.18654
G1 X85.634 Y59.280 E169.90558
G1 X84.626 Y59.586 E169.97218
G1 X92.976 Y51.236 E170.71858
G1 X92.273 Y51.236 E170.76296
G1 X83.617 Y59.892 E171.53672
G1 X82.609 Y60.198 E171.60331
G1 X91.571 Y51.236 E172.40442
G1 X90.869 Y51.236 E172.44880
G1 X81.601 Y60.504 E173.27727
G1 X80.593 Y60.811 E173.34386
G1 X90.167 Y51.236 E174.19969
G1 X89.465 Y51.236 E174.24407
G1 X79.585 Y61.117 E175.12725
G1 X78.577 Y61.423 E175.19385
G1 X88.763 Y51.236 E176.10439
G1 X88.061 Y51.236 E176.14876
G1 X77.569 Y61.729 E177.08666
G1 X76.561 Y62.035 E177.15325
G1 X87.359 Y51.236 E178.11850
G1 X86.657 Y51.236 E178.16288
G1 X75.553 Y62.341 E179.15549
G1 X74.545 Y62.647 E179.22208
G1 X85.955 Y51.236 E180.24205
G1 X85.253 Y51.236 E180.28643
G1 X73.726 Y62.764 E181.31683
G1 X73.024 Y62.764 E181.36121
G1 X84.551 Y51.236 E182.39162
G1 X83.849 Y51.236 E182.43600
G1 X72.322 Y62.764 E183.46640
G1 X71.619 Y62.764 E183.51078
G1 X83.147 Y51.236 E184.54119
G1 X82.444 Y51.236 E184.58557
G1 X70.917 Y62.764 E185.61597
G1 X70.215 Y62.764 E185.66035
G1 X81.742 Y51.236 E186.69076
G1 X81.040 Y51.236 E186.73514
G1 X69.513 Y62.764 E187.76555
G1 X68.811 Y62.764 E187.80992
G1 X80.338 Y51.236 E188.84033
G1 X79.636 Y51.236 E188.88471
G1 X68.109 Y62.764 E189.91512
G1 X67.407 Y62.764 E189.95949
G1 X78.934 Y51.236 E190.98990
G1 X78.232 Y51.236 E191.03428
G1 X66.705 Y62.764 E192.06469
G1 X66.003 Y62.764 E192.10906
G1 X77.530 Y51.236 E193.13947
G1 X76.828 Y51.236 E193.18385
G1 X65.301 Y62.764 E194.21426
G1 X64.599 Y62.764 E194.25863
G1 X76.126 Y51.236 E195.28904
G1 X75.424 Y51.236 E195.33342
G1 X63.897 Y62.764 E196.36383
G1 X63.195 Y62.764 E196.40820
G1 X74.722 Y51.236 E197.43861
G1 X74.020 Y51.236 E197.48299
G1 X62.493 Y62.764 E198.51340
G1 X61.790 Y62.764 E198.55777
G1 X73.318 Y51.236 E199.58818
G1 X72.615 Y51.236 E199.63256
G1 X61.088 Y62.764 E200.66297
G1 X60.386 Y62.764 E200.70734
G1 X71.913 Y51.236 E201.73775
G1 X71.211 Y51.236 E201.78213
G1 X59.684 Y62.764 E202.81254
G1 X58.982 Y62.764 E202.85691
G1 X70.509 Y51.236 E203.88732
G1 X69.807 Y51.236 E203.93170
G1 X58.280 Y62.764 E204.96211
G1 X57.578 Y62.764 E205.00649
G1 X69.105 Y51.236 E206.03689
G1 X68.403 Y51.236 E206.08127
G1 X56.876 Y62.764 E207.11168
G1 X56.174 Y62.764 E207.15606
G1 X67.701 Y51.236 E208.18646
G1 X66.999 Y51.236 E208.23084
G1 X55.472 Y62.764 E209.26125
G1 X54.843 Y62.690 E209.30124
G1 X66.297 Y51.236 E210.32506
G1 X65.595 Y51.236 E210.36944
G1 X54.447 Y62.384 E211.36590
G1 X54.051 Y62.078 E211.39754
G1 X64.893 Y51.236 E212.36665
G1 X64.191 Y51.236 E212.41102
G1 X53.655 Y61.772 E213.35277
G1 X53.259 Y61.466 E213.38441
G1 X63.489 Y51.236 E214.29881
G1 X62.786 Y51.236 E214.34318
G1 X52.863 Y61.160 E215.23022
G1 X52.467 Y60.854 E215.26186
G1 X62.084 Y51.236 E216.12154
G1 X61.382 Y51.236 E216.16592
G1 X52.071 Y60.548 E216.99824
G1 X51.675 Y60.242 E217.02988
G1 X60.680 Y51.236 E217.83485
G1 X59.978 Y51.236 E217.87923
G1 X51.279 Y59.936 E218.65684
G1 X50.883 Y59.630 E218.68848
G1 X59.276 Y51.236 E219.43873
G1 X58.574 Y51.236 E219.48311
G1 X50.487 Y59.323 E220.20601
G1 X50.091 Y59.017 E220.23765
G1 X57.872 Y51.236 E220.93319
G1 X57.170 Y51.236 E220.97757
G1 X49.695 Y58.711 E221.64576
G1 X49.299 Y58.405 E221.67740
G1 X56.468 Y51.236 E222.31823
G1 X55.766 Y51.236 E222.36260
G1 X48.903 Y58.099 E222.97608
G1 X48.507 Y57.793 E223.00772
G1 X55.064 Y51.236 E223.59384
G1 X54.362 Y51.236 E223.63821
G1 X48.111 Y57.487 E224.19698
G1 X47.715 Y57.181 E224.22861
G1 X53.659 Y51.236 E224.76002
G1 X52.957 Y51.236 E224.80440
G1 X47.319 Y56.875 E225.30845
G1 X46.923 Y56.569 E225.34009
G1 X52.255 Y51.236 E225.81678
G1 X51.553 Y51.236 E225.86116
G1 X46.527 Y56.263 E226.31049
G1 X46.131 Y55.957 E226.34213
G1 X50.851 Y51.236 E226.76411
G1 X50.149 Y51.236 E226.80849
G1 X45.735 Y55.651 E227.20312
G1 X45.338 Y55.345 E227.23475
G1 X49.447 Y51.236 E227.60202
G1 X48.745 Y51.236 E227.64640
G1 X44.986 Y54.995 E227.98237
G1 X44.986 Y54.293 E228.02675
G1 X48.043 Y51.236 E228.29997
G1 X47.341 Y51.236 E228.34434
G1 X44.986 Y53.591 E228.55480
G1 X44.986 Y52.889 E228.59918
G1 X46.639 Y51.236 E228.74688
G1 X45.937 Y51.236 E228.79126
G1 X44.986 Y52.187 E228.87620
G1 X44.986 Y51.485 E228.92058
G1 X45.235 Y51.236 E228.94276
M73 P0
G1 Z1.300 F7800.000
G1 X101.307 Y54.865 F7800.000
M101 ; extruder on
G1 X74.323 Y63.057 E230.70524 F3600.000
G1 X54.907 Y63.057 E231.91871
G1 X44.693 Y55.164 E232.72546
G1 X44.693 Y50.943 E232.98925
G1 X101.307 Y50.943 E236.52758
G1 X101.307 Y54.790 E236.76800
G1 X101.797 Y55.229 F7800.000
M101 ; extruder on
G1 X74.396 Y63.547 E238.55778 F3600.000
G1 X54.740 Y63.547 E239.78628
G1 X44.203 Y55.405 E240.61857
G1 X44.203 Y50.453 E240.92810
G1 X101.797 Y50.453 E244.52779
G1 X101.797 Y55.154 E244.82164
G1 X102.250 Y55.565 F7800.000
M101 ; extruder on
G1 X74.463 Y64.000 E246.35295 F1800.000
G1 X54.585 Y64.000 E247.40114
G1 X43.750 Y55.627 E248.12322
G1 X43.750 Y50.000 E248.41996
G1 X102.250 Y50.000 E251.50480
G1 X102.250 Y55.490 E251.79429
G1 X101.777 Y55.404 F7800.000
G1 X101.014 Y51.485 F7800.000
M101 ; extruder on
G1 X100.765 Y51.236 E251.81637 F1200.000
G1 X100.067 Y51.236 E251.86030
G1 X101.014 Y52.183 E251.94451
G1 X101.014 Y52.882 E251.98845
G1 X99.368 Y51.236 E252.13479
G1 X98.670 Y51.236 E252.17873
G1 X101.014 Y53.580 E252.38720
G1 X101.014 Y54.279 E252.43114
G1 X97.971 Y51.236 E252.70175
G1 X97.272 Y51.236 E252.74568
G1 X100.781 Y54.745 E253.05776
G1 X100.245 Y54.908 E253.09298
G1 X96.574 Y51.236 E253.41953
G1 X95.875 Y51.236 E253.46346
G1 X99.709 Y55.071 E253.80448
G1 X99.174 Y55.233 E253.83970
G1 X95.177 Y51.236 E254.19518
G1 X94.478 Y51.236 E254.23912
G1 X98.638 Y55.396 E254.60907
G1 X98.102 Y55.559 E254.64429
G1 X93.780 Y51.236 E255.02872
G1 X93.081 Y51.236 E255.07265
G1 X97.566 Y55.721 E255.47155
G1 X97.030 Y55.884 E255.50677
G1 X92.383 Y51.236 E255.92013
G1 X91.684 Y51.236 E255.96406
G1 X96.494 Y56.047 E256.39189
G1 X95.958 Y56.209 E256.42712
G1 X90.985 Y51.236 E256.86942
G1 X90.287 Y51.236 E256.91335
G1 X95.422 Y56.372 E257.37012
G1 X94.887 Y56.535 E257.40534
G1 X89.588 Y51.236 E257.87658
G1 X88.890 Y51.236 E257.92051
G1 X94.351 Y56.697 E258.40622
G1 X93.815 Y56.860 E258.44144
G1 X88.191 Y51.236 E258.94162
G1 X87.493 Y51.236 E258.98555
G1 X93.279 Y57.023 E259.50020
G1 X92.743 Y57.185 E259.53542
G1 X86.794 Y51.236 E260.06453
G1 X86.096 Y51.236 E260.10847
G1 X92.207 Y57.348 E260.65205
G1 X91.671 Y57.511 E260.68727
G1 X85.397 Y51.236 E261.24533
G1 X84.698 Y51.236 E261.28926
G1 X91.135 Y57.673 E261.86178
G1 X90.599 Y57.836 E261.89700
G1 X84.000 Y51.236 E262.48399
G1 X83.301 Y51.236 E262.52793
G1 X90.064 Y57.999 E263.12939
G1 X89.528 Y58.161 E263.16461
G1 X82.603 Y51.236 E263.78054
G1 X81.904 Y51.236 E263.82447
G1 X88.992 Y58.324 E264.45487
G1 X88.456 Y58.487 E264.49009
G1 X81.206 Y51.236 E265.13496
G1 X80.507 Y51.236 E265.17889
G1 X87.920 Y58.649 E265.83823
G1 X87.384 Y58.812 E265.87345
G1 X79.809 Y51.236 E266.54726
G1 X79.110 Y51.236 E266.59119
G1 X86.848 Y58.975 E267.27947
G1 X86.312 Y59.138 E267.31469
G1 X78.411 Y51.236 E268.01743
G1 X77.713 Y51.236 E268.06136
G1 X85.777 Y59.300 E268.77858
G1 X85.241 Y59.463 E268.81380
G1 X77.014 Y51.236 E269.54548
G1 X76.316 Y51.236 E269.58941
G1 X84.705 Y59.626 E270.33556
G1 X84.169 Y59.788 E270.37079
G1 X75.617 Y51.236 E271.13141
G1 X74.919 Y51.236 E271.17534
G1 X83.633 Y59.951 E271.95043
G1 X83.097 Y60.114 E271.98565
G1 X74.220 Y51.236 E272.77521
G1 X73.522 Y51.236 E272.81914
G1 X82.561 Y60.276 E273.62317
G1 X82.025 Y60.439 E273.65839
G1 X72.823 Y51.236 E274.47689
G1 X72.124 Y51.236 E274.52082
G1 X81.490 Y60.602 E275.35379
G1 X80.954 Y60.764 E275.38901
G1 X71.426 Y51.236 E276.23644
G1 X70.727 Y51.236 E276.28038
G1 X80.418 Y60.927 E277.14228
G1 X79.882 Y61.090 E277.17750
G1 X70.029 Y51.236 E278.05387
G1 X69.330 Y51.236 E278.09781
G1 X79.346 Y61.252 E278.98865
G1 X78.810 Y61.415 E279.02387
G1 X68.632 Y51.236 E279.92918
G1 X67.933 Y51.236 E279.97311
G1 X78.274 Y61.578 E280.89289
G1 X77.738 Y61.740 E280.92812
G1 X67.234 Y51.236 E281.86236
G1 X66.536 Y51.236 E281.90630
G1 X77.203 Y61.903 E282.85502
G1 X76.667 Y62.066 E282.89024
G1 X65.837 Y51.236 E283.85342
G1 X65.139 Y51.236 E283.89736
G1 X76.131 Y62.228 E284.87501
G1 X75.595 Y62.391 E284.91024
G1 X64.440 Y51.236 E285.90236
G1 X63.742 Y51.236 E285.94629
G1 X75.059 Y62.554 E286.95289
G1 X74.523 Y62.716 E286.98811
G1 X63.043 Y51.236 E288.00917
G1 X62.345 Y51.236 E288.05311
G1 X73.872 Y62.764 E289.07836
G1 X73.173 Y62.764 E289.12229
G1 X61.646 Y51.236 E290.14754
G1 X60.947 Y51.236 E290.19148
G1 X72.475 Y62.764 E291.21673
G1 X71.776 Y62.764 E291.26066
G1 X60.249 Y51.236 E292.28591
G1 X59.550 Y51.236 E292.32985
G1 X71.077 Y62.764 E293.35510
G1 X70.379 Y62.764 E293.39903
G1 X58.852 Y51.236 E294.42428
G1 X58.153 Y51.236 E294.46821
G1 X69.680 Y62.764 E295.49347
G1 X68.982 Y62.764 E295.53740
G1 X57.455 Y51.236 E296.56265
G1 X56.756 Y51.236 E296.60658
G1 X68.283 Y62.764 E297.63183
G1 X67.585 Y62.764 E297.67577
G1 X56.058 Y51.236 E298.70102
G1 X55.359 Y51.236 E298.74495
G1 X66.886 Y62.764 E299.77020
G1 X66.187 Y62.764 E299.81414
G1 X54.660 Y51.236 E300.83939
G1 X53.962 Y51.236 E300.88332
G1 X65.489 Y62.764 E301.90857
G1 X64.790 Y62.764 E301.95251
G1 X53.263 Y51.236 E302.97776
G1 X52.565 Y51.236 E303.02169
G1 X64.092 Y62.764 E304.04694
G1 X63.393 Y62.764 E304.09088
G1 X51.866 Y51.236 E305.11613
G1 X51.168 Y51.236 E305.16006
G1 X62.695 Y62.764 E306.18531
G1 X61.996 Y62.764 E306.22924
G1 X50.469 Y51.236 E307.25450
G1 X49.771 Y51.236 E307.29843
G1 X61.298 Y62.764 E308.32368
G1 X60.599 Y62.764 E308.36761
