; generated by Slic3r 1.2.9 on 2017-09-18 at 17:29:30

; external perimeters extrusion width = 0.50mm
; perimeters extrusion width = 0.58mm
; infill extrusion width = 0.58mm
; solid infill extrusion width = 0.58mm
; top infill extrusion width = 0.58mm

M127
M109 S220 ; set bed temperature
M104 S220 T0 ; set temperature
G28 ; home all axes
G1 Z5 F5000 ; lift nozzle

M73 P0
G1 Z0.500 F7800.000
G1 E-2.00000 F2400.00000
M103 ; extruder off
G1 X22.412 Y27.115 F7800.000
M101 ; extruder on
G1 E0.00000 F2400.00000
G1 X24.587 Y26.254 E0.33242 F1800.000
G1 X26.000 Y26.107 E0.53420
G1 X114.000 Y26.107 E13.03701
G1 X116.306 Y26.504 E13.36943
M101 ; extruder on
G1 X118.346 Y27.650 E13.70185 F1800.000
G1 X119.885 Y29.412 E14.03427
G1 X120.746 Y31.587 E14.36669
G1 X120.893 Y33.000 E14.56846
G1 X120.893 Y79.000 E21.10403
G1 X120.496 Y81.306 E21.43645
G1 X119.350 Y83.346 E21.76886
G1 X117.588 Y84.885 E22.10128
G1 X115.413 Y85.746 E22.43370
G1 X114.000 Y85.893 E22.63548
G1 X26.000 Y85.893 E35.13830
G1 X23.694 Y85.496 E35.47071
G1 X21.654 Y84.350 E35.80313
G1 X20.115 Y82.588 E36.13555
G1 X19.254 Y80.413 E36.46797
G1 X19.107 Y79.000 E36.66975
G1 X19.107 Y33.000 E43.20531
G1 X19.504 Y30.694 E43.53773
G1 X20.650 Y28.654 E43.87014
G1 X22.355 Y27.164 E44.19191
G1 E42.19191 F2400.00000
M103 ; extruder off
G1 X32.086 Y72.640 F7800.000
M101 ; extruder on
G1 E44.19191 F2400.00000
G1 X32.169 Y72.748 E44.21115 F1800.000
G1 X32.419 Y73.352 E44.30404
G1 X32.504 Y74.000 E44.39693
G1 X32.419 Y74.648 E44.48981
G1 X32.169 Y75.252 E44.58270
G1 X31.771 Y75.771 E44.67558
G1 X31.252 Y76.169 E44.76846
G1 X30.648 Y76.419 E44.86135
G1 X30.000 Y76.504 E44.95423
G1 X29.352 Y76.419 E45.04711
G1 X28.748 Y76.169 E45.14000
G1 X28.229 Y75.771 E45.23288
G1 X27.831 Y75.252 E45.32576
G1 X27.581 Y74.648 E45.41865
G1 X27.496 Y74.000 E45.51154
G1 X27.581 Y73.352 E45.60442
G1 X27.831 Y72.748 E45.69731
G1 X28.229 Y72.229 E45.79019
G1 X28.748 Y71.831 E45.88307
G1 X29.352 Y71.581 E45.97596
M101 ; extruder on
G1 X29.990 Y71.497 E46.06735 F1800.000
G1 X30.647 Y71.581 E46.16151
G1 X31.252 Y71.831 E46.25456
G1 X31.771 Y72.229 E46.34745
G1 X32.041 Y72.581 E46.41043
G1 X32.221 Y72.623 F7800.000
G1 E44.41043 F2400.00000
M103 ; extruder off
G1 X31.504 Y76.606 F7800.000
G1 X30.850 Y77.451 F7800.000
G1 X29.935 Y77.502 F7800.000
G1 X29.150 Y77.451 F7800.000
G1 X29.004 Y77.431 F7800.000
G1 X28.847 Y77.176 F7800.000
M101 ; extruder on
G1 E46.41043 F2400.00000
G1 X28.761 Y77.607 E46.47288 F1800.000
G1 X27.393 Y77.607 E46.66734
G1 X27.393 Y76.254 E46.85959
G1 X28.298 Y76.949 E47.02165
G1 X28.778 Y77.147 E47.09550
G1 X30.996 Y77.431 F7800.000
G1 X34.399 Y74.975 F7800.000
G1 X33.476 Y73.146 F7800.000
G1 X32.872 Y72.291 F7800.000
G1 X32.807 Y72.221 F7800.000
G1 X33.024 Y71.976 F7800.000
G1 X33.600 Y71.819 F7800.000
M101 ; extruder on
G1 X33.378 Y71.622 E47.13760 F1800.000
G1 X32.391 Y70.509 E47.34895
G1 X31.591 Y69.338 E47.55054
G1 X31.028 Y68.172 E47.73436
G1 X30.745 Y67.067 E47.89642
G1 X30.792 Y66.062 E48.03947
G1 X31.243 Y65.243 E48.17228
G1 X32.062 Y64.792 E48.30509
M101 ; extruder on
G1 X33.040 Y64.746 E48.44425 F1800.000
G1 X34.171 Y65.027 E48.60978
G1 X35.338 Y65.591 E48.79386
G1 X36.509 Y66.391 E48.99545
G1 X37.622 Y67.378 E49.20681
G1 X38.609 Y68.491 E49.41816
G1 X39.409 Y69.662 E49.61975
G1 X39.972 Y70.828 E49.80357
G1 X40.255 Y71.933 E49.96563
G1 X40.208 Y72.938 E50.10868
G1 X39.757 Y73.757 E50.24149
G1 X38.938 Y74.208 E50.37430
G1 X37.933 Y74.255 E50.51734
G1 X36.828 Y73.972 E50.67941
G1 X35.697 Y73.426 E50.85773
G1 X34.492 Y72.610 E51.06462
G1 X33.656 Y71.868 E51.22336
G1 X33.319 Y71.912 F7800.000
G1 E49.22336 F2400.00000
M103 ; extruder off
G1 X31.922 Y64.298 F7800.000
G1 X31.496 Y53.221 F7800.000
G1 X33.561 Y47.254 F7800.000
G1 X31.346 Y45.215 F7800.000
G1 X30.450 Y44.430 F7800.000
G1 X30.000 Y41.009 F7800.000
G1 X30.000 Y40.504 F7800.000
M101 ; extruder on
G1 E51.22336 F2400.00000
G1 X29.352 Y40.419 E51.31624 F1800.000
G1 X28.748 Y40.169 E51.40913
G1 X28.229 Y39.771 E51.50201
G1 X27.831 Y39.252 E51.59489
G1 X27.581 Y38.648 E51.68778
G1 X27.496 Y38.000 E51.78067
G1 X27.581 Y37.352 E51.87355
G1 X27.831 Y36.748 E51.96644
G1 X28.229 Y36.229 E52.05932
G1 X28.748 Y35.831 E52.15220
G1 X29.352 Y35.581 E52.24509
M101 ; extruder on
G1 X29.990 Y35.497 E52.33648 F1800.000
G1 X30.647 Y35.581 E52.43064
G1 X31.252 Y35.831 E52.52369
G1 X31.771 Y36.229 E52.61658
G1 X32.169 Y36.748 E52.70946
G1 X32.419 Y37.352 E52.80235
G1 X32.504 Y38.000 E52.89523
G1 X32.419 Y38.648 E52.98812
G1 X32.169 Y39.252 E53.08101
G1 X31.771 Y39.771 E53.17388
G1 X31.252 Y40.169 E53.26677
G1 X30.648 Y40.419 E53.35966
G1 X30.074 Y40.495 E53.44188
G1 X29.731 Y40.926 F7800.000
G1 E51.44188 F2400.00000
M103 ; extruder off
G1 X27.000 Y38.065 F7800.000
G1 X27.049 Y38.797 F7800.000
G1 X28.082 Y41.605 F7800.000
G1 X38.355 Y39.496 F7800.000
G1 X30.850 Y34.549 F7800.000
G1 X29.004 Y34.569 F7800.000
G1 X27.840 Y34.840 F7800.000
G1 X27.542 Y35.442 F7800.000
G1 X27.487 Y35.576 F7800.000
G1 X27.393 Y35.746 F7800.000
M101 ; extruder on
G1 E53.44188 F2400.00000
G1 X27.393 Y34.393 E53.63413 F1800.000
G1 X28.761 Y34.393 E53.82859
G1 X28.847 Y34.824 E53.89104
G1 X28.298 Y35.051 E53.97554
G1 X27.452 Y35.700 E54.12695
G1 X30.065 Y34.498 F7800.000
G1 X79.258 Y43.714 F7800.000
G1 X87.239 Y53.087 F7800.000
G1 X88.731 Y57.128 F7800.000
G1 X86.851 Y59.357 F7800.000
G1 X86.165 Y60.176 F7800.000
G1 X85.798 Y60.594 F7800.000
G1 X85.749 Y60.643 F7800.000
G1 X86.336 Y61.307 F7800.000
M101 ; extruder on
G1 X87.192 Y60.192 E54.32668 F1800.000
G1 X88.307 Y59.336 E54.52642
G1 X89.606 Y58.798 E54.72615
G1 X90.602 Y58.667 E54.86886
M101 ; extruder on
G1 X91.000 Y58.615 E54.92588 F1800.000
G1 X92.394 Y58.798 E55.12561
G1 X93.693 Y59.336 E55.32535
G1 X94.808 Y60.192 E55.52508
G1 X95.664 Y61.307 E55.72481
G1 X96.202 Y62.606 E55.92454
G1 X96.385 Y64.000 E56.12427
G1 X96.202 Y65.394 E56.32400
G1 X95.664 Y66.693 E56.52374
G1 X94.808 Y67.808 E56.72347
G1 X93.693 Y68.664 E56.92320
G1 X92.394 Y69.202 E57.12294
G1 X91.000 Y69.385 E57.32267
G1 X89.606 Y69.202 E57.52240
G1 X88.307 Y68.664 E57.72213
G1 X87.192 Y67.808 E57.92186
G1 X86.336 Y66.693 E58.12160
G1 X85.798 Y65.394 E58.32133
G1 X85.615 Y64.000 E58.52106
G1 X85.798 Y62.606 E58.72079
G1 X86.308 Y61.377 E58.90987
G1 X87.116 Y61.758 F7800.000
M101 ; extruder on
G1 X87.829 Y60.829 E59.07621 F1800.000
G1 X88.758 Y60.116 E59.24254
G1 X89.839 Y59.668 E59.40888
G1 X90.719 Y59.552 E59.53489
M101 ; extruder on
G1 X91.000 Y59.515 E59.57522 F1800.000
G1 X92.161 Y59.668 E59.74155
G1 X93.242 Y60.116 E59.90789
G1 X94.171 Y60.829 E60.07423
G1 X94.884 Y61.758 E60.24056
G1 X95.332 Y62.839 E60.40690
G1 X95.485 Y64.000 E60.57323
G1 X95.332 Y65.161 E60.73957
G1 X94.884 Y66.242 E60.90591
G1 X94.171 Y67.171 E61.07224
G1 X93.242 Y67.884 E61.23858
G1 X92.161 Y68.332 E61.40492
G1 X91.000 Y68.485 E61.57125
G1 X89.839 Y68.332 E61.73759
G1 X88.758 Y67.884 E61.90393
G1 X87.829 Y67.171 E62.07026
G1 X87.116 Y66.242 E62.23660
G1 X86.668 Y65.161 E62.40294
G1 X86.515 Y64.000 E62.56927
G1 X86.668 Y62.839 E62.73561
G1 X87.087 Y61.827 E62.89129
G1 X87.896 Y62.208 F7800.000
M101 ; extruder on
G1 X88.466 Y61.466 E63.02423 F1800.000
G1 X89.208 Y60.896 E63.15717
G1 X90.072 Y60.538 E63.29011
G1 X90.835 Y60.437 E63.39942
M101 ; extruder on
G1 X91.000 Y60.416 E63.42306 F1800.000
G1 X91.928 Y60.538 E63.55600
G1 X92.792 Y60.896 E63.68894
G1 X93.534 Y61.466 E63.82188
G1 X94.104 Y62.208 E63.95482
G1 X94.462 Y63.072 E64.08776
G1 X94.584 Y64.000 E64.22070
G1 X94.462 Y64.928 E64.35364
G1 X94.104 Y65.792 E64.48658
G1 X93.534 Y66.534 E64.61952
G1 X92.792 Y67.104 E64.75246
G1 X91.928 Y67.462 E64.88541
G1 X91.000 Y67.584 E65.01835
G1 X90.072 Y67.462 E65.15129
G1 X89.208 Y67.104 E65.28423
G1 X88.466 Y66.534 E65.41717
G1 X87.896 Y65.792 E65.55011
G1 X87.538 Y64.928 E65.68305
G1 X87.416 Y64.000 E65.81599
G1 X87.538 Y63.072 E65.94893
G1 X87.867 Y62.277 E66.07122
G1 X87.665 Y61.764 F7800.000
G1 X85.408 Y59.808 F7800.000
M101 ; extruder on
G1 X84.293 Y60.664 E66.27095 F1800.000
G1 X82.994 Y61.202 E66.47069
G1 X81.600 Y61.385 E66.67042
G1 X80.206 Y61.202 E66.87015
G1 X78.907 Y60.664 E67.06988
G1 X77.792 Y59.808 E67.26961
G1 X76.936 Y58.693 E67.46935
G1 X76.398 Y57.394 E67.66908
G1 X76.215 Y56.000 E67.86881
G1 X76.398 Y54.606 E68.06854
G1 X76.936 Y53.307 E68.26827
G1 X77.792 Y52.192 E68.46801
G1 X78.907 Y51.336 E68.66774
G1 X80.206 Y50.798 E68.86747
G1 X81.159 Y50.673 E69.00396
M101 ; extruder on
G1 X81.600 Y50.615 E69.06720 F1800.000
G1 X82.994 Y50.798 E69.26693
G1 X84.293 Y51.336 E69.46667
G1 X85.408 Y52.192 E69.66640
G1 X86.264 Y53.307 E69.86613
G1 X86.802 Y54.606 E70.06586
G1 X86.985 Y56.000 E70.26560
G1 X86.802 Y57.394 E70.46533
G1 X86.264 Y58.693 E70.66506
G1 X85.454 Y59.748 E70.85413
G1 X84.771 Y59.171 F7800.000
M101 ; extruder on
G1 X83.842 Y59.884 E71.02047 F1800.000
G1 X82.761 Y60.332 E71.18681
G1 X81.600 Y60.485 E71.35315
G1 X80.439 Y60.332 E71.51948
G1 X79.358 Y59.884 E71.68582
G1 X78.429 Y59.171 E71.85215
G1 X77.716 Y58.242 E72.01849
G1 X77.268 Y57.161 E72.18483
G1 X77.115 Y56.000 E72.35117
G1 X77.268 Y54.839 E72.51750
G1 X77.716 Y53.758 E72.68384
G1 X78.429 Y52.829 E72.85018
G1 X79.358 Y52.116 E73.01651
G1 X80.439 Y51.668 E73.18285
G1 X81.275 Y51.558 E73.30264
M101 ; extruder on
G1 X81.600 Y51.515 E73.34919 F1800.000
G1 X82.761 Y51.668 E73.51552
G1 X83.842 Y52.116 E73.68186
G1 X84.771 Y52.829 E73.84820
G1 X85.484 Y53.758 E74.01453
G1 X85.932 Y54.839 E74.18087
G1 X86.085 Y56.000 E74.34720
G1 X85.932 Y57.161 E74.51354
G1 X85.484 Y58.242 E74.67988
G1 X84.817 Y59.112 E74.83556
G1 X84.134 Y58.534 F7800.000
M101 ; extruder on
G1 X83.392 Y59.104 E74.96850 F1800.000
G1 X82.528 Y59.462 E75.10144
G1 X81.600 Y59.584 E75.23438
G1 X80.672 Y59.462 E75.36732
G1 X79.808 Y59.104 E75.50026
G1 X79.066 Y58.534 E75.63320
G1 X78.496 Y57.792 E75.76614
G1 X78.138 Y56.928 E75.89909
G1 X78.016 Y56.000 E76.03203
G1 X78.138 Y55.072 E76.16497
G1 X78.496 Y54.208 E76.29791
G1 X79.066 Y53.466 E76.43085
G1 X79.808 Y52.896 E76.56379
G1 X80.672 Y52.538 E76.69673
G1 X81.392 Y52.443 E76.79982
M101 ; extruder on
G1 X81.600 Y52.416 E76.82967 F1800.000
G1 X82.528 Y52.538 E76.96261
G1 X83.392 Y52.896 E77.09555
G1 X84.134 Y53.466 E77.22850
G1 X84.704 Y54.208 E77.36144
G1 X85.062 Y55.072 E77.49438
G1 X85.184 Y56.000 E77.62732
G1 X85.062 Y56.928 E77.76026
G1 X84.704 Y57.792 E77.89320
G1 X84.180 Y58.475 E78.01548
G1 X84.243 Y59.023 F7800.000
G1 X88.307 Y52.664 F7800.000
M101 ; extruder on
G1 X87.192 Y51.808 E78.21522 F1800.000
G1 X86.336 Y50.693 E78.41495
G1 X85.798 Y49.394 E78.61468
G1 X85.615 Y48.000 E78.81441
G1 X85.798 Y46.606 E79.01415
G1 X86.336 Y45.307 E79.21388
G1 X87.192 Y44.192 E79.41361
G1 X88.307 Y43.336 E79.61334
G1 X89.606 Y42.798 E79.81308
G1 X90.602 Y42.667 E79.95578
M101 ; extruder on
G1 X91.000 Y42.615 E80.01281 F1800.000
G1 X92.394 Y42.798 E80.21254
G1 X93.693 Y43.336 E80.41227
G1 X94.808 Y44.192 E80.61200
G1 X95.664 Y45.307 E80.81173
G1 X96.202 Y46.606 E81.01147
G1 X96.385 Y48.000 E81.21120
G1 X96.202 Y49.394 E81.41093
G1 X95.664 Y50.693 E81.61066
G1 X94.808 Y51.808 E81.81039
G1 X93.693 Y52.664 E82.01013
G1 X92.394 Y53.202 E82.20986
G1 X91.000 Y53.385 E82.40959
G1 X89.606 Y53.202 E82.60932
G1 X88.377 Y52.692 E82.79840
G1 X88.758 Y51.884 F7800.000
M101 ; extruder on
G1 X87.829 Y51.171 E82.96474 F1800.000
G1 X87.116 Y50.242 E83.13107
G1 X86.668 Y49.161 E83.29741
G1 X86.515 Y48.000 E83.46375
G1 X86.668 Y46.839 E83.63008
G1 X87.116 Y45.758 E83.79642
G1 X87.829 Y44.829 E83.96276
G1 X88.758 Y44.116 E84.12909
G1 X89.839 Y43.668 E84.29543
G1 X90.719 Y43.552 E84.42144
M101 ; extruder on
G1 X91.000 Y43.515 E84.46177 F1800.000
G1 X92.161 Y43.668 E84.62810
G1 X93.242 Y44.116 E84.79444
G1 X94.171 Y44.829 E84.96078
G1 X94.884 Y45.758 E85.12711
G1 X95.332 Y46.839 E85.29345
G1 X95.485 Y48.000 E85.45979
G1 X95.332 Y49.161 E85.62612
G1 X94.884 Y50.242 E85.79246
G1 X94.171 Y51.171 E85.95879
G1 X93.242 Y51.884 E86.12513
G1 X92.161 Y52.332 E86.29147
G1 X91.000 Y52.485 E86.45780
G1 X89.839 Y52.332 E86.62414
G1 X88.827 Y51.913 E86.77982
G1 X89.208 Y51.104 F7800.000
M101 ; extruder on
G1 X88.466 Y50.534 E86.91276 F1800.000
G1 X87.896 Y49.792 E87.04570
G1 X87.538 Y48.928 E87.17865
G1 X87.416 Y48.000 E87.31159
G1 X87.538 Y47.072 E87.44453
G1 X87.896 Y46.208 E87.57747
G1 X88.466 Y45.466 E87.71041
G1 X89.208 Y44.896 E87.84335
G1 X90.072 Y44.538 E87.97629
G1 X90.835 Y44.437 E88.08560
M101 ; extruder on
G1 X91.000 Y44.416 E88.10923 F1800.000
G1 X91.928 Y44.538 E88.24217
G1 X92.792 Y44.896 E88.37511
G1 X93.534 Y45.466 E88.50805
G1 X94.104 Y46.208 E88.64100
G1 X94.462 Y47.072 E88.77394
G1 X94.584 Y48.000 E88.90688
G1 X94.462 Y48.928 E89.03982
G1 X94.104 Y49.792 E89.17276
G1 X93.534 Y50.534 E89.30570
G1 X92.792 Y51.104 E89.43864
G1 X91.928 Y51.462 E89.57158
G1 X91.000 Y51.584 E89.70452
G1 X90.072 Y51.462 E89.83746
G1 X89.277 Y51.133 E89.95975
G1 X88.764 Y51.335 F7800.000
G1 E87.95975 F2400.00000
M103 ; extruder off
G1 X95.089 Y48.000 F7800.000
G1 X98.527 Y46.471 F7800.000
G1 X98.369 Y46.147 F7800.000
G1 X100.996 Y43.817 F7800.000
G1 X99.578 Y44.020 F7800.000
M101 ; extruder on
G1 E89.95975 F2400.00000
G1 X99.041 Y43.234 E90.09500 F1800.000
G1 X98.343 Y41.788 E90.32316
G1 X97.949 Y40.251 E90.54852
G1 X98.028 Y38.564 E90.78853
G1 X98.928 Y36.928 E91.05381
G1 X100.564 Y36.028 E91.31909
M101 ; extruder on
G1 X102.218 Y35.951 E91.55429 F1800.000
G1 X103.781 Y36.339 E91.78310
G1 X105.234 Y37.041 E92.01244
G1 X106.609 Y37.980 E92.24907
G1 X107.850 Y39.081 E92.48473
G1 X109.017 Y40.387 E92.73359
G1 X109.959 Y41.766 E92.97081
G1 X110.657 Y43.212 E93.19897
G1 X111.051 Y44.749 E93.42433
G1 X110.974 Y46.391 E93.65796
G1 X110.089 Y48.062 E93.92659
G1 X108.436 Y48.972 E94.19472
G1 X106.749 Y49.051 E94.43473
G1 X105.212 Y48.657 E94.66008
G1 X103.766 Y47.959 E94.88825
G1 X102.391 Y47.020 E95.12488
G1 X101.150 Y45.919 E95.36054
G1 X99.983 Y44.613 E95.60940
G1 X99.620 Y44.082 E95.70071
G1 X100.315 Y43.517 F7800.000
M101 ; extruder on
G1 X99.816 Y42.786 E95.82646 F1800.000
G1 X99.185 Y41.480 E96.03246
G1 X98.847 Y40.159 E96.22617
G1 X98.910 Y38.813 E96.41770
G1 X99.586 Y37.586 E96.61674
G1 X100.813 Y36.910 E96.81579
M101 ; extruder on
G1 X102.129 Y36.849 E97.00297 F1800.000
G1 X103.476 Y37.183 E97.20014
G1 X104.786 Y37.816 E97.40685
G1 X106.059 Y38.686 E97.62595
G1 X107.219 Y39.714 E97.84623
G1 X108.313 Y40.939 E98.07948
G1 X109.184 Y42.214 E98.29895
G1 X109.815 Y43.520 E98.50494
G1 X110.153 Y44.841 E98.69865
G1 X110.092 Y46.150 E98.88488
G1 X109.425 Y47.408 E99.08724
G1 X108.187 Y48.090 E99.28802
G1 X106.841 Y48.153 E99.47955
G1 X105.520 Y47.815 E99.67326
G1 X104.214 Y47.184 E99.87925
G1 X102.941 Y46.314 E100.09836
G1 X101.781 Y45.286 E100.31864
G1 X100.687 Y44.061 E100.55189
G1 X100.357 Y43.579 E100.63495
G1 X101.052 Y43.013 F7800.000
M101 ; extruder on
G1 X100.591 Y42.338 E100.75120 F1800.000
G1 X100.028 Y41.172 E100.93502
G1 X99.745 Y40.067 E101.09709
G1 X99.792 Y39.062 E101.24014
G1 X100.243 Y38.243 E101.37295
G1 X101.062 Y37.792 E101.50576
M101 ; extruder on
G1 X102.040 Y37.746 E101.64492 F1800.000
G1 X103.171 Y38.027 E101.81045
G1 X104.338 Y38.591 E101.99453
G1 X105.509 Y39.391 E102.19612
G1 X106.588 Y40.348 E102.40101
G1 X107.609 Y41.490 E102.61865
G1 X108.409 Y42.662 E102.82037
G1 X108.972 Y43.828 E103.00419
G1 X109.255 Y44.933 E103.16625
G1 X109.210 Y45.909 E103.30508
G1 X108.761 Y46.755 E103.44117
G1 X107.938 Y47.208 E103.57460
G1 X106.933 Y47.255 E103.71765
G1 X105.828 Y46.972 E103.87971
G1 X104.662 Y46.409 E104.06353
G1 X103.491 Y45.609 E104.26512
G1 X102.412 Y44.652 E104.47001
G1 X101.391 Y43.510 E104.68766
G1 X101.094 Y43.075 E104.76246
G1 X100.554 Y43.051 F7800.000
G1 X100.480 Y50.615 F7800.000
M101 ; extruder on
G1 X101.874 Y50.798 E104.96219 F1800.000
G1 X103.173 Y51.336 E105.16193
G1 X104.288 Y52.192 E105.36166
G1 X105.144 Y53.307 E105.56139
G1 X105.682 Y54.606 E105.76112
G1 X105.865 Y56.000 E105.96085
G1 X105.682 Y57.394 E106.16059
G1 X105.144 Y58.693 E106.36032
G1 X104.288 Y59.808 E106.56005
G1 X103.173 Y60.664 E106.75978
G1 X101.874 Y61.202 E106.95952
G1 X100.480 Y61.385 E107.15925
