; generated by Slic3r 1.2.9 on 2017-09-20 at 19:34:32

; external perimeters extrusion width = 0.50mm
; perimeters extrusion width = 0.58mm
; infill extrusion width = 0.58mm
; solid infill extrusion width = 0.58mm
; top infill extrusion width = 0.58mm

M127
M109 S210 ; set bed temperature
M104 S220 T0 ; set temperature
G28 ; home all axes
G1 Z5 F5000 ; lift nozzle

M73 P0
G1 Z0.500 F7800.000
G1 E-2.00000 F2400.00000
M103 ; extruder off
G1 X22.412 Y28.615 F7800.000
M101 ; extruder on
G1 E0.00000 F2400.00000
G1 X24.587 Y27.754 E0.33242 F1800.000
G1 X26.000 Y27.607 E0.53420
G1 X114.000 Y27.607 E13.03701
G1 X116.306 Y28.004 E13.36943
M101 ; extruder on
G1 X118.346 Y29.150 E13.70185 F1800.000
G1 X119.885 Y30.912 E14.03427
G1 X120.746 Y33.087 E14.36669
G1 X120.893 Y34.500 E14.56846
G1 X120.893 Y80.500 E21.10403
G1 X120.496 Y82.806 E21.43645
G1 X119.350 Y84.846 E21.76886
G1 X117.588 Y86.385 E22.10128
G1 X115.413 Y87.246 E22.43370
G1 X114.000 Y87.393 E22.63548
G1 X26.000 Y87.393 E35.13830
G1 X23.694 Y86.996 E35.47071
G1 X21.654 Y85.850 E35.80313
G1 X20.115 Y84.088 E36.13555
G1 X19.254 Y81.913 E36.46797
G1 X19.107 Y80.500 E36.66975
G1 X19.107 Y34.500 E43.20531
G1 X19.504 Y32.194 E43.53773
G1 X20.650 Y30.154 E43.87014
G1 X22.355 Y28.664 E44.19191
G1 X24.308 Y30.511 F7800.000
M101 ; extruder on
G1 X24.336 Y30.483 E44.19754 F1800.000
G1 X115.664 Y30.483 E57.17318
G1 X118.017 Y32.836 E57.64600
M101 ; extruder on
G1 X118.017 Y82.164 E64.65439 F1800.000
G1 X115.664 Y84.517 E65.12721
G1 X24.336 Y84.517 E78.10285
G1 X21.983 Y82.164 E78.57567
G1 X21.983 Y32.836 E85.58406
G1 X24.255 Y30.564 E86.04058
G1 X24.706 Y31.376 F7800.000
M101 ; extruder on
G1 X115.294 Y31.376 E98.91115 F1800.000
M101 ; extruder on
G1 X117.124 Y33.206 E99.27890 F1800.000
G1 X117.124 Y81.794 E106.18222
G1 X115.294 Y83.624 E106.54997
G1 X24.706 Y83.624 E119.42053
G1 X22.876 Y81.794 E119.78828
G1 X22.876 Y33.206 E126.69160
G1 X24.653 Y31.429 E127.04869
G1 X25.076 Y32.268 F7800.000
M101 ; extruder on
G1 X114.924 Y32.268 E139.81419 F1800.000
G1 X116.232 Y33.576 E140.07686
M101 ; extruder on
G1 X116.232 Y81.424 E146.87511 F1800.000
G1 X114.924 Y82.732 E147.13779
G1 X25.076 Y82.732 E159.90328
G1 X23.768 Y81.424 E160.16596
G1 X23.768 Y33.576 E166.96420
G1 X25.023 Y32.321 E167.21623
G1 X25.445 Y33.161 F7800.000
M101 ; extruder on
G1 X114.555 Y33.161 E179.87665 F1800.000
M101 ; extruder on
G1 X115.339 Y33.945 E180.03426 F1800.000
G1 X115.339 Y81.055 E186.72743
G1 X114.555 Y81.839 E186.88503
G1 X25.445 Y81.839 E199.54546
G1 X24.661 Y81.055 E199.70307
G1 X24.661 Y33.945 E206.39624
G1 X25.392 Y33.214 E206.54319
G1 X25.815 Y34.054 F7800.000
M101 ; extruder on
G1 X114.185 Y34.054 E219.09854 F1800.000
G1 X114.446 Y34.315 E219.15108
M101 ; extruder on
G1 X114.446 Y80.685 E225.73918 F1800.000
G1 X114.185 Y80.946 E225.79171
G1 X25.815 Y80.946 E238.34707
G1 X25.554 Y80.685 E238.39960
G1 X25.554 Y34.315 E244.98770
G1 X25.762 Y34.107 E245.02958
G1 E243.02958 F2400.00000
M103 ; extruder off
G1 X26.500 Y80.000 F7800.000
M101 ; extruder on
G1 E245.02958 F2400.00000
G1 X26.500 Y35.000 E251.42307 F1800.000
G1 X113.500 Y35.000 E263.78381
G1 X113.500 Y80.000 E270.17729
G1 X26.575 Y80.000 E282.52738
G1 X26.750 Y79.567 F7800.000
G1 X27.393 Y79.107 F7800.000
M101 ; extruder on
G1 X27.393 Y77.754 E282.71963 F1800.000
G1 X28.298 Y78.449 E282.88169
G1 X28.847 Y78.676 E282.96619
G1 X28.761 Y79.107 E283.02864
G1 X27.468 Y79.107 E283.21245
G1 X28.590 Y77.547 F7800.000
M101 ; extruder on
G1 X28.229 Y77.271 E283.27700 F1800.000
G1 X27.831 Y76.752 E283.36989
G1 X27.581 Y76.148 E283.46278
G1 X27.496 Y75.500 E283.55566
G1 X27.581 Y74.852 E283.64854
G1 X27.831 Y74.248 E283.74143
G1 X28.229 Y73.729 E283.83432
G1 X28.748 Y73.331 E283.92720
G1 X29.352 Y73.081 E284.02009
M101 ; extruder on
G1 X29.971 Y72.999 E284.10881 F1800.000
G1 X30.645 Y73.080 E284.20528
G1 X31.252 Y73.331 E284.29862
G1 X31.771 Y73.729 E284.39150
G1 X32.169 Y74.248 E284.48439
G1 X32.419 Y74.852 E284.57728
G1 X32.504 Y75.500 E284.67016
G1 X32.419 Y76.148 E284.76304
G1 X32.169 Y76.752 E284.85593
G1 X31.771 Y77.271 E284.94882
G1 X31.252 Y77.669 E285.04170
G1 X30.648 Y77.919 E285.13459
G1 X30.000 Y78.004 E285.22747
G1 X29.352 Y77.919 E285.32034
G1 X28.748 Y77.669 E285.41323
G1 X28.649 Y77.593 E285.43091
G1 X28.170 Y77.721 F7800.000
G1 E283.43091 F2400.00000
M103 ; extruder off
G1 X30.000 Y72.491 F7800.000
G1 X35.059 Y37.830 F7800.000
G1 X29.935 Y35.998 F7800.000
G1 X28.218 Y36.225 F7800.000
G1 X27.840 Y36.340 F7800.000
G1 X27.542 Y36.942 F7800.000
G1 X27.487 Y37.076 F7800.000
G1 X27.393 Y37.246 F7800.000
M101 ; extruder on
G1 E285.43091 F2400.00000
G1 X27.393 Y35.893 E285.62315 F1800.000
G1 X28.761 Y35.893 E285.81761
G1 X28.847 Y36.324 E285.88007
G1 X28.298 Y36.551 E285.96457
G1 X27.452 Y37.200 E286.11598
G1 X28.160 Y37.820 F7800.000
M101 ; extruder on
G1 X28.227 Y37.731 E286.13175 F1800.000
G1 X28.748 Y37.331 E286.22507
G1 X29.352 Y37.081 E286.31796
M101 ; extruder on
G1 X29.971 Y36.999 E286.40669 F1800.000
G1 X30.645 Y37.080 E286.50315
G1 X31.252 Y37.331 E286.59649
G1 X31.771 Y37.729 E286.68937
G1 X32.169 Y38.248 E286.78226
G1 X32.419 Y38.852 E286.87515
G1 X32.504 Y39.500 E286.96803
G1 X32.419 Y40.148 E287.06091
G1 X32.169 Y40.752 E287.15380
G1 X31.771 Y41.271 E287.24669
G1 X31.252 Y41.669 E287.33957
G1 X30.648 Y41.919 E287.43246
G1 X30.000 Y42.004 E287.52534
G1 X29.352 Y41.919 E287.61822
G1 X28.748 Y41.669 E287.71110
G1 X28.229 Y41.271 E287.80398
G1 X27.831 Y40.752 E287.89687
G1 X27.581 Y40.148 E287.98976
G1 X27.496 Y39.500 E288.08264
G1 X27.581 Y38.852 E288.17552
G1 X27.820 Y38.275 E288.26426
G1 X28.115 Y37.880 E288.33431
G1 X28.117 Y37.718 F7800.000
G1 X31.153 Y36.324 F7800.000
M101 ; extruder on
G1 X31.239 Y35.893 E288.39677 F1800.000
G1 X108.761 Y35.893 E299.41101
G1 X108.847 Y36.324 E299.47346
G1 X108.298 Y36.551 E299.55796
G1 X107.593 Y37.092 E299.68424
G1 X107.051 Y37.798 E299.81052
G1 X106.711 Y38.619 E299.93681
G1 X106.595 Y39.500 E300.06308
G1 X106.711 Y40.381 E300.18936
G1 X107.051 Y41.202 E300.31564
G1 X107.593 Y41.908 E300.44193
G1 X108.298 Y42.449 E300.56821
G1 X109.119 Y42.789 E300.69448
G1 X110.000 Y42.905 E300.82076
G1 X110.881 Y42.789 E300.94704
G1 X111.702 Y42.449 E301.07332
G1 X112.607 Y41.754 E301.23538
G1 X112.607 Y73.246 E305.70963
G1 X111.702 Y72.551 E305.87169
G1 X110.881 Y72.211 E305.99797
G1 X110.000 Y72.095 E306.12425
G1 X109.119 Y72.211 E306.25053
G1 X108.298 Y72.551 E306.37681
G1 X107.592 Y73.092 E306.50309
G1 X107.051 Y73.798 E306.62936
G1 X106.711 Y74.619 E306.75565
G1 X106.595 Y75.500 E306.88193
G1 X106.711 Y76.381 E307.00821
G1 X107.051 Y77.202 E307.13449
G1 X107.592 Y77.908 E307.26077
G1 X108.298 Y78.449 E307.38705
G1 X108.847 Y78.676 E307.47155
G1 X108.761 Y79.107 E307.53400
G1 X31.239 Y79.107 E318.54824
G1 X31.153 Y78.676 E318.61069
G1 X31.702 Y78.449 E318.69520
G1 X32.407 Y77.908 E318.82147
G1 X32.949 Y77.202 E318.94775
G1 X33.289 Y76.381 E319.07405
G1 X33.405 Y75.500 E319.20032
G1 X33.289 Y74.619 E319.32659
G1 X32.949 Y73.798 E319.45289
G1 X32.407 Y73.092 E319.57917
G1 X31.702 Y72.551 E319.70544
G1 X30.873 Y72.208 E319.83297
G1 X29.965 Y72.100 E319.96284
G1 X29.119 Y72.211 E320.08416
G1 X28.298 Y72.551 E320.21044
G1 X27.393 Y73.246 E320.37251
G1 X27.393 Y41.754 E324.84676
G1 X28.298 Y42.449 E325.00882
G1 X29.119 Y42.789 E325.13511
G1 X30.000 Y42.905 E325.26138
G1 X30.881 Y42.789 E325.38765
G1 X31.702 Y42.449 E325.51393
G1 X32.407 Y41.908 E325.64021
G1 X32.949 Y41.202 E325.76649
G1 X33.289 Y40.381 E325.89279
G1 X33.405 Y39.500 E326.01906
G1 X33.289 Y38.619 E326.14533
G1 X32.949 Y37.798 E326.27163
G1 X32.407 Y37.092 E326.39791
G1 X31.702 Y36.551 E326.52419
G1 X31.222 Y36.353 E326.59803
G1 X33.297 Y36.785 F7800.000
M101 ; extruder on
G1 X106.703 Y36.785 E337.02735 F1800.000
G1 X106.272 Y37.347 E337.12799
G1 X105.842 Y38.386 E337.28768
G1 X105.695 Y39.500 E337.44735
G1 X105.842 Y40.614 E337.60702
G1 X106.272 Y41.653 E337.76670
G1 X106.956 Y42.544 E337.92638
G1 X107.847 Y43.228 E338.08606
G1 X108.886 Y43.658 E338.24573
G1 X110.000 Y43.805 E338.40540
G1 X111.114 Y43.658 E338.56508
G1 X111.715 Y43.410 E338.65740
G1 X111.715 Y71.590 E342.66122
G1 X111.114 Y71.342 E342.75354
G1 X110.000 Y71.195 E342.91322
G1 X108.886 Y71.342 E343.07289
G1 X107.847 Y71.772 E343.23257
G1 X106.956 Y72.456 E343.39224
G1 X106.272 Y73.347 E343.55191
G1 X105.842 Y74.386 E343.71160
G1 X105.695 Y75.500 E343.87127
G1 X105.842 Y76.614 E344.03094
G1 X106.272 Y77.653 E344.19062
G1 X106.703 Y78.215 E344.29127
G1 X33.297 Y78.215 E354.72059
G1 X33.728 Y77.653 E354.82123
G1 X34.159 Y76.614 E354.98094
G1 X34.305 Y75.500 E355.14060
G1 X34.159 Y74.386 E355.30026
G1 X33.728 Y73.347 E355.45996
G1 X33.044 Y72.456 E355.61964
G1 X32.153 Y71.772 E355.77931
G1 X31.101 Y71.336 E355.94103
G1 X29.960 Y71.200 E356.10429
G1 X28.886 Y71.342 E356.25821
G1 X28.285 Y71.590 E356.35054
G1 X28.285 Y43.410 E360.35435
G1 X28.886 Y43.658 E360.44669
G1 X30.000 Y43.805 E360.60635
G1 X31.114 Y43.658 E360.76602
G1 X32.153 Y43.228 E360.92570
G1 X33.044 Y42.544 E361.08536
G1 X33.728 Y41.653 E361.24505
G1 X34.159 Y40.614 E361.40475
G1 X34.305 Y39.500 E361.56441
G1 X34.159 Y38.386 E361.72407
G1 X33.728 Y37.347 E361.88377
G1 X33.343 Y36.845 E361.97376
G1 X107.496 Y39.500 F7800.000
M101 ; extruder on
G1 X107.581 Y38.852 E362.06664 F1800.000
G1 X107.785 Y38.359 E362.14245
G1 X107.831 Y38.248 E362.15953
G1 X108.229 Y37.729 E362.25242
G1 X108.748 Y37.331 E362.34530
G1 X109.352 Y37.081 E362.43818
G1 X109.881 Y37.011 E362.51399
M101 ; extruder on
G1 X110.000 Y36.996 E362.53107 F1800.000
G1 X110.648 Y37.081 E362.62395
G1 X111.252 Y37.331 E362.71683
G1 X111.771 Y37.729 E362.80972
G1 X112.169 Y38.248 E362.90260
G1 X112.419 Y38.852 E362.99549
G1 X112.504 Y39.500 E363.08837
G1 X112.419 Y40.148 E363.18126
G1 X112.169 Y40.752 E363.27414
G1 X111.771 Y41.271 E363.36703
G1 X111.252 Y41.669 E363.45991
G1 X110.648 Y41.919 E363.55279
G1 X110.000 Y42.004 E363.64568
G1 X109.352 Y41.919 E363.73856
G1 X108.748 Y41.669 E363.83144
G1 X108.229 Y41.271 E363.92433
G1 X107.831 Y40.752 E364.01721
G1 X107.581 Y40.148 E364.11010
G1 X107.505 Y39.574 E364.19233
G1 X107.074 Y39.231 F7800.000
G1 X108.496 Y36.894 F7800.000
G1 X109.749 Y36.010 F7800.000
G1 X110.065 Y35.998 F7800.000
G1 X110.850 Y36.049 F7800.000
G1 X110.996 Y36.069 F7800.000
G1 X111.153 Y36.324 F7800.000
M101 ; extruder on
G1 X111.239 Y35.893 E364.25478 F1800.000
G1 X112.607 Y35.893 E364.44924
G1 X112.607 Y37.246 E364.64148
G1 X111.702 Y36.551 E364.80354
G1 X111.222 Y36.353 E364.87739
G1 X109.749 Y36.010 F7800.000
G1 X104.269 Y38.349 F7800.000
G1 X103.483 Y75.962 F7800.000
G1 X109.150 Y78.951 F7800.000
G1 X111.782 Y78.775 F7800.000
G1 X112.160 Y78.660 F7800.000
G1 X112.458 Y78.058 F7800.000
G1 X112.513 Y77.924 F7800.000
G1 X112.607 Y77.754 F7800.000
M101 ; extruder on
G1 X112.607 Y79.107 E365.06963 F1800.000
G1 X111.239 Y79.107 E365.26409
G1 X111.153 Y78.676 E365.32654
G1 X111.702 Y78.449 E365.41105
G1 X112.548 Y77.800 E365.56245
G1 X111.847 Y77.171 F7800.000
M101 ; extruder on
G1 X111.771 Y77.271 E365.58031 F1800.000
G1 X111.252 Y77.669 E365.67320
G1 X110.648 Y77.919 E365.76608
G1 X110.000 Y78.004 E365.85897
G1 X109.352 Y77.919 E365.95185
G1 X108.748 Y77.669 E366.04473
G1 X108.229 Y77.271 E366.13762
G1 X107.831 Y76.752 E366.23050
G1 X107.581 Y76.148 E366.32339
G1 X107.496 Y75.500 E366.41627
G1 X107.581 Y74.852 E366.50916
G1 X107.831 Y74.248 E366.60204
G1 X108.229 Y73.729 E366.69493
G1 X108.748 Y73.331 E366.78781
G1 X109.352 Y73.081 E366.88069
G1 X109.881 Y73.011 E366.95650
M101 ; extruder on
G1 X110.000 Y72.996 E366.97358 F1800.000
G1 X110.648 Y73.081 E367.06646
G1 X111.252 Y73.331 E367.15935
G1 X111.771 Y73.729 E367.25223
G1 X112.169 Y74.248 E367.34512
G1 X112.419 Y74.852 E367.43800
G1 X112.504 Y75.500 E367.53088
G1 X112.419 Y76.148 E367.62377
G1 X112.169 Y76.752 E367.71665
G1 X111.893 Y77.112 E367.78102
G1 X111.895 Y77.287 F7800.000
G1 E365.78102 F2400.00000
M103 ; extruder off
G1 X110.000 Y72.491 F7800.000
G1 X93.818 Y60.318 F7800.000
G1 X101.488 Y51.239 F7800.000
G1 X106.879 Y48.061 F7800.000
G1 X108.654 Y46.715 F7800.000
G1 X109.550 Y45.930 F7800.000
G1 X111.165 Y48.428 F7800.000
M101 ; extruder on
G1 E367.78102 F2400.00000
G1 X100.072 Y37.335 E370.02645 F1800.000
G1 X98.800 Y37.335 E370.20849
G1 X111.165 Y49.700 E372.71136
G1 X111.165 Y50.971 E372.89339
G1 X97.529 Y37.335 E375.65371
G1 X96.257 Y37.335 E375.83575
G1 X111.165 Y52.243 E378.85350
G1 X111.165 Y53.515 E379.03554
G1 X94.985 Y37.335 E382.31074
G1 X93.713 Y37.335 E382.49278
G1 X111.165 Y54.787 E386.02541
G1 X111.165 Y56.059 E386.20745
G1 X92.441 Y37.335 E389.99753
G1 X91.169 Y37.335 E390.17957
G1 X111.165 Y57.331 E394.22710
G1 X111.165 Y58.602 E394.40914
G1 X89.898 Y37.335 E398.71410
G1 X88.626 Y37.335 E398.89614
G1 X111.165 Y59.874 E403.45855
G1 X111.165 Y61.146 E403.64059
G1 X87.354 Y37.335 E408.46043
G1 X86.082 Y37.335 E408.64247
G1 X111.165 Y62.418 E413.71976
G1 X111.165 Y63.690 E413.90180
G1 X84.810 Y37.335 E419.23654
G1 X83.538 Y37.335 E419.41858
G1 X111.165 Y64.962 E425.01075
G1 X111.165 Y66.233 E425.19279
G1 X82.267 Y37.335 E431.04241
G1 X80.995 Y37.335 E431.22445
G1 X111.165 Y67.505 E437.33151
G1 X111.165 Y68.777 E437.51355
G1 X79.723 Y37.335 E443.87805
G1 X78.451 Y37.335 E444.06009
G1 X111.165 Y70.049 E450.68203
G1 X110.528 Y70.684 E450.81075
G1 X77.179 Y37.335 E457.56118
G1 X75.907 Y37.335 E457.74322
G1 X109.325 Y70.753 E464.50764
G1 X108.338 Y71.037 E464.65476
G1 X74.636 Y37.335 E471.47666
G1 X73.364 Y37.335 E471.65870
G1 X107.483 Y71.454 E478.56515
G1 X106.764 Y72.007 E478.69498
G1 X72.092 Y37.335 E485.71320
G1 X70.820 Y37.335 E485.89524
G1 X106.178 Y72.692 E493.05228
G1 X105.687 Y73.474 E493.18433
G1 X69.548 Y37.335 E500.49957
G1 X68.276 Y37.335 E500.68161
G1 X105.315 Y74.373 E508.17888
G1 X105.165 Y75.495 E508.34085
G1 X67.005 Y37.335 E516.06516
G1 X65.733 Y37.335 E516.24720
G1 X105.299 Y76.901 E524.25605
G1 X104.791 Y77.665 E524.38738
G1 X64.461 Y37.335 E532.55099
G1 X63.189 Y37.335 E532.73303
G1 X103.519 Y77.665 E540.89664
G1 X102.248 Y77.665 E541.07868
G1 X61.917 Y37.335 E549.24229
G1 X60.645 Y37.335 E549.42433
G1 X100.976 Y77.665 E557.58794
G1 X99.704 Y77.665 E557.76998
G1 X59.374 Y37.335 E565.93359
G1 X58.102 Y37.335 E566.11563
G1 X98.432 Y77.665 E574.27924
G1 X97.160 Y77.665 E574.46128
G1 X56.830 Y37.335 E582.62489
G1 X55.558 Y37.335 E582.80693
G1 X95.888 Y77.665 E590.97054
G1 X94.617 Y77.665 E591.15258
G1 X54.286 Y37.335 E599.31619
G1 X53.014 Y37.335 E599.49823
G1 X93.345 Y77.665 E607.66184
G1 X92.073 Y77.665 E607.84388
G1 X51.743 Y37.335 E616.00749
G1 X50.471 Y37.335 E616.18953
G1 X90.801 Y77.665 E624.35314
G1 X89.529 Y77.665 E624.53518
G1 X49.199 Y37.335 E632.69879
G1 X47.927 Y37.335 E632.88083
G1 X88.257 Y77.665 E641.04444
G1 X86.986 Y77.665 E641.22648
G1 X46.655 Y37.335 E649.39009
G1 X45.383 Y37.335 E649.57213
G1 X85.714 Y77.665 E657.73574
G1 X84.442 Y77.665 E657.91778
G1 X44.112 Y37.335 E666.08139
G1 X42.840 Y37.335 E666.26343
G1 X83.170 Y77.665 E674.42704
G1 X81.898 Y77.665 E674.60907
G1 X41.568 Y37.335 E682.77269
G1 X40.296 Y37.335 E682.95472
G1 X80.626 Y77.665 E691.11834
G1 X79.355 Y77.665 E691.30037
G1 X39.024 Y37.335 E699.46398
G1 X37.752 Y37.335 E699.64602
G1 X78.083 Y77.665 E707.80963
G1 X76.811 Y77.665 E707.99167
G1 X36.481 Y37.335 E716.15528
G1 X35.209 Y37.335 E716.33732
G1 X75.539 Y77.665 E724.50093
G1 X74.267 Y77.665 E724.68297
G1 X34.702 Y38.099 E732.69182
G1 X34.835 Y39.505 E732.89391
G1 X72.995 Y77.665 E740.61824
G1 X71.724 Y77.665 E740.80028
G1 X34.685 Y40.627 E748.29755
G1 X34.313 Y41.526 E748.43688
G1 X70.452 Y77.665 E755.75211
G1 X69.180 Y77.665 E755.93415
G1 X33.822 Y42.308 E763.09119
G1 X33.236 Y42.993 E763.22030
G1 X67.908 Y77.665 E770.23853
G1 X66.636 Y77.665 E770.42057
G1 X32.517 Y43.545 E777.32702
G1 X31.662 Y43.963 E777.46311
G1 X65.364 Y77.665 E784.28502
G1 X64.093 Y77.665 E784.46706
G1 X30.675 Y44.247 E791.23149
G1 X29.472 Y44.316 E791.40391
G1 X62.821 Y77.665 E798.15434
G1 X61.549 Y77.665 E798.33638
G1 X28.835 Y44.951 E804.95833
G1 X28.835 Y46.223 E805.14037
G1 X60.277 Y77.665 E811.50488
