; generated by Slic3r 1.2.9 on 2017-09-18 at 17:29:55

; external perimeters extrusion width = 0.50mm
; perimeters extrusion width = 0.58mm
; infill extrusion width = 0.58mm
; solid infill extrusion width = 0.58mm
; top infill extrusion width = 0.58mm

M127
M109 S220 ; set bed temperature
M104 S220 T0 ; set temperature
G28 ; home all axes
G1 Z5 F5000 ; lift nozzle

M73 P0
G1 Z0.500 F7800.000
G1 E-2.00000 F2400.00000
M103 ; extruder off
G1 X22.412 Y28.615 F7800.000
M101 ; extruder on
G1 E0.00000 F2400.00000
G1 X24.587 Y27.754 E0.33242 F1800.000
G1 X26.000 Y27.607 E0.53420
G1 X114.000 Y27.607 E13.03701
G1 X116.306 Y28.004 E13.36943
M101 ; extruder on
G1 X118.346 Y29.150 E13.70185 F1800.000
G1 X119.885 Y30.912 E14.03427
G1 X120.746 Y33.087 E14.36669
G1 X120.893 Y34.500 E14.56846
G1 X120.893 Y80.500 E21.10403
G1 X120.496 Y82.806 E21.43645
G1 X119.350 Y84.846 E21.76886
G1 X117.588 Y86.385 E22.10128
G1 X115.413 Y87.246 E22.43370
G1 X114.000 Y87.393 E22.63548
G1 X26.000 Y87.393 E35.13830
G1 X23.694 Y86.996 E35.47071
G1 X21.654 Y85.850 E35.80313
G1 X20.115 Y84.088 E36.13555
G1 X19.254 Y81.913 E36.46797
G1 X19.107 Y80.500 E36.66975
G1 X19.107 Y34.500 E43.20531
G1 X19.504 Y32.194 E43.53773
G1 X20.650 Y30.154 E43.87014
G1 X22.355 Y28.664 E44.19191
G1 E42.19191 F2400.00000
M103 ; extruder off
G1 X107.581 Y74.852 F7800.000
M101 ; extruder on
G1 E44.19191 F2400.00000
G1 X107.820 Y74.275 E44.28064 F1800.000
G1 X108.227 Y73.731 E44.37712
G1 X108.748 Y73.331 E44.47045
G1 X109.352 Y73.081 E44.56334
M101 ; extruder on
G1 X109.971 Y72.999 E44.65206 F1800.000
G1 X110.645 Y73.080 E44.74853
G1 X111.252 Y73.331 E44.84186
G1 X111.771 Y73.729 E44.93474
G1 X112.169 Y74.248 E45.02763
G1 X112.419 Y74.852 E45.12053
G1 X112.504 Y75.500 E45.21341
G1 X112.419 Y76.148 E45.30628
G1 X112.180 Y76.725 E45.39502
G1 X111.773 Y77.269 E45.49150
G1 X111.252 Y77.669 E45.58483
G1 X110.648 Y77.919 E45.67772
G1 X110.000 Y78.004 E45.77059
G1 X109.352 Y77.919 E45.86347
G1 X108.748 Y77.669 E45.95636
G1 X108.229 Y77.271 E46.04924
G1 X107.831 Y76.752 E46.14213
G1 X107.581 Y76.148 E46.23502
G1 X107.496 Y75.500 E46.32790
G1 X107.571 Y74.926 E46.41013
G1 X107.243 Y74.483 F7800.000
G1 X108.496 Y78.106 F7800.000
G1 X109.150 Y78.951 F7800.000
G1 X110.065 Y79.002 F7800.000
G1 X110.850 Y78.951 F7800.000
G1 X110.996 Y78.931 F7800.000
G1 X111.153 Y78.676 F7800.000
M101 ; extruder on
G1 X111.702 Y78.449 E46.49463 F1800.000
G1 X112.607 Y77.754 E46.65669
G1 X112.607 Y79.107 E46.84894
G1 X111.239 Y79.107 E47.04340
G1 X111.167 Y78.750 E47.09520
G1 X109.004 Y78.931 F7800.000
G1 X99.942 Y71.759 F7800.000
G1 X105.569 Y37.410 F7800.000
G1 X109.777 Y36.008 F7800.000
G1 X111.782 Y36.225 F7800.000
G1 X112.160 Y36.340 F7800.000
G1 X112.458 Y36.942 F7800.000
G1 X112.513 Y37.076 F7800.000
G1 X112.607 Y37.246 F7800.000
M101 ; extruder on
G1 X111.702 Y36.551 E47.25726 F1800.000
G1 X111.153 Y36.324 E47.34176
G1 X111.239 Y35.893 E47.40422
G1 X112.607 Y35.893 E47.59868
G1 X112.607 Y37.171 E47.78027
G1 X111.847 Y37.829 F7800.000
M101 ; extruder on
G1 X112.169 Y38.248 E47.85528 F1800.000
G1 X112.419 Y38.852 E47.94817
G1 X112.504 Y39.500 E48.04105
G1 X112.419 Y40.148 E48.13393
G1 X112.180 Y40.725 E48.22267
G1 X111.773 Y41.269 E48.31915
G1 X111.252 Y41.669 E48.41247
G1 X110.648 Y41.919 E48.50536
G1 X110.000 Y42.004 E48.59824
G1 X109.352 Y41.919 E48.69112
G1 X108.748 Y41.669 E48.78401
G1 X108.229 Y41.271 E48.87689
G1 X107.831 Y40.752 E48.96978
G1 X107.581 Y40.148 E49.06267
G1 X107.496 Y39.500 E49.15555
G1 X107.581 Y38.852 E49.24843
G1 X107.820 Y38.275 E49.33716
G1 X108.227 Y37.731 E49.43364
G1 X108.748 Y37.331 E49.52697
G1 X109.352 Y37.081 E49.61986
M101 ; extruder on
G1 X109.971 Y36.999 E49.70858 F1800.000
G1 X110.645 Y37.080 E49.80505
G1 X111.252 Y37.331 E49.89838
G1 X111.802 Y37.770 E49.99826
G1 X112.337 Y37.728 F7800.000
G1 X106.704 Y36.785 F7800.000
M101 ; extruder on
G1 X106.256 Y37.385 E50.10460 F1800.000
G1 X105.841 Y38.386 E50.25856
G1 X105.695 Y39.500 E50.41822
G1 X105.841 Y40.614 E50.57787
G1 X106.272 Y41.653 E50.73758
G1 X106.956 Y42.544 E50.89726
G1 X107.847 Y43.228 E51.05693
G1 X108.886 Y43.658 E51.21660
G1 X110.000 Y43.805 E51.37627
G1 X111.114 Y43.658 E51.53594
G1 X111.715 Y43.410 E51.62827
G1 X111.715 Y71.590 E55.63209
G1 X111.101 Y71.336 E55.72646
G1 X109.960 Y71.200 E55.88972
G1 X108.886 Y71.342 E56.04364
G1 X107.847 Y71.772 E56.20332
G1 X106.945 Y72.464 E56.36502
G1 X106.256 Y73.385 E56.52830
G1 X105.841 Y74.386 E56.68226
G1 X105.695 Y75.500 E56.84191
G1 X105.841 Y76.614 E57.00157
G1 X106.272 Y77.653 E57.16128
G1 X106.703 Y78.215 E57.26192
G1 X34.569 Y78.215 E67.51057
G1 X35.124 Y76.873 E67.71688
G1 X35.305 Y75.500 E67.91364
G1 X35.124 Y74.127 E68.11041
G1 X34.594 Y72.847 E68.30718
G1 X33.751 Y71.749 E68.50394
G1 X32.653 Y70.906 E68.70071
G1 X31.373 Y70.376 E68.89747
G1 X30.000 Y70.195 E69.09423
G1 X28.627 Y70.376 E69.29100
G1 X28.285 Y70.517 E69.34352
G1 X28.285 Y44.483 E73.04240
G1 X28.627 Y44.624 E73.09492
G1 X30.000 Y44.805 E73.29169
G1 X31.373 Y44.624 E73.48845
G1 X32.653 Y44.094 E73.68522
G1 X33.751 Y43.251 E73.88198
G1 X34.594 Y42.153 E74.07875
G1 X34.980 Y41.221 E74.22207
G1 X35.124 Y40.873 E74.27552
G1 X35.305 Y39.500 E74.47228
G1 X35.124 Y38.127 E74.66904
G1 X34.569 Y36.785 E74.87535
G1 X106.629 Y36.785 E85.11357
G1 X108.847 Y36.324 F7800.000
M101 ; extruder on
G1 X108.298 Y36.551 E85.19807 F1800.000
G1 X107.586 Y37.098 E85.32558
G1 X107.038 Y37.830 E85.45546
G1 X106.711 Y38.619 E85.57681
G1 X106.595 Y39.500 E85.70308
G1 X106.711 Y40.381 E85.82935
G1 X107.051 Y41.202 E85.95564
G1 X107.593 Y41.908 E86.08193
G1 X108.298 Y42.449 E86.20820
G1 X109.119 Y42.789 E86.33449
G1 X110.000 Y42.905 E86.46076
G1 X110.881 Y42.789 E86.58703
G1 X111.702 Y42.449 E86.71331
G1 X112.607 Y41.754 E86.87538
G1 X112.607 Y73.246 E91.34963
G1 X111.702 Y72.551 E91.51170
G1 X110.873 Y72.208 E91.63922
G1 X109.965 Y72.100 E91.76909
G1 X109.119 Y72.211 E91.89041
G1 X108.298 Y72.551 E92.01669
G1 X107.586 Y73.098 E92.14421
G1 X107.038 Y73.830 E92.27409
G1 X106.711 Y74.619 E92.39543
G1 X106.595 Y75.500 E92.52170
G1 X106.711 Y76.381 E92.64797
G1 X107.051 Y77.202 E92.77427
G1 X107.593 Y77.908 E92.90056
G1 X108.298 Y78.449 E93.02683
G1 X108.847 Y78.676 E93.11133
G1 X108.761 Y79.107 E93.17378
G1 X33.070 Y79.107 E103.92789
G1 X32.946 Y78.744 E103.98242
G1 X33.115 Y78.615 E104.01259
G1 X33.815 Y77.702 E104.17595
G1 X34.255 Y76.640 E104.33933
G1 X34.405 Y75.500 E104.50269
G1 X34.255 Y74.360 E104.66606
G1 X33.815 Y73.298 E104.82943
G1 X33.115 Y72.385 E104.99280
G1 X32.202 Y71.685 E105.15617
G1 X31.140 Y71.245 E105.31954
G1 X30.000 Y71.095 E105.48291
G1 X28.860 Y71.245 E105.64628
G1 X27.798 Y71.685 E105.80965
G1 X27.393 Y71.996 E105.88217
G1 X27.393 Y43.004 E110.00131
G1 X27.798 Y43.315 E110.07383
G1 X28.860 Y43.755 E110.23720
G1 X30.000 Y43.905 E110.40057
G1 X31.140 Y43.755 E110.56394
G1 X32.202 Y43.315 E110.72731
G1 X33.115 Y42.615 E110.89068
G1 X33.815 Y41.702 E111.05405
G1 X34.156 Y40.879 E111.18067
G1 X34.255 Y40.640 E111.21742
G1 X34.405 Y39.500 E111.38079
G1 X34.255 Y38.360 E111.54416
G1 X33.815 Y37.298 E111.70753
G1 X33.115 Y36.385 E111.87090
G1 X32.946 Y36.256 E111.90106
G1 X33.070 Y35.893 E111.95559
G1 X108.761 Y35.893 E122.70970
G1 X108.833 Y36.250 E122.76150
G1 X113.500 Y35.000 F7800.000
M101 ; extruder on
G1 X113.500 Y80.000 E129.15498 F1800.000
G1 X26.500 Y80.000 E141.51572
G1 X26.500 Y77.243 E141.90744
G1 X26.863 Y77.120 E141.96197
G1 X27.522 Y77.978 E142.11568
G1 X28.248 Y78.535 E142.24566
G1 X29.093 Y78.885 E142.37563
G1 X30.000 Y79.004 E142.50560
G1 X30.907 Y78.885 E142.63558
G1 X31.752 Y78.535 E142.76555
G1 X32.478 Y77.978 E142.89553
G1 X33.035 Y77.252 E143.02550
G1 X33.385 Y76.407 E143.15547
G1 X33.504 Y75.500 E143.28545
G1 X33.385 Y74.593 E143.41542
G1 X33.035 Y73.748 E143.54539
G1 X32.478 Y73.022 E143.67537
G1 X31.752 Y72.465 E143.80534
G1 X30.907 Y72.115 E143.93532
G1 X30.000 Y71.996 E144.06529
G1 X29.093 Y72.115 E144.19526
G1 X28.248 Y72.465 E144.32524
G1 X27.522 Y73.022 E144.45521
G1 X26.863 Y73.880 E144.60893
G1 X26.500 Y73.757 E144.66346
G1 X26.500 Y41.243 E149.28297
G1 X26.863 Y41.120 E149.33751
G1 X27.522 Y41.978 E149.49122
G1 X28.248 Y42.535 E149.62120
G1 X29.093 Y42.885 E149.75117
G1 X30.000 Y43.004 E149.88114
G1 X30.907 Y42.885 E150.01112
G1 X31.752 Y42.535 E150.14109
G1 X32.478 Y41.978 E150.27106
G1 X33.035 Y41.252 E150.40104
G1 X33.385 Y40.407 E150.53101
G1 X33.504 Y39.500 E150.66099
G1 X33.385 Y38.593 E150.79096
G1 X33.035 Y37.748 E150.92093
G1 X32.478 Y37.022 E151.05091
G1 X31.752 Y36.465 E151.18088
G1 X30.907 Y36.115 E151.31086
G1 X30.000 Y35.996 E151.44083
G1 X29.093 Y36.115 E151.57080
G1 X28.248 Y36.465 E151.70078
G1 X27.522 Y37.022 E151.83075
G1 X26.863 Y37.880 E151.98447
G1 X26.500 Y37.757 E152.03900
G1 X26.500 Y35.000 E152.43071
G1 X113.425 Y35.000 E164.78079
G1 X113.250 Y35.433 F7800.000
G1 X30.065 Y35.500 F7800.000
G1 X31.046 Y35.564 F7800.000
G1 X35.852 Y37.643 F7800.000
G1 X39.791 Y53.119 F7800.000
G1 X28.736 Y45.093 F7800.000
G1 X27.619 Y43.463 F7800.000
G1 X27.092 Y42.391 F7800.000
G1 X27.000 Y42.119 F7800.000
G1 X26.576 Y76.689 F7800.000
M101 ; extruder on
G1 X26.502 Y75.566 E164.94078 F1800.000
G1 X26.576 Y74.311 E165.11936
G1 X26.576 Y40.689 F7800.000
M101 ; extruder on
G1 X26.502 Y39.566 E165.27935 F1800.000
G1 X26.576 Y38.311 E165.45793
G1 X26.946 Y35.962 F7800.000
M101 ; extruder on
G1 X28.930 Y35.568 E165.74528 F1800.000
G1 X29.994 Y35.496 E165.89673
G1 X31.070 Y35.568 E166.05001
G1 X32.605 Y35.873 E166.27234
G1 X48.599 Y57.099 F7800.000
G1 X37.517 Y75.962 F7800.000
G1 X34.805 Y78.057 F7800.000
G1 X33.409 Y78.776 F7800.000
G1 X33.230 Y78.850 F7800.000
G1 X32.184 Y79.205 F7800.000
G1 X32.605 Y79.127 F7800.000
M101 ; extruder on
G1 X31.070 Y79.432 E166.49467 F1800.000
G1 X29.993 Y79.504 E166.64796
G1 X28.930 Y79.432 E166.79941
G1 X26.946 Y79.038 E167.08675
G1 E165.08675 F2400.00000
M103 ; extruder off
G1 X27.000 Y78.119 F7800.000
G1 X35.645 Y77.496 F7800.000
G1 X35.500 Y77.251 F7800.000
M101 ; extruder on
G1 E167.08675 F2400.00000
G1 X35.914 Y77.665 E167.17072 F1800.000
G1 X37.188 Y77.665 E167.35342
G1 X35.741 Y76.219 E167.64673
G1 X35.824 Y75.027 E167.81805
G1 X38.462 Y77.665 E168.35308
G1 X39.736 Y77.665 E168.53578
G1 X35.541 Y73.470 E169.38647
G1 X29.281 Y69.759 F7800.000
M101 ; extruder on
G1 X28.835 Y69.312 E169.47699 F1800.000
G1 X28.835 Y68.038 E169.65970
G1 X30.473 Y69.676 E169.99193
G1 X32.030 Y69.959 E170.21879
G1 X28.835 Y66.764 E170.86670
G1 X28.835 Y65.490 E171.04940
G1 X41.010 Y77.665 E173.51840
G1 X42.284 Y77.665 E173.70110
G1 X28.835 Y64.216 E176.42847
G1 X28.835 Y62.942 E176.61118
G1 X43.558 Y77.665 E179.59693
G1 X44.833 Y77.665 E179.77963
G1 X28.835 Y61.667 E183.02376
G1 X28.835 Y60.393 E183.20646
G1 X46.107 Y77.665 E186.70897
G1 X47.381 Y77.665 E186.89167
G1 X28.835 Y59.119 E190.65256
G1 X28.835 Y57.845 E190.83526
G1 X48.655 Y77.665 E194.85453
G1 X49.929 Y77.665 E195.03723
G1 X28.835 Y56.571 E199.31488
G1 X28.835 Y55.297 E199.49758
G1 X51.203 Y77.665 E204.03360
G1 X52.477 Y77.665 E204.21630
G1 X28.835 Y54.023 E209.01070
G1 X28.835 Y52.748 E209.19340
G1 X53.752 Y77.665 E214.24618
G1 X55.026 Y77.665 E214.42888
G1 X28.835 Y51.474 E219.74004
G1 X28.835 Y50.200 E219.92274
G1 X56.300 Y77.665 E225.49228
G1 X57.574 Y77.665 E225.67498
G1 X28.835 Y48.926 E231.50289
G1 X28.835 Y47.652 E231.68560
G1 X58.848 Y77.665 E237.77189
G1 X60.122 Y77.665 E237.95459
G1 X28.835 Y46.378 E244.29926
G1 X28.983 Y45.252 E244.46207
G1 X61.396 Y77.665 E251.03502
G1 X62.671 Y77.665 E251.21773
G1 X30.302 Y45.296 E257.78170
G1 X31.417 Y45.138 E257.94328
G1 X63.945 Y77.665 E264.53938
G1 X65.219 Y77.665 E264.72208
G1 X32.318 Y44.765 E271.39385
G1 X33.143 Y44.315 E271.52851
G1 X66.493 Y77.665 E278.29150
G1 X67.767 Y77.665 E278.47420
G1 X33.864 Y43.762 E285.34937
G1 X34.469 Y43.093 E285.47871
G1 X69.041 Y77.665 E292.48946
G1 X70.315 Y77.665 E292.67216
G1 X35.022 Y42.372 E299.82909
G1 X35.405 Y41.480 E299.96823
G1 X71.590 Y77.665 E307.30603
G1 X72.864 Y77.665 E307.48873
G1 X35.704 Y40.505 E315.02428
G1 X35.852 Y39.379 E315.18712
G1 X74.138 Y77.665 E322.95099
G1 X75.412 Y77.665 E323.13369
G1 X35.679 Y37.933 E331.19089
G1 X36.356 Y37.335 E331.32032
G1 X76.686 Y77.665 E339.49876
G1 X77.960 Y77.665 E339.68146
G1 X37.630 Y37.335 E347.85990
G1 X38.904 Y37.335 E348.04261
G1 X79.234 Y77.665 E356.22105
G1 X80.509 Y77.665 E356.40375
G1 X40.178 Y37.335 E364.58219
G1 X41.452 Y37.335 E364.76489
G1 X81.783 Y77.665 E372.94333
G1 X83.057 Y77.665 E373.12603
G1 X42.726 Y37.335 E381.30447
G1 X44.001 Y37.335 E381.48717
G1 X84.331 Y77.665 E389.66561
G1 X85.605 Y77.665 E389.84831
G1 X45.275 Y37.335 E398.02675
G1 X46.549 Y37.335 E398.20945
G1 X86.879 Y77.665 E406.38789
G1 X88.153 Y77.665 E406.57059
G1 X47.823 Y37.335 E414.74903
G1 X49.097 Y37.335 E414.93173
G1 X89.428 Y77.665 E423.11017
G1 X90.702 Y77.665 E423.29287
G1 X50.371 Y37.335 E431.47131
G1 X51.645 Y37.335 E431.65401
G1 X91.976 Y77.665 E439.83245
G1 X93.250 Y77.665 E440.01515
G1 X52.920 Y37.335 E448.19359
G1 X54.194 Y37.335 E448.37630
G1 X94.524 Y77.665 E456.55474
G1 X95.798 Y77.665 E456.73744
G1 X55.468 Y37.335 E464.91588
G1 X56.742 Y37.335 E465.09858
G1 X97.072 Y77.665 E473.27702
G1 X98.347 Y77.665 E473.45972
G1 X58.016 Y37.335 E481.63816
G1 X59.290 Y37.335 E481.82086
G1 X99.621 Y77.665 E489.99930
G1 X100.895 Y77.665 E490.18200
G1 X60.564 Y37.335 E498.36044
G1 X61.839 Y37.335 E498.54314
G1 X102.169 Y77.665 E506.72158
G1 X103.443 Y77.665 E506.90428
G1 X63.113 Y37.335 E515.08272
G1 X64.387 Y37.335 E515.26542
G1 X104.717 Y77.665 E523.44386
G1 X105.309 Y76.983 E523.57337
G1 X65.661 Y37.335 E531.61349
G1 X66.935 Y37.335 E531.79619
G1 X105.157 Y75.556 E539.54697
G1 X105.305 Y74.430 E539.70982
G1 X68.209 Y37.335 E547.23226
G1 X69.483 Y37.335 E547.41496
G1 X105.668 Y73.520 E554.75276
G1 X106.154 Y72.731 E554.88557
G1 X70.758 Y37.335 E562.06340
G1 X72.032 Y37.335 E562.24610
G1 X106.730 Y72.033 E569.28236
G1 X107.451 Y71.480 E569.41267
G1 X73.306 Y37.335 E576.33675
G1 X74.580 Y37.335 E576.51945
G1 X108.298 Y71.053 E583.35705
G1 X109.278 Y70.759 E583.50377
G1 X75.854 Y37.335 E590.28174
G1 X77.128 Y37.335 E590.46444
G1 X110.478 Y70.685 E597.22734
G1 X111.165 Y70.098 E597.35692
G1 X78.402 Y37.335 E604.00075
G1 X79.677 Y37.335 E604.18345
G1 X111.165 Y68.823 E610.56889
G1 X111.165 Y67.549 E610.75159
G1 X80.951 Y37.335 E616.87866
G1 X82.225 Y37.335 E617.06136
G1 X111.165 Y66.275 E622.93005
G1 X111.165 Y65.001 E623.11275
G1 X83.499 Y37.335 E628.72306
G1 X84.773 Y37.335 E628.90577
G1 X111.165 Y63.727 E634.25770
G1 X111.165 Y62.453 E634.44040
G1 X86.047 Y37.335 E639.53395
G1 X87.321 Y37.335 E639.71666
G1 X111.165 Y61.179 E644.55183
G1 X111.165 Y59.904 E644.73453
G1 X88.596 Y37.335 E649.31133
G1 X89.870 Y37.335 E649.49403
G1 X111.165 Y58.630 E653.81245
G1 X111.165 Y57.356 E653.99515
G1 X91.144 Y37.335 E658.05520
G1 X92.418 Y37.335 E658.23790
G1 X111.165 Y56.082 E662.03956
G1 X111.165 Y54.808 E662.22226
G1 X93.692 Y37.335 E665.76555
G1 X94.966 Y37.335 E665.94825
G1 X111.165 Y53.534 E669.23316
G1 X111.165 Y52.260 E669.41586
G1 X96.240 Y37.335 E672.44239
G1 X97.515 Y37.335 E672.62509
G1 X111.165 Y50.985 E675.39324
G1 X111.165 Y49.711 E675.57594
G1 X98.789 Y37.335 E678.08571
G1 X100.063 Y37.335 E678.26841
G1 X111.165 Y48.437 E680.51981
G1 X111.165 Y47.163 E680.70251
G1 X107.970 Y43.968 E681.35044
G1 X109.611 Y44.335 F7800.000
M101 ; extruder on
G1 X111.165 Y45.889 E681.66561 F1800.000
G1 X111.165 Y44.615 E681.84831
G1 X110.783 Y44.233 E681.92575
G1 X105.532 Y41.530 F7800.000
M101 ; extruder on
G1 X101.337 Y37.335 E682.77645 F1800.000
G1 X102.611 Y37.335 E682.95915
G1 X105.165 Y39.889 E683.47711
G1 X105.267 Y38.717 E683.64586
G1 X103.885 Y37.335 E683.92607
G1 X105.159 Y37.335 E684.10877
G1 X105.573 Y37.749 E684.19274
M73 P8
G1 Z0.900 F7800.000
G1 X32.816 Y73.874 F7800.000
M101 ; extruder on
G1 X33.141 Y74.658 E684.23750 F900.000
G1 X33.252 Y75.500 E684.28227
G1 X33.141 Y76.342 E684.32704
G1 X32.816 Y77.126 E684.37181
G1 X32.300 Y77.800 E684.41658
G1 X31.626 Y78.316 E684.46135
G1 X30.842 Y78.641 E684.50612
G1 X30.000 Y78.752 E684.55089
