; generated by Slic3r 1.2.9 on 2017-09-20 at 19:33:48

; external perimeters extrusion width = 0.50mm
; perimeters extrusion width = 0.58mm
; infill extrusion width = 0.58mm
; solid infill extrusion width = 0.58mm
; top infill extrusion width = 0.58mm

M127
M109 S210 ; set bed temperature
M104 S220 T0 ; set temperature
G28 ; home all axes
G1 Z5 F5000 ; lift nozzle

M73 P0
G1 Z0.500 F7800.000
G1 E-2.00000 F2400.00000
M103 ; extruder off
G1 X22.412 Y27.115 F7800.000
M101 ; extruder on
G1 E0.00000 F2400.00000
G1 X24.587 Y26.254 E0.33242 F1800.000
G1 X26.000 Y26.107 E0.53420
G1 X114.000 Y26.107 E13.03701
G1 X116.306 Y26.504 E13.36943
M101 ; extruder on
G1 X118.346 Y27.650 E13.70185 F1800.000
G1 X119.885 Y29.412 E14.03427
G1 X120.746 Y31.587 E14.36669
G1 X120.893 Y33.000 E14.56846
G1 X120.893 Y79.000 E21.10403
G1 X120.496 Y81.306 E21.43645
G1 X119.350 Y83.346 E21.76886
G1 X117.588 Y84.885 E22.10128
G1 X115.413 Y85.746 E22.43370
G1 X114.000 Y85.893 E22.63548
G1 X26.000 Y85.893 E35.13830
G1 X23.694 Y85.496 E35.47071
G1 X21.654 Y84.350 E35.80313
G1 X20.115 Y82.588 E36.13555
G1 X19.254 Y80.413 E36.46797
G1 X19.107 Y79.000 E36.66975
G1 X19.107 Y33.000 E43.20531
G1 X19.504 Y30.694 E43.53773
G1 X20.650 Y28.654 E43.87014
G1 X22.355 Y27.164 E44.19191
G1 E42.19191 F2400.00000
M103 ; extruder off
G1 X24.308 Y29.011 F7800.000
M101 ; extruder on
G1 E44.19191 F2400.00000
G1 X24.336 Y28.983 E44.19754 F1800.000
G1 X115.664 Y28.983 E57.17318
G1 X118.017 Y31.336 E57.64600
M101 ; extruder on
G1 X118.017 Y80.664 E64.65439 F1800.000
G1 X115.664 Y83.017 E65.12721
G1 X24.336 Y83.017 E78.10285
G1 X21.983 Y80.664 E78.57567
G1 X21.983 Y31.336 E85.58406
G1 X24.255 Y29.064 E86.04058
G1 X24.706 Y29.876 F7800.000
M101 ; extruder on
G1 X115.294 Y29.876 E98.91115 F1800.000
M101 ; extruder on
G1 X117.124 Y31.706 E99.27890 F1800.000
G1 X117.124 Y80.294 E106.18222
G1 X115.294 Y82.124 E106.54997
G1 X24.706 Y82.124 E119.42053
G1 X22.876 Y80.294 E119.78828
G1 X22.876 Y31.706 E126.69160
G1 X24.653 Y29.929 E127.04869
G1 X25.076 Y30.768 F7800.000
M101 ; extruder on
G1 X114.924 Y30.768 E139.81419 F1800.000
G1 X116.232 Y32.076 E140.07686
M101 ; extruder on
G1 X116.232 Y79.924 E146.87511 F1800.000
G1 X114.924 Y81.232 E147.13779
G1 X25.076 Y81.232 E159.90328
G1 X23.768 Y79.924 E160.16596
G1 X23.768 Y32.076 E166.96420
G1 X25.023 Y30.821 E167.21623
G1 X25.445 Y31.661 F7800.000
M101 ; extruder on
G1 X114.555 Y31.661 E179.87665 F1800.000
M101 ; extruder on
G1 X115.339 Y32.445 E180.03426 F1800.000
G1 X115.339 Y79.555 E186.72743
G1 X114.555 Y80.339 E186.88503
G1 X25.445 Y80.339 E199.54546
G1 X24.661 Y79.555 E199.70307
G1 X24.661 Y32.445 E206.39624
G1 X25.392 Y31.714 E206.54319
G1 X25.815 Y32.554 F7800.000
M101 ; extruder on
G1 X114.185 Y32.554 E219.09854 F1800.000
G1 X114.446 Y32.815 E219.15108
M101 ; extruder on
G1 X114.446 Y79.185 E225.73918 F1800.000
G1 X114.185 Y79.446 E225.79171
G1 X25.815 Y79.446 E238.34707
G1 X25.554 Y79.185 E238.39960
G1 X25.554 Y32.815 E244.98770
G1 X25.762 Y32.607 E245.02958
G1 E243.02958 F2400.00000
M103 ; extruder off
G1 X32.419 Y73.352 F7800.000
M101 ; extruder on
G1 E245.02958 F2400.00000
G1 X32.504 Y74.000 E245.12247 F1800.000
G1 X32.419 Y74.648 E245.21535
G1 X32.169 Y75.252 E245.30824
G1 X31.771 Y75.771 E245.40112
G1 X31.252 Y76.169 E245.49401
G1 X30.648 Y76.419 E245.58689
G1 X30.000 Y76.504 E245.67977
G1 X29.352 Y76.419 E245.77265
G1 X28.748 Y76.169 E245.86554
G1 X28.229 Y75.771 E245.95842
G1 X27.831 Y75.252 E246.05130
G1 X27.581 Y74.648 E246.14419
G1 X27.496 Y74.000 E246.23708
G1 X27.581 Y73.352 E246.32996
G1 X27.831 Y72.748 E246.42285
G1 X28.229 Y72.229 E246.51573
G1 X28.748 Y71.831 E246.60861
G1 X29.352 Y71.581 E246.70150
M101 ; extruder on
G1 X29.990 Y71.497 E246.79289 F1800.000
G1 X30.647 Y71.581 E246.88705
G1 X31.252 Y71.831 E246.98011
G1 X31.771 Y72.229 E247.07299
G1 X32.169 Y72.748 E247.16587
G1 X32.390 Y73.283 E247.24810
G1 X32.896 Y73.502 F7800.000
G1 X31.504 Y76.606 F7800.000
G1 X30.850 Y77.451 F7800.000
G1 X29.935 Y77.502 F7800.000
G1 X29.150 Y77.451 F7800.000
G1 X29.004 Y77.431 F7800.000
G1 X28.847 Y77.176 F7800.000
M101 ; extruder on
G1 X28.761 Y77.607 E247.31055 F1800.000
G1 X27.393 Y77.607 E247.50501
G1 X27.393 Y76.254 E247.69726
G1 X28.298 Y76.949 E247.85933
G1 X28.778 Y77.147 E247.93317
G1 X30.996 Y77.431 F7800.000
G1 X34.399 Y74.975 F7800.000
G1 X33.476 Y73.146 F7800.000
G1 X32.872 Y72.291 F7800.000
G1 X32.807 Y72.221 F7800.000
G1 X33.024 Y71.976 F7800.000
G1 X33.600 Y71.819 F7800.000
M101 ; extruder on
G1 X33.378 Y71.622 E247.97527 F1800.000
G1 X32.391 Y70.509 E248.18662
G1 X31.591 Y69.338 E248.38821
G1 X31.028 Y68.172 E248.57203
G1 X30.745 Y67.067 E248.73409
G1 X30.792 Y66.062 E248.87714
G1 X31.243 Y65.243 E249.00995
G1 X32.062 Y64.792 E249.14277
M101 ; extruder on
G1 X33.040 Y64.746 E249.28193 F1800.000
G1 X34.171 Y65.027 E249.44746
G1 X35.338 Y65.591 E249.63154
G1 X36.509 Y66.391 E249.83313
G1 X37.622 Y67.378 E250.04448
G1 X38.609 Y68.491 E250.25583
G1 X39.409 Y69.662 E250.45742
G1 X39.972 Y70.828 E250.64124
G1 X40.255 Y71.933 E250.80330
G1 X40.208 Y72.938 E250.94635
G1 X39.757 Y73.757 E251.07916
G1 X38.938 Y74.208 E251.21198
G1 X37.933 Y74.255 E251.35502
G1 X36.828 Y73.972 E251.51709
G1 X35.697 Y73.426 E251.69541
G1 X34.492 Y72.610 E251.90230
G1 X33.656 Y71.868 E252.06104
G1 X33.319 Y71.912 F7800.000
G1 E250.06104 F2400.00000
M103 ; extruder off
G1 X31.922 Y64.298 F7800.000
G1 X31.496 Y53.221 F7800.000
G1 X33.561 Y47.254 F7800.000
G1 X31.346 Y45.215 F7800.000
G1 X30.450 Y44.430 F7800.000
G1 X30.000 Y41.009 F7800.000
G1 X30.000 Y40.504 F7800.000
M101 ; extruder on
G1 E252.06104 F2400.00000
G1 X29.352 Y40.419 E252.15392 F1800.000
G1 X28.748 Y40.169 E252.24680
G1 X28.229 Y39.771 E252.33969
G1 X27.831 Y39.252 E252.43257
G1 X27.581 Y38.648 E252.52546
G1 X27.496 Y38.000 E252.61834
G1 X27.581 Y37.352 E252.71123
G1 X27.831 Y36.748 E252.80412
G1 X28.229 Y36.229 E252.89699
G1 X28.748 Y35.831 E252.98988
G1 X29.352 Y35.581 E253.08277
M101 ; extruder on
G1 X29.990 Y35.497 E253.17416 F1800.000
G1 X30.647 Y35.581 E253.26832
G1 X31.252 Y35.831 E253.36137
G1 X31.771 Y36.229 E253.45425
G1 X32.169 Y36.748 E253.54713
G1 X32.419 Y37.352 E253.64002
G1 X32.504 Y38.000 E253.73291
G1 X32.419 Y38.648 E253.82579
G1 X32.169 Y39.252 E253.91868
G1 X31.771 Y39.771 E254.01156
G1 X31.252 Y40.169 E254.10444
G1 X30.648 Y40.419 E254.19733
G1 X30.074 Y40.495 E254.27956
G1 X29.731 Y40.926 F7800.000
G1 E252.27956 F2400.00000
M103 ; extruder off
G1 X27.000 Y38.065 F7800.000
G1 X27.049 Y38.797 F7800.000
G1 X28.082 Y41.605 F7800.000
G1 X38.355 Y39.496 F7800.000
G1 X30.850 Y34.549 F7800.000
G1 X29.004 Y34.569 F7800.000
G1 X27.840 Y34.840 F7800.000
G1 X27.542 Y35.442 F7800.000
G1 X27.487 Y35.576 F7800.000
G1 X27.393 Y35.746 F7800.000
M101 ; extruder on
G1 E254.27956 F2400.00000
G1 X27.393 Y34.393 E254.47180 F1800.000
G1 X28.761 Y34.393 E254.66626
G1 X28.847 Y34.824 E254.72872
G1 X28.298 Y35.051 E254.81322
G1 X27.452 Y35.700 E254.96463
G1 X30.065 Y34.498 F7800.000
G1 X79.258 Y43.714 F7800.000
G1 X87.239 Y53.087 F7800.000
G1 X88.731 Y57.128 F7800.000
G1 X86.851 Y59.357 F7800.000
G1 X86.165 Y60.176 F7800.000
G1 X85.798 Y60.594 F7800.000
G1 X85.749 Y60.643 F7800.000
G1 X86.336 Y61.307 F7800.000
M101 ; extruder on
G1 X87.192 Y60.192 E255.16436 F1800.000
G1 X88.307 Y59.336 E255.36409
G1 X89.606 Y58.798 E255.56383
G1 X90.602 Y58.667 E255.70653
M101 ; extruder on
G1 X91.000 Y58.615 E255.76356 F1800.000
G1 X92.394 Y58.798 E255.96329
G1 X93.693 Y59.336 E256.16302
G1 X94.808 Y60.192 E256.36275
G1 X95.664 Y61.307 E256.56248
G1 X96.202 Y62.606 E256.76222
G1 X96.385 Y64.000 E256.96195
G1 X96.202 Y65.394 E257.16168
G1 X95.664 Y66.693 E257.36141
G1 X94.808 Y67.808 E257.56114
G1 X93.693 Y68.664 E257.76088
G1 X92.394 Y69.202 E257.96061
G1 X91.000 Y69.385 E258.16034
G1 X89.606 Y69.202 E258.36007
G1 X88.307 Y68.664 E258.55981
G1 X87.192 Y67.808 E258.75954
G1 X86.336 Y66.693 E258.95927
G1 X85.798 Y65.394 E259.15900
G1 X85.615 Y64.000 E259.35873
G1 X85.798 Y62.606 E259.55847
G1 X86.308 Y61.377 E259.74754
G1 X87.116 Y61.758 F7800.000
M101 ; extruder on
G1 X87.829 Y60.829 E259.91388 F1800.000
G1 X88.758 Y60.116 E260.08022
G1 X89.839 Y59.668 E260.24656
G1 X90.719 Y59.552 E260.37256
M101 ; extruder on
G1 X91.000 Y59.515 E260.41289 F1800.000
G1 X92.161 Y59.668 E260.57923
G1 X93.242 Y60.116 E260.74556
G1 X94.171 Y60.829 E260.91190
G1 X94.884 Y61.758 E261.07824
G1 X95.332 Y62.839 E261.24457
G1 X95.485 Y64.000 E261.41091
G1 X95.332 Y65.161 E261.57724
G1 X94.884 Y66.242 E261.74358
G1 X94.171 Y67.171 E261.90992
G1 X93.242 Y67.884 E262.07625
G1 X92.161 Y68.332 E262.24259
G1 X91.000 Y68.485 E262.40893
G1 X89.839 Y68.332 E262.57526
G1 X88.758 Y67.884 E262.74160
G1 X87.829 Y67.171 E262.90794
G1 X87.116 Y66.242 E263.07428
G1 X86.668 Y65.161 E263.24061
G1 X86.515 Y64.000 E263.40695
G1 X86.668 Y62.839 E263.57329
G1 X87.087 Y61.827 E263.72897
G1 X87.896 Y62.208 F7800.000
M101 ; extruder on
G1 X88.466 Y61.466 E263.86191 F1800.000
G1 X89.208 Y60.896 E263.99485
G1 X90.072 Y60.538 E264.12779
G1 X90.835 Y60.437 E264.23710
M101 ; extruder on
G1 X91.000 Y60.416 E264.26073 F1800.000
G1 X91.928 Y60.538 E264.39367
G1 X92.792 Y60.896 E264.52661
G1 X93.534 Y61.466 E264.65955
G1 X94.104 Y62.208 E264.79249
G1 X94.462 Y63.072 E264.92543
G1 X94.584 Y64.000 E265.05838
G1 X94.462 Y64.928 E265.19132
G1 X94.104 Y65.792 E265.32426
G1 X93.534 Y66.534 E265.45720
G1 X92.792 Y67.104 E265.59014
G1 X91.928 Y67.462 E265.72308
G1 X91.000 Y67.584 E265.85602
G1 X90.072 Y67.462 E265.98896
G1 X89.208 Y67.104 E266.12190
G1 X88.466 Y66.534 E266.25484
G1 X87.896 Y65.792 E266.38778
G1 X87.538 Y64.928 E266.52073
G1 X87.416 Y64.000 E266.65367
G1 X87.538 Y63.072 E266.78661
G1 X87.867 Y62.277 E266.90889
G1 X87.665 Y61.764 F7800.000
G1 X85.408 Y59.808 F7800.000
M101 ; extruder on
G1 X84.293 Y60.664 E267.10863 F1800.000
G1 X82.994 Y61.202 E267.30836
G1 X81.600 Y61.385 E267.50809
G1 X80.206 Y61.202 E267.70782
G1 X78.907 Y60.664 E267.90756
G1 X77.792 Y59.808 E268.10729
G1 X76.936 Y58.693 E268.30702
G1 X76.398 Y57.394 E268.50675
G1 X76.215 Y56.000 E268.70648
G1 X76.398 Y54.606 E268.90622
G1 X76.936 Y53.307 E269.10595
G1 X77.792 Y52.192 E269.30568
G1 X78.907 Y51.336 E269.50541
G1 X80.206 Y50.798 E269.70515
G1 X81.159 Y50.673 E269.84164
M101 ; extruder on
G1 X81.600 Y50.615 E269.90488 F1800.000
G1 X82.994 Y50.798 E270.10461
G1 X84.293 Y51.336 E270.30434
G1 X85.408 Y52.192 E270.50408
G1 X86.264 Y53.307 E270.70381
G1 X86.802 Y54.606 E270.90354
G1 X86.985 Y56.000 E271.10327
G1 X86.802 Y57.394 E271.30300
G1 X86.264 Y58.693 E271.50274
G1 X85.454 Y59.748 E271.69181
G1 X84.771 Y59.171 F7800.000
M101 ; extruder on
G1 X83.842 Y59.884 E271.85815 F1800.000
G1 X82.761 Y60.332 E272.02449
G1 X81.600 Y60.485 E272.19082
G1 X80.439 Y60.332 E272.35716
G1 X79.358 Y59.884 E272.52349
G1 X78.429 Y59.171 E272.68983
G1 X77.716 Y58.242 E272.85617
G1 X77.268 Y57.161 E273.02250
G1 X77.115 Y56.000 E273.18884
G1 X77.268 Y54.839 E273.35518
G1 X77.716 Y53.758 E273.52151
G1 X78.429 Y52.829 E273.68785
G1 X79.358 Y52.116 E273.85419
G1 X80.439 Y51.668 E274.02052
G1 X81.275 Y51.558 E274.14032
M101 ; extruder on
G1 X81.600 Y51.515 E274.18686 F1800.000
G1 X82.761 Y51.668 E274.35320
G1 X83.842 Y52.116 E274.51953
G1 X84.771 Y52.829 E274.68587
G1 X85.484 Y53.758 E274.85221
G1 X85.932 Y54.839 E275.01854
G1 X86.085 Y56.000 E275.18488
G1 X85.932 Y57.161 E275.35121
G1 X85.484 Y58.242 E275.51755
G1 X84.817 Y59.112 E275.67323
G1 X84.134 Y58.534 F7800.000
M101 ; extruder on
G1 X83.392 Y59.104 E275.80617 F1800.000
G1 X82.528 Y59.462 E275.93911
G1 X81.600 Y59.584 E276.07205
G1 X80.672 Y59.462 E276.20500
G1 X79.808 Y59.104 E276.33794
G1 X79.066 Y58.534 E276.47088
G1 X78.496 Y57.792 E276.60382
G1 X78.138 Y56.928 E276.73676
G1 X78.016 Y56.000 E276.86970
G1 X78.138 Y55.072 E277.00264
G1 X78.496 Y54.208 E277.13558
G1 X79.066 Y53.466 E277.26852
G1 X79.808 Y52.896 E277.40146
G1 X80.672 Y52.538 E277.53441
G1 X81.392 Y52.443 E277.63750
M101 ; extruder on
G1 X81.600 Y52.416 E277.66735 F1800.000
G1 X82.528 Y52.538 E277.80029
G1 X83.392 Y52.896 E277.93323
G1 X84.134 Y53.466 E278.06617
G1 X84.704 Y54.208 E278.19911
G1 X85.062 Y55.072 E278.33205
G1 X85.184 Y56.000 E278.46499
G1 X85.062 Y56.928 E278.59793
G1 X84.704 Y57.792 E278.73087
G1 X84.180 Y58.475 E278.85316
G1 X84.243 Y59.023 F7800.000
G1 X88.307 Y52.664 F7800.000
M101 ; extruder on
G1 X87.192 Y51.808 E279.05289 F1800.000
G1 X86.336 Y50.693 E279.25262
G1 X85.798 Y49.394 E279.45235
G1 X85.615 Y48.000 E279.65209
G1 X85.798 Y46.606 E279.85182
G1 X86.336 Y45.307 E280.05155
G1 X87.192 Y44.192 E280.25128
G1 X88.307 Y43.336 E280.45102
G1 X89.606 Y42.798 E280.65075
G1 X90.602 Y42.667 E280.79346
M101 ; extruder on
G1 X91.000 Y42.615 E280.85048 F1800.000
G1 X92.394 Y42.798 E281.05021
G1 X93.693 Y43.336 E281.24995
G1 X94.808 Y44.192 E281.44968
G1 X95.664 Y45.307 E281.64941
G1 X96.202 Y46.606 E281.84914
G1 X96.385 Y48.000 E282.04887
G1 X96.202 Y49.394 E282.24860
G1 X95.664 Y50.693 E282.44834
G1 X94.808 Y51.808 E282.64807
G1 X93.693 Y52.664 E282.84780
G1 X92.394 Y53.202 E283.04754
G1 X91.000 Y53.385 E283.24727
G1 X89.606 Y53.202 E283.44700
G1 X88.377 Y52.692 E283.63607
G1 X88.758 Y51.884 F7800.000
M101 ; extruder on
G1 X87.829 Y51.171 E283.80241 F1800.000
G1 X87.116 Y50.242 E283.96875
G1 X86.668 Y49.161 E284.13508
G1 X86.515 Y48.000 E284.30142
G1 X86.668 Y46.839 E284.46776
G1 X87.116 Y45.758 E284.63409
G1 X87.829 Y44.829 E284.80043
G1 X88.758 Y44.116 E284.96677
G1 X89.839 Y43.668 E285.13311
G1 X90.719 Y43.552 E285.25911
M101 ; extruder on
G1 X91.000 Y43.515 E285.29944 F1800.000
G1 X92.161 Y43.668 E285.46578
G1 X93.242 Y44.116 E285.63211
G1 X94.171 Y44.829 E285.79845
G1 X94.884 Y45.758 E285.96479
G1 X95.332 Y46.839 E286.13113
G1 X95.485 Y48.000 E286.29746
G1 X95.332 Y49.161 E286.46379
G1 X94.884 Y50.242 E286.63013
G1 X94.171 Y51.171 E286.79647
G1 X93.242 Y51.884 E286.96281
G1 X92.161 Y52.332 E287.12914
G1 X91.000 Y52.485 E287.29548
G1 X89.839 Y52.332 E287.46181
G1 X88.827 Y51.913 E287.61750
G1 X89.208 Y51.104 F7800.000
M101 ; extruder on
G1 X88.466 Y50.534 E287.75044 F1800.000
G1 X87.896 Y49.792 E287.88338
G1 X87.538 Y48.928 E288.01632
G1 X87.416 Y48.000 E288.14926
G1 X87.538 Y47.072 E288.28220
G1 X87.896 Y46.208 E288.41514
G1 X88.466 Y45.466 E288.54808
G1 X89.208 Y44.896 E288.68102
G1 X90.072 Y44.538 E288.81397
G1 X90.835 Y44.437 E288.92328
M101 ; extruder on
G1 X91.000 Y44.416 E288.94691 F1800.000
G1 X91.928 Y44.538 E289.07985
G1 X92.792 Y44.896 E289.21279
G1 X93.534 Y45.466 E289.34573
G1 X94.104 Y46.208 E289.47867
G1 X94.462 Y47.072 E289.61161
G1 X94.584 Y48.000 E289.74455
G1 X94.462 Y48.928 E289.87749
G1 X94.104 Y49.792 E290.01043
G1 X93.534 Y50.534 E290.14337
G1 X92.792 Y51.104 E290.27631
G1 X91.928 Y51.462 E290.40926
G1 X91.000 Y51.584 E290.54220
G1 X90.072 Y51.462 E290.67514
G1 X89.277 Y51.133 E290.79742
G1 X88.764 Y51.335 F7800.000
G1 E288.79742 F2400.00000
M103 ; extruder off
G1 X95.089 Y48.000 F7800.000
G1 X98.527 Y46.471 F7800.000
G1 X98.369 Y46.147 F7800.000
G1 X100.996 Y43.817 F7800.000
G1 X99.578 Y44.020 F7800.000
M101 ; extruder on
G1 E290.79742 F2400.00000
G1 X99.041 Y43.234 E290.93267 F1800.000
G1 X98.343 Y41.788 E291.16084
G1 X97.949 Y40.251 E291.38620
G1 X98.028 Y38.564 E291.62621
G1 X98.928 Y36.928 E291.89148
G1 X100.564 Y36.028 E292.15677
M101 ; extruder on
G1 X102.218 Y35.951 E292.39196 F1800.000
G1 X103.781 Y36.339 E292.62077
G1 X105.234 Y37.041 E292.85011
G1 X106.609 Y37.980 E293.08674
G1 X107.850 Y39.081 E293.32240
G1 X109.017 Y40.387 E293.57127
G1 X109.959 Y41.766 E293.80848
G1 X110.657 Y43.212 E294.03665
G1 X111.051 Y44.749 E294.26201
G1 X110.974 Y46.391 E294.49563
G1 X110.089 Y48.062 E294.76426
G1 X108.436 Y48.972 E295.03240
G1 X106.749 Y49.051 E295.27240
G1 X105.212 Y48.657 E295.49776
G1 X103.766 Y47.959 E295.72592
G1 X102.391 Y47.020 E295.96255
G1 X101.150 Y45.919 E296.19821
G1 X99.983 Y44.613 E296.44708
G1 X99.620 Y44.082 E296.53839
G1 X100.315 Y43.517 F7800.000
M101 ; extruder on
G1 X99.816 Y42.786 E296.66414 F1800.000
G1 X99.185 Y41.480 E296.87013
G1 X98.847 Y40.159 E297.06384
G1 X98.910 Y38.813 E297.25537
