; generated by Slic3r 1.2.9 on 2017-09-18 at 17:30:40

; external perimeters extrusion width = 0.50mm
; perimeters extrusion width = 0.58mm
; infill extrusion width = 0.58mm
; solid infill extrusion width = 0.58mm
; top infill extrusion width = 0.58mm

M127
M109 S220 ; set bed temperature
M104 S220 T0 ; set temperature
G28 ; home all axes
G1 Z5 F5000 ; lift nozzle

M73 P0
G1 Z0.500 F7800.000
G1 E-2.00000 F2400.00000
M103 ; extruder off
G1 X48.610 Y47.802 F7800.000
M101 ; extruder on
G1 E0.00000 F2400.00000
G1 X57.224 Y40.302 E1.62266 F1800.000
G1 X59.223 Y39.087 E1.95508
G1 X61.750 Y38.607 E2.32048
G1 X91.250 Y38.607 E6.51176
G1 X92.922 Y38.813 E6.75107
M101 ; extruder on
G1 X102.922 Y41.313 E8.21557 F1800.000
G1 X105.062 Y42.258 E8.54799
G1 X106.764 Y43.864 E8.88041
G1 X107.830 Y45.946 E9.21282
G1 X108.143 Y48.000 E9.50796
G1 X108.143 Y67.000 E12.20743
G1 X107.746 Y69.306 E12.53985
G1 X106.600 Y71.346 E12.87227
G1 X104.838 Y72.885 E13.20469
G1 X102.922 Y73.687 E13.49982
G1 X92.922 Y76.187 E14.96432
G1 X91.250 Y76.393 E15.20363
G1 X61.750 Y76.393 E19.39492
G1 X59.444 Y75.996 E19.72734
G1 X57.224 Y74.698 E20.09273
G1 X48.610 Y67.198 E21.71540
G1 X47.132 Y65.385 E22.04781
G1 X46.346 Y63.181 E22.38023
G1 X46.244 Y62.000 E22.54863
G1 X46.244 Y53.000 E23.82735
G1 X46.641 Y50.694 E24.15977
G1 X47.787 Y48.654 E24.49219
G1 X48.558 Y47.856 E24.64994
G1 E22.64994 F2400.00000
M103 ; extruder off
G1 X88.965 Y64.715 F7800.000
M101 ; extruder on
G1 E24.64994 F2400.00000
G1 X88.965 Y67.215 E25.00513 F1800.000
G1 X64.035 Y67.215 E28.54701
G1 X64.035 Y59.715 E29.61259
G1 X55.422 Y59.715 E30.83634
G1 X55.422 Y55.285 E31.46563
G1 X64.035 Y55.285 E32.68938
G1 X64.035 Y47.785 E33.75496
G1 X88.965 Y47.785 E37.29684
G1 X88.965 Y50.285 E37.65204
G1 X98.965 Y50.285 E39.07281
G1 X98.965 Y64.715 E41.12288
G1 X89.040 Y64.715 E42.53299
G1 X89.857 Y65.607 F7800.000
M101 ; extruder on
G1 X89.857 Y68.107 E42.88819 F1800.000
G1 X63.143 Y68.107 E46.68373
G1 X63.143 Y60.607 E47.74931
G1 X54.529 Y60.607 E48.97306
G1 X54.529 Y54.393 E49.85602
G1 X63.143 Y54.393 E51.07977
G1 X63.143 Y46.893 E52.14535
G1 X89.857 Y46.893 E55.94090
G1 X89.857 Y49.393 E56.29609
G1 X99.857 Y49.393 E57.71687
G1 X99.857 Y65.607 E60.02059
G1 X89.932 Y65.607 E61.43071
G1 X90.750 Y66.500 F7800.000
M101 ; extruder on
G1 X90.750 Y69.000 E61.78591 F1800.000
G1 X62.250 Y69.000 E65.83511
G1 X62.250 Y61.500 E66.90070
G1 X53.637 Y61.500 E68.12445
G1 X53.637 Y53.500 E69.26107
G1 X62.250 Y53.500 E70.48482
G1 X62.250 Y46.000 E71.55040
G1 X90.750 Y46.000 E75.59961
G1 X90.750 Y48.500 E75.95480
G1 X100.750 Y48.500 E77.37558
G1 X100.750 Y66.500 E79.93297
G1 X90.825 Y66.500 E81.34309
G1 X90.250 Y66.500 F7800.000
G1 X98.415 Y51.254 F7800.000
M101 ; extruder on
G1 X97.996 Y50.835 E81.42843 F1800.000
G1 X96.716 Y50.835 E81.61293
G1 X98.415 Y52.534 E81.95920
G1 X98.415 Y53.814 E82.14371
G1 X95.436 Y50.835 E82.75091
G1 X94.155 Y50.835 E82.93541
G1 X98.415 Y55.095 E83.80354
G1 X98.415 Y56.375 E83.98805
G1 X92.875 Y50.835 E85.11712
G1 X91.594 Y50.835 E85.30162
G1 X98.415 Y57.656 E86.69162
G1 X98.415 Y58.936 E86.87613
G1 X90.314 Y50.835 E88.52706
G1 X89.033 Y50.835 E88.71157
G1 X98.415 Y60.217 E90.62343
G1 X98.415 Y61.497 E90.80794
G1 X85.253 Y48.335 E93.49020
G1 X83.973 Y48.335 E93.67471
G1 X98.415 Y62.777 E96.61790
G1 X98.415 Y64.058 E96.80241
G1 X82.692 Y48.335 E100.00653
G1 X81.412 Y48.335 E100.19104
G1 X97.242 Y64.165 E103.41705
G1 X95.962 Y64.165 E103.60156
G1 X80.131 Y48.335 E106.82757
G1 X78.851 Y48.335 E107.01208
G1 X94.681 Y64.165 E110.23809
G1 X93.401 Y64.165 E110.42260
G1 X77.570 Y48.335 E113.64861
G1 X76.290 Y48.335 E113.83312
G1 X92.120 Y64.165 E117.05913
G1 X90.840 Y64.165 E117.24364
G1 X75.010 Y48.335 E120.46965
G1 X73.729 Y48.335 E120.65416
G1 X89.560 Y64.165 E123.88017
G1 X88.415 Y64.301 E124.04624
G1 X72.449 Y48.335 E127.29997
G1 X71.168 Y48.335 E127.48448
G1 X88.415 Y65.582 E130.99914
G1 X88.218 Y66.665 E131.15784
G1 X69.888 Y48.335 E134.89332
G1 X68.608 Y48.335 E135.07782
G1 X86.938 Y66.665 E138.81330
G1 X85.657 Y66.665 E138.99781
G1 X67.327 Y48.335 E142.73329
G1 X66.047 Y48.335 E142.91779
G1 X84.377 Y66.665 E146.65327
G1 X83.097 Y66.665 E146.83778
G1 X64.766 Y48.335 E150.57326
G1 X64.585 Y49.434 E150.73376
G1 X81.816 Y66.665 E154.24528
G1 X80.536 Y66.665 E154.42979
G1 X64.585 Y50.714 E157.68038
G1 X64.585 Y51.995 E157.86489
G1 X79.255 Y66.665 E160.85454
G1 X77.975 Y66.665 E161.03905
G1 X64.585 Y53.275 E163.76777
G1 X64.585 Y54.555 E163.95228
G1 X76.695 Y66.665 E166.42007
G1 X75.414 Y66.665 E166.60458
G1 X64.584 Y55.835 E168.81166
G1 X63.303 Y55.835 E168.99617
G1 X74.134 Y66.665 E171.20325
G1 X72.853 Y66.665 E171.38776
G1 X62.023 Y55.835 E173.59484
G1 X60.742 Y55.835 E173.77935
G1 X64.073 Y59.165 E174.45803
G1 X64.585 Y59.677 F7800.000
M101 ; extruder on
G1 X71.573 Y66.665 E175.88209 F1800.000
G1 X70.292 Y66.665 E176.06660
G1 X64.585 Y60.958 E177.22973
G1 X64.585 Y62.238 E177.41423
G1 X69.012 Y66.665 E178.31643
G1 X67.732 Y66.665 E178.50093
G1 X64.585 Y63.518 E179.14219
G1 X64.585 Y64.799 E179.32670
G1 X66.451 Y66.665 E179.70703
G1 X65.171 Y66.665 E179.89154
G1 X64.585 Y66.079 E180.01093
G1 X62.792 Y59.165 F7800.000
M101 ; extruder on
G1 X59.462 Y55.835 E180.68962 F1800.000
G1 X58.182 Y55.835 E180.87413
G1 X61.512 Y59.165 E181.55281
G1 X60.232 Y59.165 E181.73732
G1 X56.901 Y55.835 E182.41601
G1 X55.972 Y56.186 E182.55918
G1 X58.951 Y59.165 E183.16638
G1 X57.671 Y59.165 E183.35089
G1 X55.972 Y57.466 E183.69716
G1 X55.972 Y58.746 E183.88166
G1 X56.390 Y59.165 E183.96700
G1 X86.533 Y48.335 F7800.000
M101 ; extruder on
G1 X88.415 Y50.217 E184.35046 F1800.000
G1 X88.415 Y48.936 E184.53497
G1 X87.814 Y48.335 E184.65751
M73 P0
G1 Z0.900 F7800.000
G1 X90.057 Y65.807 F7800.000
M101 ; extruder on
G1 X90.057 Y68.307 E184.81376 F3600.000
G1 X62.943 Y68.307 E186.50833
G1 X62.943 Y60.807 E186.97708
G1 X54.126 Y60.807 E187.52816
G1 X54.126 Y58.772 E187.65532
G1 X54.197 Y58.682 E187.66249
G1 X54.490 Y57.500 E187.73859
G1 X54.197 Y56.318 E187.81468
G1 X54.126 Y56.228 E187.82185
G1 X54.126 Y54.193 E187.94901
G1 X62.943 Y54.193 E188.50009
G1 X62.943 Y46.693 E188.96884
G1 X90.057 Y46.693 E190.66342
G1 X90.057 Y49.193 E190.81967
G1 X100.057 Y49.193 E191.44467
G1 X100.057 Y65.807 E192.48299
G1 X90.132 Y65.807 E193.10330
G1 X90.547 Y66.297 F7800.000
M101 ; extruder on
G1 X90.547 Y68.797 E193.25955 F3600.000
G1 X62.453 Y68.797 E195.01549
G1 X62.453 Y61.297 E195.48424
G1 X53.635 Y61.297 E196.03531
G1 X53.635 Y58.603 E196.20373
G1 X53.746 Y58.462 E196.21492
G1 X53.985 Y57.500 E196.27686
G1 X53.746 Y56.538 E196.33880
G1 X53.635 Y56.397 E196.34999
G1 X53.635 Y53.703 E196.51840
G1 X62.453 Y53.703 E197.06948
G1 X62.453 Y46.203 E197.53823
G1 X90.547 Y46.203 E199.29416
G1 X90.547 Y48.703 E199.45041
G1 X100.547 Y48.703 E200.07541
G1 X100.547 Y66.297 E201.17510
G1 X90.622 Y66.297 E201.79541
G1 X91.000 Y66.750 F7800.000
M101 ; extruder on
G1 X91.000 Y69.250 E201.92724 F1800.000
G1 X62.000 Y69.250 E203.45648
G1 X62.000 Y61.750 E203.85197
G1 X53.183 Y61.750 E204.31693
G1 X53.183 Y58.447 E204.49110
G1 X53.330 Y58.259 E204.50368
G1 X53.518 Y57.500 E204.54492
G1 X53.330 Y56.741 E204.58617
G1 X53.183 Y56.553 E204.59875
G1 X53.183 Y53.250 E204.77292
G1 X62.000 Y53.250 E205.23787
G1 X62.000 Y45.750 E205.63337
G1 X91.000 Y45.750 E207.16261
G1 X91.000 Y48.250 E207.29444
G1 X101.000 Y48.250 E207.82176
G1 X101.000 Y66.750 E208.79731
G1 X91.075 Y66.750 E209.32068
G1 X90.500 Y66.750 F7800.000
G1 X89.332 Y68.014 F7800.000
M101 ; extruder on
G1 X89.764 Y67.582 E209.35901 F1200.000
G1 X89.764 Y66.884 E209.40293
G1 X88.634 Y68.014 E209.50337
G1 X90.250 Y66.000 F7800.000
G1 X91.750 Y57.500 F7800.000
G1 X100.250 Y66.000 F7800.000
G1 X99.515 Y65.514 F7800.000
M101 ; extruder on
G1 X99.764 Y65.265 E209.52545 F1200.000
G1 X99.764 Y64.567 E209.56937
G1 X98.817 Y65.514 E209.65356
G1 X98.118 Y65.514 E209.69748
G1 X99.764 Y63.868 E209.84377
G1 X99.764 Y63.170 E209.88769
G1 X97.420 Y65.514 E210.09610
G1 X96.722 Y65.514 E210.14002
G1 X99.764 Y62.472 E210.41054
G1 X99.764 Y61.773 E210.45445
G1 X96.023 Y65.514 E210.78708
G1 X95.325 Y65.514 E210.83100
G1 X99.764 Y61.075 E211.22574
G1 X99.764 Y60.376 E211.26966
G1 X94.626 Y65.514 E211.72651
G1 X93.928 Y65.514 E211.77042
G1 X99.764 Y59.678 E212.28938
G1 X99.764 Y58.979 E212.33330
G1 X93.229 Y65.514 E212.91437
G1 X92.531 Y65.514 E212.95829
G1 X99.764 Y58.281 E213.60147
G1 X99.764 Y57.582 E213.64539
G1 X91.832 Y65.514 E214.35068
G1 X91.134 Y65.514 E214.39459
G1 X99.764 Y56.884 E215.16199
G1 X99.764 Y56.186 E215.20591
G1 X90.436 Y65.514 E216.03542
G1 X89.764 Y65.487 E216.07771
G1 X87.237 Y68.014 E216.30238
G1 X87.936 Y68.014 E216.34630
G1 X89.764 Y66.186 E216.50885
G1 X89.737 Y65.514 E216.55114
G1 X99.764 Y55.487 E217.44276
G1 X99.764 Y54.789 E217.48668
G1 X86.539 Y68.014 E218.66273
G1 X85.840 Y68.014 E218.70665
G1 X99.764 Y54.090 E219.94481
G1 X99.764 Y53.392 E219.98872
G1 X85.142 Y68.014 E221.28899
G1 X84.443 Y68.014 E221.33291
G1 X99.764 Y52.693 E222.69529
G1 X99.764 Y51.995 E222.73921
G1 X83.745 Y68.014 E224.16370
G1 X83.047 Y68.014 E224.20762
G1 X99.764 Y51.297 E225.69422
G1 X99.764 Y50.598 E225.73814
G1 X82.348 Y68.014 E227.28684
G1 X81.650 Y68.014 E227.33076
G1 X99.764 Y49.900 E228.94158
G1 X99.478 Y49.486 E228.97316
G1 X80.951 Y68.014 E230.62072
G1 X80.253 Y68.014 E230.66464
G1 X98.780 Y49.486 E232.31220
G1 X98.081 Y49.486 E232.35612
G1 X79.554 Y68.014 E234.00369
G1 X78.856 Y68.014 E234.04760
G1 X97.383 Y49.486 E235.69517
G1 X96.685 Y49.486 E235.73909
G1 X78.157 Y68.014 E237.38665
G1 X77.459 Y68.014 E237.43057
G1 X95.986 Y49.486 E239.07813
G1 X95.288 Y49.486 E239.12205
G1 X76.761 Y68.014 E240.76962
G1 X76.062 Y68.014 E240.81354
G1 X94.589 Y49.486 E242.46110
G1 X93.891 Y49.486 E242.50502
G1 X75.364 Y68.014 E244.15258
G1 X74.665 Y68.014 E244.19650
G1 X93.192 Y49.486 E245.84407
G1 X92.494 Y49.486 E245.88798
G1 X73.967 Y68.014 E247.53555
G1 X73.268 Y68.014 E247.57947
G1 X91.795 Y49.486 E249.22703
G1 X91.097 Y49.486 E249.27095
G1 X72.570 Y68.014 E250.91851
G1 X71.872 Y68.014 E250.96243
G1 X90.399 Y49.486 E252.61000
G1 X89.764 Y49.423 E252.65013
G1 X71.173 Y68.014 E254.30333
G1 X70.475 Y68.014 E254.34725
G1 X89.764 Y48.725 E256.06255
G1 X89.764 Y48.026 E256.10647
G1 X69.776 Y68.014 E257.88389
G1 X69.078 Y68.014 E257.92781
G1 X89.764 Y47.328 E259.76733
G1 X89.406 Y46.986 E259.79840
G1 X68.379 Y68.014 E261.66828
G1 X67.681 Y68.014 E261.71220
G1 X88.708 Y46.986 E263.58208
G1 X88.010 Y46.986 E263.62600
G1 X66.983 Y68.014 E265.49588
G1 X66.284 Y68.014 E265.53980
G1 X87.311 Y46.986 E267.40969
G1 X86.613 Y46.986 E267.45361
G1 X65.586 Y68.014 E269.32349
G1 X64.887 Y68.014 E269.36741
G1 X85.914 Y46.986 E271.23729
G1 X85.216 Y46.986 E271.28121
G1 X64.189 Y68.014 E273.15109
G1 X63.490 Y68.014 E273.19501
G1 X84.517 Y46.986 E275.06489
G1 X83.819 Y46.986 E275.10881
G1 X63.236 Y67.569 E276.93916
G1 X63.236 Y66.871 E276.98308
G1 X83.121 Y46.986 E278.75132
G1 X82.422 Y46.986 E278.79524
G1 X63.236 Y66.172 E280.50137
G1 X63.236 Y65.474 E280.54529
G1 X81.724 Y46.986 E282.18931
G1 X81.025 Y46.986 E282.23322
G1 X63.236 Y64.775 E283.81513
G1 X63.236 Y64.077 E283.85905
G1 X80.327 Y46.986 E285.37885
G1 X79.628 Y46.986 E285.42277
G1 X63.236 Y63.378 E286.88046
G1 X63.236 Y62.680 E286.92438
G1 X78.930 Y46.986 E288.31996
G1 X78.231 Y46.986 E288.36387
G1 X63.236 Y61.981 E289.69734
G1 X63.236 Y61.283 E289.74126
G1 X77.533 Y46.986 E291.01262
G1 X76.835 Y46.986 E291.05654
G1 X63.236 Y60.585 E292.26579
G1 X62.609 Y60.514 E292.30549
G1 X76.136 Y46.986 E293.50841
G1 X75.438 Y46.986 E293.55233
G1 X61.911 Y60.514 E294.75526
G1 X61.212 Y60.514 E294.79918
G1 X74.739 Y46.986 E296.00210
G1 X74.041 Y46.986 E296.04602
G1 X60.514 Y60.514 E297.24895
G1 X59.815 Y60.514 E297.29287
G1 X73.342 Y46.986 E298.49580
G1 X72.644 Y46.986 E298.53971
G1 X59.117 Y60.514 E299.74264
G1 X58.419 Y60.514 E299.78656
G1 X71.946 Y46.986 E300.98949
G1 X71.247 Y46.986 E301.03340
G1 X57.720 Y60.514 E302.23633
G1 X57.022 Y60.514 E302.28025
G1 X70.549 Y46.986 E303.48318
G1 X69.850 Y46.986 E303.52709
G1 X63.236 Y53.600 E304.11524
G1 X63.236 Y52.902 E304.15916
G1 X69.152 Y46.986 E304.68520
G1 X68.453 Y46.986 E304.72911
G1 X63.236 Y52.203 E305.19304
G1 X63.236 Y51.505 E305.23696
G1 X67.755 Y46.986 E305.63878
G1 X67.057 Y46.986 E305.68269
G1 X63.236 Y50.807 E306.02240
G1 X63.236 Y50.108 E306.06632
G1 X66.358 Y46.986 E306.34391
G1 X65.660 Y46.986 E306.38783
G1 X63.236 Y49.410 E306.60332
G1 X63.236 Y48.711 E306.64724
G1 X64.961 Y46.986 E306.80061
G1 X64.263 Y46.986 E306.84453
G1 X63.236 Y48.013 E306.93580
G1 X63.236 Y47.314 E306.97971
G1 X63.564 Y46.986 E307.00887
G1 X62.350 Y54.486 F7800.000
M101 ; extruder on
G1 X56.323 Y60.514 E307.54484 F1200.000
G1 X55.625 Y60.514 E307.58876
G1 X61.652 Y54.486 E308.12473
G1 X60.953 Y54.486 E308.16865
G1 X54.926 Y60.514 E308.70462
G1 X54.419 Y60.322 E308.73870
G1 X60.255 Y54.486 E309.25765
G1 X59.557 Y54.486 E309.30156
G1 X54.419 Y59.624 E309.75840
G1 X54.483 Y58.861 E309.80651
G1 X58.858 Y54.486 E310.19556
G1 X58.160 Y54.486 E310.23947
G1 X54.714 Y57.932 E310.54587
G1 X54.706 Y57.242 E310.58926
G1 X57.461 Y54.486 E310.83431
G1 X56.763 Y54.486 E310.87823
G1 X54.567 Y56.683 E311.07352
G1 X54.419 Y56.132 E311.10940
G1 X56.064 Y54.486 E311.25568
G1 X55.366 Y54.486 E311.29960
G1 X54.419 Y55.433 E311.38378
G1 X54.419 Y54.735 E311.42770
G1 X54.667 Y54.486 E311.44977
M73 P0
G1 Z1.300 F7800.000
G1 X90.057 Y65.807 F7800.000
M101 ; extruder on
G1 X90.057 Y68.307 E311.60602 F3600.000
G1 X62.943 Y68.307 E313.30059
G1 X62.943 Y60.807 E313.76934
G1 X53.945 Y60.807 E314.33175
G1 X53.945 Y59.733 E314.39882
G1 X54.097 Y59.628 E314.41037
G1 X54.837 Y58.682 E314.48547
G1 X55.131 Y57.500 E314.56157
G1 X54.837 Y56.318 E314.63767
G1 X54.097 Y55.372 E314.71277
G1 X53.945 Y55.267 E314.72432
G1 X53.945 Y54.193 E314.79139
G1 X62.943 Y54.193 E315.35380
G1 X62.943 Y46.693 E315.82255
G1 X90.057 Y46.693 E317.51712
G1 X90.057 Y49.193 E317.67337
G1 X100.057 Y49.193 E318.29837
G1 X100.057 Y65.807 E319.33670
G1 X90.132 Y65.807 E319.95701
G1 X90.547 Y66.297 F7800.000
M101 ; extruder on
G1 X90.547 Y68.797 E320.11326 F3600.000
G1 X62.453 Y68.797 E321.86920
G1 X62.453 Y61.297 E322.33795
G1 X53.454 Y61.297 E322.90035
G1 X53.454 Y59.476 E323.01420
G1 X53.756 Y59.267 E323.03716
G1 X54.386 Y58.462 E323.10104
G1 X54.625 Y57.500 E323.16298
G1 X54.386 Y56.538 E323.22492
G1 X53.756 Y55.733 E323.28880
G1 X53.454 Y55.524 E323.31176
G1 X53.454 Y53.703 E323.42561
G1 X62.453 Y53.703 E323.98802
G1 X62.453 Y46.203 E324.45677
G1 X90.547 Y46.203 E326.21270
G1 X90.547 Y48.703 E326.36895
G1 X100.547 Y48.703 E326.99395
G1 X100.547 Y66.297 E328.09364
G1 X90.622 Y66.297 E328.71395
G1 X91.000 Y66.750 F7800.000
M101 ; extruder on
G1 X91.000 Y69.250 E328.84578 F1800.000
G1 X62.000 Y69.250 E330.37502
G1 X62.000 Y61.750 E330.77051
G1 X53.002 Y61.750 E331.24502
G1 X53.002 Y59.238 E331.37746
G1 X53.442 Y58.934 E331.40571
G1 X53.970 Y58.259 E331.45088
G1 X54.158 Y57.500 E331.49213
G1 X53.970 Y56.741 E331.53337
G1 X53.442 Y56.066 E331.57855
G1 X53.002 Y55.762 E331.60679
G1 X53.002 Y53.250 E331.73923
G1 X62.000 Y53.250 E332.21374
G1 X62.000 Y45.750 E332.60924
G1 X91.000 Y45.750 E334.13848
G1 X91.000 Y48.250 E334.27031
G1 X101.000 Y48.250 E334.79763
G1 X101.000 Y66.750 E335.77318
G1 X91.075 Y66.750 E336.29655
G1 X90.500 Y66.750 F7800.000
G1 X99.764 Y49.735 F7800.000
M101 ; extruder on
G1 X99.515 Y49.486 E336.31870 F1200.000
G1 X98.815 Y49.486 E336.36290
G1 X99.764 Y50.435 E336.44756
G1 X99.764 Y51.136 E336.49177
G1 X98.114 Y49.486 E336.63894
G1 X97.413 Y49.486 E336.68315
G1 X99.764 Y51.837 E336.89284
G1 X99.764 Y52.538 E336.93704
G1 X96.712 Y49.486 E337.20925
G1 X96.012 Y49.486 E337.25345
G1 X99.764 Y53.238 E337.58817
G1 X99.764 Y53.939 E337.63237
G1 X95.311 Y49.486 E338.02960
G1 X94.610 Y49.486 E338.07381
G1 X99.764 Y54.640 E338.53355
G1 X99.764 Y55.340 E338.57776
G1 X93.910 Y49.486 E339.10001
G1 X93.209 Y49.486 E339.14422
G1 X99.764 Y56.041 E339.72899
G1 X99.764 Y56.742 E339.77319
G1 X92.508 Y49.486 E340.42048
G1 X91.808 Y49.486 E340.46468
G1 X99.764 Y57.442 E341.17449
