; generated by Slic3r 1.2.9 on 2017-09-20 at 18:48:45

; external perimeters extrusion width = 0.50mm
; perimeters extrusion width = 0.58mm
; infill extrusion width = 0.58mm
; solid infill extrusion width = 0.58mm
; top infill extrusion width = 0.58mm

M127
M109 S210 ; set bed temperature
M104 S220 T0 ; set temperature
G28 ; home all axes
G1 Z5 F5000 ; lift nozzle

M73 P0
G1 Z0.500 F7800.000
G1 E-2.00000 F2400.00000
M103 ; extruder off
G1 X22.662 Y34.365 F7800.000
M101 ; extruder on
G1 E0.00000 F2400.00000
G1 X24.837 Y33.504 E0.33242 F1800.000
G1 X26.250 Y33.357 E0.53420
G1 X116.750 Y33.357 E13.39221
G1 X119.056 Y33.754 E13.72463
M101 ; extruder on
G1 X121.096 Y34.900 E14.05704 F1800.000
G1 X122.635 Y36.662 E14.38946
G1 X123.496 Y38.837 E14.72188
G1 X123.643 Y40.250 E14.92366
G1 X123.643 Y74.750 E19.82533
G1 X123.246 Y77.056 E20.15775
G1 X122.100 Y79.096 E20.49017
G1 X120.338 Y80.635 E20.82258
G1 X118.163 Y81.496 E21.15500
G1 X116.750 Y81.643 E21.35678
G1 X26.250 Y81.643 E34.21479
G1 X23.944 Y81.246 E34.54721
G1 X21.904 Y80.100 E34.87963
G1 X20.365 Y78.338 E35.21205
G1 X19.504 Y76.163 E35.54446
G1 X19.357 Y74.750 E35.74624
G1 X19.357 Y40.250 E40.64792
G1 X19.754 Y37.944 E40.98033
G1 X20.900 Y35.904 E41.31275
G1 X22.605 Y34.414 E41.63451
G1 E39.63451 F2400.00000
M103 ; extruder off
G1 X31.487 Y69.850 F7800.000
M101 ; extruder on
G1 E41.63451 F2400.00000
G1 X31.487 Y45.150 E45.14383 F1800.000
G1 X111.488 Y45.150 E56.51002
G1 X111.488 Y69.850 E60.01934
G1 X31.562 Y69.850 E71.37488
G1 X30.987 Y69.850 F7800.000
G1 X29.702 Y69.465 F7800.000
M101 ; extruder on
G1 X28.535 Y69.465 E71.54064 F1800.000
G1 X28.535 Y45.535 E74.94044
G1 X29.702 Y45.535 E75.10620
G1 X29.702 Y69.390 E78.49535
G1 X30.595 Y70.357 F7800.000
M101 ; extruder on
G1 X27.643 Y70.357 E78.91478 F1800.000
G1 X27.643 Y44.643 E82.56824
G1 X30.595 Y44.643 E82.98767
G1 X30.595 Y70.282 E86.63048
G1 X36.467 Y71.635 F7800.000
M101 ; extruder on
G1 X106.533 Y71.635 E96.58521 F1800.000
G1 X106.533 Y72.465 E96.70302
G1 X36.467 Y72.465 E106.65775
G1 X36.467 Y71.710 E106.76490
G1 X35.575 Y70.743 F7800.000
M101 ; extruder on
G1 X107.425 Y70.743 E116.97329 F1800.000
G1 X107.425 Y73.357 E117.34477
G1 X35.575 Y73.357 E127.55316
G1 X35.575 Y70.818 E127.91398
G1 X113.273 Y69.465 F7800.000
M101 ; extruder on
G1 X113.273 Y45.535 E131.31378 F1800.000
G1 X114.465 Y45.535 E131.48310
G1 X114.465 Y69.465 E134.88290
G1 X113.348 Y69.465 E135.04155
G1 X112.380 Y70.357 F7800.000
M101 ; extruder on
G1 X112.380 Y44.643 E138.69502 F1800.000
G1 X115.357 Y44.643 E139.11800
G1 X115.357 Y70.357 E142.77146
G1 X112.455 Y70.357 E143.18379
G1 X112.388 Y44.650 F7800.000
G1 X107.818 Y44.450 F7800.000
G1 X107.418 Y44.250 F7800.000
G1 X106.118 Y42.950 F7800.000
G1 X106.533 Y43.365 F7800.000
M101 ; extruder on
G1 X36.467 Y43.365 E153.13851 F1800.000
G1 X36.467 Y42.535 E153.25632
G1 X106.533 Y42.535 E163.21105
G1 X106.533 Y43.290 E163.31821
G1 X107.425 Y44.257 F7800.000
M101 ; extruder on
G1 X35.575 Y44.257 E173.52660 F1800.000
G1 X35.575 Y41.643 E173.89808
G1 X107.425 Y41.643 E184.10647
G1 X107.425 Y44.182 E184.46729
G1 X108.318 Y43.750 F7800.000
M101 ; extruder on
G1 X114.682 Y43.750 E185.37143 F1800.000
G1 X114.682 Y40.750 E185.79766
G1 X116.250 Y40.750 E186.02046
G1 X116.250 Y74.250 E190.78006
G1 X114.682 Y74.250 E191.00285
G1 X114.682 Y71.250 E191.42909
G1 X108.318 Y71.250 E192.33323
G1 X108.318 Y74.250 E192.75946
G1 X34.682 Y74.250 E203.22152
G1 X34.682 Y71.250 E203.64775
G1 X28.318 Y71.250 E204.55189
G1 X28.318 Y74.250 E204.97812
G1 X26.750 Y74.250 E205.20092
G1 X26.750 Y40.750 E209.96051
G1 X28.318 Y40.750 E210.18331
G1 X28.318 Y43.750 E210.60955
G1 X34.682 Y43.750 E211.51368
G1 X34.682 Y40.750 E211.93992
G1 X108.318 Y40.750 E222.40198
G1 X108.318 Y43.675 E222.81755
G1 X108.318 Y44.250 F7800.000
G1 E220.81755 F2400.00000
M103 ; extruder off
G1 X108.818 Y43.250 F7800.000
G1 X108.818 Y43.250 F7800.000
G1 X101.615 Y52.485 F7800.000
M101 ; extruder on
G1 E222.81755 F2400.00000
G1 X101.615 Y62.515 E224.24248 F1800.000
G1 X41.185 Y62.515 E232.82810
G1 X41.185 Y52.485 E234.25303
G1 X101.540 Y52.485 E242.82800
G1 X102.507 Y51.593 F7800.000
M101 ; extruder on
G1 X102.507 Y63.407 E244.50659 F1800.000
G1 X40.293 Y63.407 E253.34588
G1 X40.293 Y51.593 E255.02447
G1 X102.432 Y51.593 E263.85311
G1 X103.400 Y50.700 F7800.000
M101 ; extruder on
G1 X103.400 Y64.300 E265.78536 F1800.000
G1 X39.400 Y64.300 E274.87832
G1 X39.400 Y50.700 E276.81057
G1 X103.325 Y50.700 E285.89287
G1 X103.150 Y51.133 F7800.000
G1 X101.065 Y53.454 F7800.000
M101 ; extruder on
G1 X100.646 Y53.035 E285.97765 F1800.000
G1 X99.374 Y53.035 E286.15978
G1 X101.065 Y54.726 E286.50213
G1 X101.065 Y55.998 E286.68426
G1 X98.102 Y53.035 E287.28417
G1 X96.830 Y53.035 E287.46630
G1 X101.065 Y57.270 E288.32377
G1 X101.065 Y58.542 E288.50590
G1 X95.558 Y53.035 E289.62095
G1 X94.286 Y53.035 E289.80307
G1 X101.065 Y59.814 E291.17568
G1 X101.065 Y61.086 E291.35781
G1 X93.014 Y53.035 E292.98799
G1 X91.741 Y53.035 E293.17011
G1 X100.672 Y61.965 E294.97822
G1 X99.400 Y61.965 E295.16035
G1 X90.469 Y53.035 E296.96846
G1 X89.197 Y53.035 E297.15059
G1 X98.128 Y61.965 E298.95870
G1 X96.855 Y61.965 E299.14083
G1 X87.925 Y53.035 E300.94894
G1 X86.653 Y53.035 E301.13106
G1 X95.583 Y61.965 E302.93917
G1 X94.311 Y61.965 E303.12130
G1 X85.381 Y53.035 E304.92941
G1 X84.109 Y53.035 E305.11154
G1 X93.039 Y61.965 E306.91965
G1 X91.767 Y61.965 E307.10177
G1 X82.837 Y53.035 E308.90988
G1 X81.564 Y53.035 E309.09201
G1 X90.495 Y61.965 E310.90012
G1 X89.223 Y61.965 E311.08225
G1 X80.292 Y53.035 E312.89036
G1 X79.020 Y53.035 E313.07248
G1 X87.951 Y61.965 E314.88059
G1 X86.678 Y61.965 E315.06272
G1 X77.748 Y53.035 E316.87083
G1 X76.476 Y53.035 E317.05296
G1 X85.406 Y61.965 E318.86107
G1 X84.134 Y61.965 E319.04320
G1 X75.204 Y53.035 E320.85131
G1 X73.932 Y53.035 E321.03343
G1 X82.862 Y61.965 E322.84154
G1 X81.590 Y61.965 E323.02367
G1 X72.659 Y53.035 E324.83178
G1 X71.387 Y53.035 E325.01391
G1 X80.318 Y61.965 E326.82202
G1 X79.046 Y61.965 E327.00414
G1 X70.115 Y53.035 E328.81225
G1 X68.843 Y53.035 E328.99438
G1 X77.773 Y61.965 E330.80249
G1 X76.501 Y61.965 E330.98462
G1 X67.571 Y53.035 E332.79273
G1 X66.299 Y53.035 E332.97486
G1 X75.229 Y61.965 E334.78297
G1 X73.957 Y61.965 E334.96509
G1 X65.027 Y53.035 E336.77320
G1 X63.754 Y53.035 E336.95533
G1 X72.685 Y61.965 E338.76344
G1 X71.413 Y61.965 E338.94557
G1 X62.482 Y53.035 E340.75368
G1 X61.210 Y53.035 E340.93580
G1 X70.141 Y61.965 E342.74391
G1 X68.868 Y61.965 E342.92604
G1 X59.938 Y53.035 E344.73415
G1 X58.666 Y53.035 E344.91628
G1 X67.596 Y61.965 E346.72439
G1 X66.324 Y61.965 E346.90651
G1 X57.394 Y53.035 E348.71462
G1 X56.122 Y53.035 E348.89675
G1 X65.052 Y61.965 E350.70486
G1 X63.780 Y61.965 E350.88699
G1 X54.849 Y53.035 E352.69510
G1 X53.577 Y53.035 E352.87723
G1 X62.508 Y61.965 E354.68534
G1 X61.236 Y61.965 E354.86746
G1 X52.305 Y53.035 E356.67557
G1 X51.033 Y53.035 E356.85770
G1 X59.963 Y61.965 E358.66581
G1 X58.691 Y61.965 E358.84794
G1 X49.761 Y53.035 E360.65605
G1 X48.489 Y53.035 E360.83817
G1 X57.419 Y61.965 E362.64628
G1 X56.147 Y61.965 E362.82841
G1 X47.217 Y53.035 E364.63652
G1 X45.945 Y53.035 E364.81865
G1 X54.875 Y61.965 E366.62676
G1 X53.603 Y61.965 E366.80888
G1 X44.672 Y53.035 E368.61700
G1 X43.400 Y53.035 E368.79912
G1 X52.331 Y61.965 E370.60723
G1 X51.059 Y61.965 E370.78936
G1 X42.128 Y53.035 E372.59747
G1 X41.735 Y53.914 E372.73531
G1 X49.786 Y61.965 E374.36549
G1 X48.514 Y61.965 E374.54762
G1 X41.735 Y55.186 E375.92023
G1 X41.735 Y56.458 E376.10235
G1 X47.242 Y61.965 E377.21740
G1 X45.970 Y61.965 E377.39952
G1 X41.735 Y57.730 E378.25700
G1 X41.735 Y59.002 E378.43913
G1 X44.698 Y61.965 E379.03904
G1 X43.426 Y61.965 E379.22117
G1 X41.735 Y60.274 E379.56351
G1 X41.735 Y61.546 E379.74564
G1 X42.154 Y61.965 E379.83042
G1 E377.83042 F2400.00000
M103 ; extruder off
G1 X34.182 Y71.750 F7800.000
G1 X34.182 Y71.750 F7800.000
G1 X35.128 Y70.550 F7800.000
M101 ; extruder on
G1 E379.83042 F2400.00000
G1 X31.041 Y70.550 E380.41109 F1800.000
G1 X29.119 Y69.018 F7800.000
M101 ; extruder on
G1 X29.119 Y45.982 E383.68406 F1800.000
G1 X27.534 Y44.196 F7800.000
M101 ; extruder on
G1 X27.534 Y41.196 E384.58776 F1800.000
G1 X27.818 Y41.250 F7800.000
G1 X27.818 Y44.818 F7800.000
G1 X30.587 Y44.650 F7800.000
G1 X30.988 Y44.450 F7800.000
G1 X31.041 Y44.450 F7800.000
M101 ; extruder on
G1 X35.128 Y44.450 E385.16843 F1800.000
G1 X30.587 Y44.650 F7800.000
G1 X29.119 Y68.881 F7800.000
G1 X27.818 Y70.182 F7800.000
G1 X27.534 Y70.750 F7800.000
G1 X27.534 Y70.804 F7800.000
M101 ; extruder on
G1 X27.534 Y73.804 E386.07213 F1800.000
G1 E384.07213 F2400.00000
M103 ; extruder off
G1 X35.182 Y73.750 F7800.000
G1 X106.118 Y72.050 F7800.000
G1 X107.418 Y70.750 F7800.000
G1 X107.818 Y70.550 F7800.000
G1 X107.872 Y70.550 F7800.000
M101 ; extruder on
G1 E386.07213 F2400.00000
G1 X111.934 Y70.550 E386.64925 F1800.000
G1 X113.869 Y69.018 F7800.000
M101 ; extruder on
G1 X113.869 Y45.982 E389.92222 F1800.000
G1 X115.466 Y44.196 F7800.000
M101 ; extruder on
G1 X115.466 Y41.196 E390.82591 F1800.000
G1 X115.182 Y41.250 F7800.000
G1 X115.182 Y44.818 F7800.000
G1 X112.388 Y44.650 F7800.000
G1 X111.987 Y44.450 F7800.000
G1 X111.934 Y44.450 F7800.000
M101 ; extruder on
G1 X107.872 Y44.450 E391.40304 F1800.000
G1 X112.388 Y44.650 F7800.000
G1 X113.869 Y68.869 F7800.000
G1 X115.182 Y70.182 F7800.000
G1 X115.466 Y70.750 F7800.000
G1 X115.466 Y70.804 F7800.000
M101 ; extruder on
G1 X115.466 Y73.804 E392.30673 F1800.000
M73 P0
G1 Z0.900 F7800.000
G1 X111.258 Y44.727 F7800.000
M101 ; extruder on
G1 X111.258 Y70.273 E393.90340 F3600.000
G1 X31.672 Y70.273 E398.87758
G1 X31.672 Y44.727 E400.47425
G1 X111.183 Y44.727 E405.44374
G1 X110.768 Y45.217 F7800.000
M101 ; extruder on
G1 X110.768 Y69.783 E406.97905 F3600.000
G1 X32.162 Y69.783 E411.89187
G1 X32.162 Y45.217 E413.42718
G1 X110.693 Y45.217 E418.33531
G1 X110.315 Y45.670 F7800.000
M101 ; extruder on
G1 X110.315 Y45.900 E418.34744 F1800.000
M101 ; extruder on
G1 X110.315 Y69.100 E419.79744 F3600.000
M101 ; extruder on
G1 X110.315 Y69.330 E419.80956 F1800.000
G1 X32.615 Y69.330 E423.90687
G1 X32.615 Y69.100 E423.91900
M101 ; extruder on
G1 X32.615 Y45.900 E425.36900 F3600.000
M101 ; extruder on
G1 X32.615 Y45.670 E425.38113 F1800.000
G1 X110.240 Y45.670 E429.47448
G1 X110.545 Y45.670 F7800.000
G1 E427.47448 F2400.00000
M103 ; extruder off
G1 X108.075 Y43.993 F7800.000
M101 ; extruder on
G1 E429.47448 F2400.00000
G1 X114.925 Y43.993 E429.90264 F3600.000
G1 X114.925 Y40.993 E430.09014
G1 X116.007 Y40.993 E430.15772
G1 X116.007 Y74.007 E432.22105
G1 X114.925 Y74.007 E432.28863
G1 X114.925 Y71.007 E432.47613
G1 X108.075 Y71.007 E432.90429
G1 X108.075 Y74.007 E433.09179
G1 X34.925 Y74.007 E437.66363
G1 X34.925 Y71.007 E437.85113
G1 X28.075 Y71.007 E438.27929
G1 X28.075 Y74.007 E438.46679
G1 X26.993 Y74.007 E438.53437
G1 X26.993 Y40.993 E440.59770
G1 X28.075 Y40.993 E440.66529
G1 X28.075 Y43.993 E440.85279
G1 X34.925 Y43.993 E441.28094
G1 X34.925 Y40.993 E441.46844
G1 X108.075 Y40.993 E446.04029
G1 X108.075 Y43.918 E446.22310
G1 X108.566 Y43.503 F7800.000
M101 ; extruder on
G1 X114.434 Y43.503 E446.58989 F3600.000
G1 X114.434 Y40.503 E446.77739
G1 X116.497 Y40.503 E446.90634
G1 X116.497 Y74.497 E449.03102
G1 X114.434 Y74.497 E449.15997
G1 X114.434 Y71.497 E449.34747
G1 X108.566 Y71.497 E449.71427
G1 X108.566 Y74.497 E449.90177
G1 X34.434 Y74.497 E454.53497
G1 X34.434 Y71.497 E454.72247
G1 X28.566 Y71.497 E455.08927
G1 X28.566 Y74.497 E455.27677
G1 X26.503 Y74.497 E455.40571
G1 X26.503 Y40.503 E457.53040
G1 X28.566 Y40.503 E457.65934
G1 X28.566 Y43.503 E457.84684
G1 X34.434 Y43.503 E458.21364
G1 X34.434 Y40.503 E458.40114
G1 X108.566 Y40.503 E463.03434
G1 X108.566 Y43.428 E463.21715
G1 X109.018 Y43.050 F7800.000
M101 ; extruder on
G1 X113.982 Y43.050 E463.47890 F1800.000
G1 X113.982 Y40.050 E463.63710
G1 X116.950 Y40.050 E463.79361
G1 X116.950 Y74.950 E465.63398
G1 X113.982 Y74.950 E465.79049
G1 X113.982 Y71.950 E465.94869
G1 X109.018 Y71.950 E466.21044
G1 X109.018 Y74.950 E466.36864
G1 X33.982 Y74.950 E470.32548
G1 X33.982 Y71.950 E470.48368
G1 X29.018 Y71.950 E470.74542
G1 X29.018 Y74.950 E470.90362
G1 X26.050 Y74.950 E471.06014
G1 X26.050 Y40.050 E472.90050
G1 X29.018 Y40.050 E473.05702
G1 X29.018 Y43.050 E473.21521
G1 X33.982 Y43.050 E473.47696
G1 X33.982 Y40.050 E473.63516
G1 X109.018 Y40.050 E477.59200
G1 X109.018 Y42.975 E477.74625
G1 X109.018 Y43.550 F7800.000
G1 E475.74625 F2400.00000
M103 ; extruder off
G1 X109.268 Y42.800 F7800.000
G1 X109.268 Y42.800 F7800.000
G1 X103.607 Y50.493 F7800.000
M101 ; extruder on
G1 E477.74625 F2400.00000
G1 X103.607 Y64.507 E478.62207 F3600.000
G1 X39.193 Y64.507 E482.64790
G1 X39.193 Y50.493 E483.52372
G1 X103.532 Y50.493 E487.54486
G1 X104.097 Y50.003 F7800.000
M101 ; extruder on
G1 X104.097 Y64.997 E488.48205 F3600.000
G1 X38.703 Y64.997 E492.56923
G1 X38.703 Y50.003 E493.50642
G1 X104.022 Y50.003 E497.58892
G1 X104.550 Y65.450 F7800.000
M101 ; extruder on
G1 X38.250 Y65.450 E501.73267 F3600.000
G1 X38.250 Y49.550 E502.72642
G1 X104.550 Y49.550 E506.87017
G1 X104.550 Y65.375 E507.85923
G1 X103.065 Y64.214 F7800.000
M101 ; extruder on
G1 X103.314 Y63.965 E507.88129 F1200.000
G1 X103.314 Y63.267 E507.92512
G1 X102.367 Y64.214 E508.00918
G1 X101.670 Y64.214 E508.05302
G1 X103.314 Y62.570 E508.19907
G1 X103.314 Y61.872 E508.24291
G1 X100.972 Y64.214 E508.45095
G1 X100.274 Y64.214 E508.49479
G1 X103.314 Y61.174 E508.76483
G1 X103.314 Y60.476 E508.80867
G1 X99.576 Y64.214 E509.14071
G1 X98.878 Y64.214 E509.18455
G1 X103.314 Y59.778 E509.57859
G1 X103.314 Y59.081 E509.62243
G1 X98.181 Y64.214 E510.07846
G1 X97.483 Y64.214 E510.12230
G1 X103.314 Y58.383 E510.64033
G1 X103.314 Y57.685 E510.68417
G1 X96.785 Y64.214 E511.26420
G1 X96.087 Y64.214 E511.30803
G1 X103.314 Y56.987 E511.95006
G1 X103.314 Y56.289 E511.99390
G1 X95.389 Y64.214 E512.69792
G1 X94.692 Y64.214 E512.74176
G1 X103.314 Y55.592 E513.50777
G1 X103.314 Y54.894 E513.55161
G1 X93.994 Y64.214 E514.37963
G1 X93.296 Y64.214 E514.42346
G1 X103.314 Y54.196 E515.31348
G1 X103.314 Y53.498 E515.35731
G1 X92.598 Y64.214 E516.30932
G1 X91.900 Y64.214 E516.35316
G1 X103.314 Y52.801 E517.36716
G1 X103.314 Y52.103 E517.41100
G1 X91.203 Y64.214 E518.48700
G1 X90.505 Y64.214 E518.53084
G1 X103.314 Y51.405 E519.66884
G1 X103.234 Y50.786 E519.70801
G1 X89.807 Y64.214 E520.90095
G1 X89.109 Y64.214 E520.94479
G1 X102.536 Y50.786 E522.13773
G1 X101.839 Y50.786 E522.18157
G1 X88.412 Y64.214 E523.37451
G1 X87.714 Y64.214 E523.41835
G1 X101.141 Y50.786 E524.61130
G1 X100.443 Y50.786 E524.65513
G1 X87.016 Y64.214 E525.84808
G1 X86.318 Y64.214 E525.89191
G1 X99.745 Y50.786 E527.08486
G1 X99.047 Y50.786 E527.12870
G1 X85.620 Y64.214 E528.32164
G1 X84.923 Y64.214 E528.36548
G1 X98.350 Y50.786 E529.55842
G1 X97.652 Y50.786 E529.60226
G1 X84.225 Y64.214 E530.79520
G1 X83.527 Y64.214 E530.83904
G1 X96.954 Y50.786 E532.03198
G1 X96.256 Y50.786 E532.07582
G1 X82.829 Y64.214 E533.26876
G1 X82.131 Y64.214 E533.31260
G1 X95.558 Y50.786 E534.50554
G1 X94.861 Y50.786 E534.54938
G1 X81.434 Y64.214 E535.74232
G1 X80.736 Y64.214 E535.78616
G1 X94.163 Y50.786 E536.97911
G1 X93.465 Y50.786 E537.02294
G1 X80.038 Y64.214 E538.21589
G1 X79.340 Y64.214 E538.25972
G1 X92.767 Y50.786 E539.45267
G1 X92.069 Y50.786 E539.49651
G1 X78.642 Y64.214 E540.68945
G1 X77.945 Y64.214 E540.73329
G1 X91.372 Y50.786 E541.92623
G1 X90.674 Y50.786 E541.97007
G1 X77.247 Y64.214 E543.16301
G1 X76.549 Y64.214 E543.20685
G1 X89.976 Y50.786 E544.39979
G1 X89.278 Y50.786 E544.44363
G1 X75.851 Y64.214 E545.63657
G1 X75.153 Y64.214 E545.68041
G1 X88.580 Y50.786 E546.87335
G1 X87.883 Y50.786 E546.91719
G1 X74.456 Y64.214 E548.11013
G1 X73.758 Y64.214 E548.15397
G1 X87.185 Y50.786 E549.34692
G1 X86.487 Y50.786 E549.39075
G1 X73.060 Y64.214 E550.58370
G1 X72.362 Y64.214 E550.62753
G1 X85.789 Y50.786 E551.82048
G1 X85.091 Y50.786 E551.86432
G1 X71.664 Y64.214 E553.05726
G1 X70.967 Y64.214 E553.10110
G1 X84.394 Y50.786 E554.29404
G1 X83.696 Y50.786 E554.33788
