; generated by Slic3r 1.2.9 on 2017-09-19 at 17:37:38

; external perimeters extrusion width = 0.50mm
; perimeters extrusion width = 0.58mm
; infill extrusion width = 0.58mm
; solid infill extrusion width = 0.58mm
; top infill extrusion width = 0.58mm

M127
M109 S210 ; set bed temperature
M104 S220 T0 ; set temperature
G28 ; home all axes
G1 Z5 F5000 ; lift nozzle

M73 P0
G1 Z0.500 F7800.000
G1 E-2.00000 F2400.00000
M103 ; extruder off
G1 X21.912 Y33.615 F7800.000
M101 ; extruder on
G1 E0.00000 F2400.00000
G1 X24.087 Y32.754 E0.33242 F1800.000
G1 X25.500 Y32.607 E0.53420
G1 X117.500 Y32.607 E13.60532
G1 X119.806 Y33.004 E13.93774
M101 ; extruder on
G1 X121.846 Y34.150 E14.27016 F1800.000
G1 X123.385 Y35.912 E14.60258
G1 X124.246 Y38.087 E14.93499
G1 X124.393 Y39.500 E15.13677
G1 X124.393 Y75.500 E20.25156
G1 X123.996 Y77.806 E20.58398
G1 X122.850 Y79.846 E20.91640
G1 X121.088 Y81.385 E21.24882
G1 X118.913 Y82.246 E21.58123
G1 X117.500 Y82.393 E21.78301
G1 X25.500 Y82.393 E34.85414
G1 X23.194 Y81.996 E35.18656
G1 X21.154 Y80.850 E35.51898
G1 X19.615 Y79.088 E35.85139
G1 X18.754 Y76.913 E36.18381
G1 X18.607 Y75.500 E36.38559
G1 X18.607 Y39.500 E41.50038
G1 X19.004 Y37.194 E41.83280
G1 X20.150 Y35.154 E42.16522
G1 X21.855 Y33.664 E42.48698
G1 E40.48698 F2400.00000
M103 ; extruder off
G1 X35.621 Y70.215 F7800.000
M101 ; extruder on
G1 E42.48698 F2400.00000
G1 X27.785 Y70.215 E43.60024 F1800.000
G1 X27.785 Y44.785 E47.21316
G1 X35.621 Y44.785 E48.32642
G1 X35.621 Y41.785 E48.75265
G1 X107.379 Y41.785 E58.94785
G1 X107.379 Y44.785 E59.37408
G1 X115.215 Y44.785 E60.48734
G1 X115.215 Y70.215 E64.10026
G1 X107.379 Y70.215 E65.21352
G1 X107.379 Y73.215 E65.63975
G1 X35.621 Y73.215 E75.83495
G1 X35.621 Y70.290 E76.25052
G1 X34.728 Y71.107 F7800.000
M101 ; extruder on
G1 X28.272 Y71.107 E77.16786 F1800.000
G1 X28.272 Y74.107 E77.59409
G1 X26.893 Y74.107 E77.79002
G1 X26.893 Y40.893 E82.50907
G1 X28.272 Y40.893 E82.70499
G1 X28.272 Y43.893 E83.13122
G1 X34.728 Y43.893 E84.04856
G1 X34.728 Y40.893 E84.47479
G1 X108.272 Y40.893 E94.92365
G1 X108.272 Y43.893 E95.34988
G1 X114.728 Y43.893 E96.26722
G1 X114.728 Y40.893 E96.69346
G1 X116.107 Y40.893 E96.88938
G1 X116.107 Y74.107 E101.60843
G1 X114.728 Y74.107 E101.80435
G1 X114.728 Y71.107 E102.23058
G1 X108.272 Y71.107 E103.14792
G1 X108.272 Y74.107 E103.57415
G1 X34.728 Y74.107 E114.02301
G1 X34.728 Y71.182 E114.43859
G1 X33.836 Y72.000 F7800.000
M101 ; extruder on
G1 X29.164 Y72.000 E115.10226 F1800.000
G1 X29.164 Y75.000 E115.52850
G1 X26.000 Y75.000 E115.97808
G1 X26.000 Y40.000 E120.95080
G1 X29.164 Y40.000 E121.40039
G1 X29.164 Y43.000 E121.82662
G1 X33.836 Y43.000 E122.49029
G1 X33.836 Y40.000 E122.91652
G1 X109.164 Y40.000 E133.61905
G1 X109.164 Y43.000 E134.04528
G1 X113.836 Y43.000 E134.70895
G1 X113.836 Y40.000 E135.13519
G1 X117.000 Y40.000 E135.58478
G1 X117.000 Y75.000 E140.55749
G1 X113.836 Y75.000 E141.00708
G1 X113.836 Y72.000 E141.43331
G1 X109.164 Y72.000 E142.09698
G1 X109.164 Y75.000 E142.52321
G1 X33.836 Y75.000 E153.22574
G1 X33.836 Y72.075 E153.64132
G1 X33.836 Y71.500 F7800.000
G1 X36.170 Y71.974 F7800.000
M101 ; extruder on
G1 X36.862 Y72.665 E153.78179 F1800.000
G1 X38.139 Y72.665 E153.96532
G1 X36.170 Y70.697 E154.36534
G1 X28.335 Y69.246 F7800.000
M101 ; extruder on
G1 X28.754 Y69.665 E154.45045 F1800.000
G1 X30.031 Y69.665 E154.63398
G1 X28.335 Y67.969 E154.97862
G1 X28.335 Y66.692 E155.16215
G1 X31.308 Y69.665 E155.76634
G1 X32.585 Y69.665 E155.94987
G1 X28.335 Y65.415 E156.81361
G1 X28.335 Y64.138 E156.99713
G1 X33.862 Y69.665 E158.12042
G1 X35.139 Y69.665 E158.30394
G1 X28.335 Y62.861 E159.68677
G1 X28.335 Y61.584 E159.87030
G1 X39.416 Y72.665 E162.12240
G1 X40.693 Y72.665 E162.30593
G1 X28.335 Y60.307 E164.81758
G1 X28.335 Y59.030 E165.00110
G1 X41.970 Y72.665 E167.77229
G1 X43.247 Y72.665 E167.95582
G1 X28.335 Y57.753 E170.98656
G1 X28.335 Y56.476 E171.17008
G1 X44.524 Y72.665 E174.46037
G1 X45.801 Y72.665 E174.64389
G1 X28.335 Y55.199 E178.19372
G1 X28.335 Y53.922 E178.37724
G1 X47.078 Y72.665 E182.18662
G1 X48.355 Y72.665 E182.37014
G1 X28.335 Y52.645 E186.43906
G1 X28.335 Y51.368 E186.62258
G1 X49.632 Y72.665 E190.95105
G1 X50.909 Y72.665 E191.13457
G1 X28.335 Y50.091 E195.72258
G1 X28.335 Y48.814 E195.90610
G1 X52.186 Y72.665 E200.75365
G1 X53.463 Y72.665 E200.93718
G1 X28.335 Y47.537 E206.04428
G1 X28.335 Y46.260 E206.22780
G1 X54.740 Y72.665 E211.59444
G1 X56.017 Y72.665 E211.77797
G1 X28.686 Y45.335 E217.33269
G1 X29.963 Y45.335 E217.51621
G1 X57.294 Y72.665 E223.07093
G1 X58.571 Y72.665 E223.25446
G1 X31.240 Y45.335 E228.80918
G1 X32.517 Y45.335 E228.99270
G1 X59.848 Y72.665 E234.54742
G1 X61.125 Y72.665 E234.73095
G1 X33.794 Y45.335 E240.28566
G1 X35.072 Y45.335 E240.46919
G1 X62.402 Y72.665 E246.02391
G1 X63.679 Y72.665 E246.20744
G1 X36.170 Y45.157 E251.79835
G1 X36.170 Y43.880 E251.98188
G1 X64.956 Y72.665 E257.83235
G1 X66.233 Y72.665 E258.01587
G1 X36.170 Y42.603 E264.12588
G1 X37.180 Y42.335 E264.27593
G1 X67.510 Y72.665 E270.44038
G1 X68.787 Y72.665 E270.62391
G1 X38.457 Y42.335 E276.78836
G1 X39.734 Y42.335 E276.97188
G1 X70.064 Y72.665 E283.13633
G1 X71.341 Y72.665 E283.31986
G1 X41.011 Y42.335 E289.48431
G1 X42.288 Y42.335 E289.66783
G1 X72.618 Y72.665 E295.83228
G1 X73.895 Y72.665 E296.01581
G1 X43.565 Y42.335 E302.18025
G1 X44.842 Y42.335 E302.36378
G1 X75.172 Y72.665 E308.52823
G1 X76.449 Y72.665 E308.71176
G1 X46.119 Y42.335 E314.87620
G1 X47.396 Y42.335 E315.05973
G1 X77.726 Y72.665 E321.22418
G1 X79.003 Y72.665 E321.40770
G1 X48.673 Y42.335 E327.57215
G1 X49.950 Y42.335 E327.75568
G1 X80.280 Y72.665 E333.92013
G1 X81.557 Y72.665 E334.10365
G1 X51.227 Y42.335 E340.26810
G1 X52.504 Y42.335 E340.45163
G1 X82.834 Y72.665 E346.61608
G1 X84.111 Y72.665 E346.79960
G1 X53.781 Y42.335 E352.96405
G1 X55.058 Y42.335 E353.14758
G1 X85.388 Y72.665 E359.31203
G1 X86.665 Y72.665 E359.49555
G1 X56.335 Y42.335 E365.66000
G1 X57.612 Y42.335 E365.84353
G1 X87.942 Y72.665 E372.00798
G1 X89.219 Y72.665 E372.19150
G1 X58.889 Y42.335 E378.35595
G1 X60.166 Y42.335 E378.53948
G1 X90.496 Y72.665 E384.70392
G1 X91.773 Y72.665 E384.88745
G1 X61.443 Y42.335 E391.05190
G1 X62.720 Y42.335 E391.23543
G1 X93.050 Y72.665 E397.39987
G1 X94.327 Y72.665 E397.58340
G1 X63.997 Y42.335 E403.74785
G1 X65.274 Y42.335 E403.93137
G1 X95.604 Y72.665 E410.09582
G1 X96.881 Y72.665 E410.27935
G1 X66.551 Y42.335 E416.44380
G1 X67.828 Y42.335 E416.62732
G1 X98.158 Y72.665 E422.79177
G1 X99.435 Y72.665 E422.97530
G1 X69.105 Y42.335 E429.13975
G1 X70.382 Y42.335 E429.32327
G1 X100.712 Y72.665 E435.48772
G1 X101.989 Y72.665 E435.67125
G1 X71.659 Y42.335 E441.83570
G1 X72.936 Y42.335 E442.01922
G1 X103.266 Y72.665 E448.18367
G1 X104.543 Y72.665 E448.36720
G1 X74.213 Y42.335 E454.53165
G1 X75.490 Y42.335 E454.71517
G1 X105.820 Y72.665 E460.87962
G1 X106.830 Y72.397 E461.02967
G1 X76.767 Y42.335 E467.13968
G1 X78.044 Y42.335 E467.32321
G1 X106.830 Y71.120 E473.17368
G1 X106.830 Y69.843 E473.35720
G1 X79.321 Y42.335 E478.94812
G1 X80.598 Y42.335 E479.13165
G1 X107.928 Y69.665 E484.68637
G1 X109.205 Y69.665 E484.86989
G1 X81.875 Y42.335 E490.42461
G1 X83.152 Y42.335 E490.60814
G1 X110.483 Y69.665 E496.16286
G1 X111.760 Y69.665 E496.34638
G1 X84.429 Y42.335 E501.90110
G1 X85.706 Y42.335 E502.08463
G1 X113.037 Y69.665 E507.63935
G1 X114.314 Y69.665 E507.82287
G1 X86.983 Y42.335 E513.37759
G1 X88.260 Y42.335 E513.56112
G1 X114.665 Y68.740 E518.92776
G1 X114.665 Y67.463 E519.11128
G1 X89.537 Y42.335 E524.21838
G1 X90.814 Y42.335 E524.40191
G1 X114.665 Y66.186 E529.24946
G1 X114.665 Y64.909 E529.43299
G1 X92.091 Y42.335 E534.02099
G1 X93.368 Y42.335 E534.20452
G1 X114.665 Y63.632 E538.53298
G1 X114.665 Y62.355 E538.71651
G1 X94.645 Y42.335 E542.78543
G1 X95.922 Y42.335 E542.96895
G1 X114.665 Y61.078 E546.77833
G1 X114.665 Y59.801 E546.96185
G1 X97.199 Y42.335 E550.51168
G1 X98.476 Y42.335 E550.69521
G1 X114.665 Y58.524 E553.98549
G1 X114.665 Y57.247 E554.16902
G1 X99.753 Y42.335 E557.19976
G1 X101.030 Y42.335 E557.38328
G1 X114.665 Y55.970 E560.15448
G1 X114.665 Y54.693 E560.33800
G1 X102.307 Y42.335 E562.84965
G1 X106.138 Y42.335 F7800.000
M101 ; extruder on
G1 X106.830 Y43.026 E562.99013 F1800.000
G1 X106.830 Y44.303 E563.17366
G1 X104.861 Y42.335 E563.57368
G1 X103.584 Y42.335 E563.75721
G1 X114.665 Y53.416 E566.00931
G1 X114.665 Y52.139 E566.19284
G1 X107.861 Y45.335 E567.57567
G1 X109.138 Y45.335 E567.75920
G1 X114.665 Y50.862 E568.88248
G1 X114.665 Y49.585 E569.06601
G1 X110.415 Y45.335 E569.92975
G1 X111.692 Y45.335 E570.11327
G1 X114.665 Y48.308 E570.71747
G1 X114.665 Y47.031 E570.90100
G1 X112.969 Y45.335 E571.24565
G1 X114.246 Y45.335 E571.42917
G1 X114.665 Y45.754 E571.51428
G1 X115.418 Y44.339 F7800.000
M101 ; extruder on
G1 X115.418 Y41.339 E571.94051 F1800.000
G1 X115.418 Y70.661 F7800.000
M101 ; extruder on
G1 X115.418 Y73.661 E572.36674 F1800.000
G1 X115.418 Y71.500 F7800.000
G1 X43.979 Y57.500 F7800.000
G1 X28.664 Y69.336 F7800.000
G1 X27.582 Y71.500 F7800.000
G1 X27.582 Y73.418 F7800.000
G1 X27.582 Y73.661 F7800.000
M101 ; extruder on
G1 X27.582 Y70.661 E572.79297 F1800.000
G1 X27.582 Y44.339 F7800.000
M101 ; extruder on
G1 X27.582 Y41.339 E573.21920 F1800.000
M73 P0
G1 Z0.900 F7800.000
G1 X34.654 Y71.307 F7800.000
M101 ; extruder on
G1 X28.346 Y71.307 E573.61344 F3600.000
G1 X28.346 Y74.307 E573.80094
G1 X26.693 Y74.307 E573.90423
G1 X26.693 Y40.693 E576.00506
G1 X28.346 Y40.693 E576.10836
G1 X28.346 Y43.693 E576.29586
G1 X34.654 Y43.693 E576.69009
G1 X34.654 Y40.693 E576.87759
G1 X108.346 Y40.693 E581.48336
G1 X108.346 Y43.693 E581.67086
G1 X114.654 Y43.693 E582.06509
G1 X114.654 Y40.693 E582.25259
G1 X116.307 Y40.693 E582.35589
G1 X116.307 Y74.307 E584.45671
G1 X114.654 Y74.307 E584.56001
G1 X114.654 Y71.307 E584.74751
G1 X108.346 Y71.307 E585.14175
G1 X108.346 Y74.307 E585.32925
G1 X34.654 Y74.307 E589.93501
G1 X34.654 Y71.382 E590.11782
G1 X34.163 Y71.797 F7800.000
M101 ; extruder on
G1 X28.837 Y71.797 E590.45070 F3600.000
G1 X28.837 Y74.797 E590.63820
G1 X26.203 Y74.797 E590.80285
G1 X26.203 Y40.203 E592.96504
G1 X28.837 Y40.203 E593.12969
G1 X28.837 Y43.203 E593.31719
G1 X34.163 Y43.203 E593.65007
G1 X34.163 Y40.203 E593.83757
G1 X108.837 Y40.203 E598.50469
G1 X108.837 Y43.203 E598.69219
G1 X114.163 Y43.203 E599.02507
G1 X114.163 Y40.203 E599.21257
G1 X116.797 Y40.203 E599.37722
G1 X116.797 Y74.797 E601.53941
G1 X114.163 Y74.797 E601.70406
G1 X114.163 Y71.797 E601.89156
G1 X108.837 Y71.797 E602.22444
G1 X108.837 Y74.797 E602.41194
G1 X34.163 Y74.797 E607.07906
G1 X34.163 Y71.872 E607.26187
G1 X33.711 Y72.250 F7800.000
M101 ; extruder on
G1 X29.289 Y72.250 E607.49500 F1800.000
G1 X29.289 Y75.250 E607.65320
G1 X25.750 Y75.250 E607.83985
G1 X25.750 Y39.750 E609.71185
G1 X29.289 Y39.750 E609.89849
G1 X29.289 Y42.750 E610.05669
G1 X33.711 Y42.750 E610.28982
G1 X33.711 Y39.750 E610.44802
G1 X109.289 Y39.750 E614.43348
G1 X109.289 Y42.750 E614.59168
G1 X113.711 Y42.750 E614.82481
G1 X113.711 Y39.750 E614.98300
G1 X117.250 Y39.750 E615.16965
G1 X117.250 Y75.250 E617.04165
G1 X113.711 Y75.250 E617.22830
G1 X113.711 Y72.250 E617.38649
G1 X109.289 Y72.250 E617.61962
G1 X109.289 Y75.250 E617.77782
G1 X33.711 Y75.250 E621.76328
G1 X33.711 Y72.325 E621.91753
G1 X33.711 Y71.750 F7800.000
G1 X28.053 Y71.426 F7800.000
M101 ; extruder on
G1 X26.986 Y72.492 E622.01185 F1200.000
G1 X26.986 Y73.187 E622.05529
G1 X28.053 Y72.120 E622.14962
G1 X28.053 Y72.815 E622.19306
G1 X26.986 Y73.881 E622.28738
G1 X27.549 Y74.014 E622.32352
G1 X28.053 Y73.510 E622.36809
G1 X33.959 Y43.986 F7800.000
M101 ; extruder on
G1 X26.986 Y50.959 E622.98476 F1200.000
G1 X26.986 Y50.265 E623.02820
G1 X33.265 Y43.986 E623.58344
G1 X32.570 Y43.986 E623.62688
G1 X26.986 Y49.570 E624.12069
G1 X26.986 Y48.875 E624.16413
G1 X31.875 Y43.986 E624.59650
G1 X31.181 Y43.986 E624.63994
G1 X26.986 Y48.181 E625.01088
G1 X26.986 Y47.486 E625.05432
G1 X30.486 Y43.986 E625.36383
G1 X29.791 Y43.986 E625.40727
G1 X26.986 Y46.791 E625.65534
G1 X26.986 Y46.097 E625.69878
G1 X29.097 Y43.986 E625.88543
G1 X28.402 Y43.986 E625.92887
G1 X26.986 Y45.402 E626.05408
G1 X26.986 Y44.708 E626.09752
G1 X28.053 Y43.641 E626.19184
G1 X28.053 Y42.946 E626.23528
G1 X26.986 Y44.013 E626.32961
G1 X26.986 Y43.318 E626.37305
G1 X28.053 Y42.252 E626.46737
G1 X28.053 Y41.557 E626.51081
G1 X26.986 Y42.624 E626.60514
G1 X26.986 Y41.929 E626.64858
G1 X27.929 Y40.986 E626.73195
G1 X28.540 Y45.540 F7800.000
G1 X34.460 Y43.500 F7800.000
G1 X37.460 Y43.500 F7800.000
G1 X34.460 Y40.500 F7800.000
G1 X34.947 Y41.609 F7800.000
M101 ; extruder on
G1 X35.570 Y40.986 E626.78704 F1200.000
G1 X36.265 Y40.986 E626.83048
G1 X34.947 Y42.304 E626.94701
G1 X34.947 Y42.999 E626.99044
G1 X36.959 Y40.986 E627.16840
G1 X37.654 Y40.986 E627.21184
G1 X34.947 Y43.693 E627.45123
G1 X34.654 Y43.986 F7800.000
M101 ; extruder on
G1 X26.986 Y51.654 E628.12934 F1200.000
G1 X26.986 Y52.348 E628.17278
G1 X38.348 Y40.986 E629.17764
G1 X39.043 Y40.986 E629.22108
G1 X26.986 Y53.043 E630.28737
G1 X26.986 Y53.738 E630.33081
G1 X39.738 Y40.986 E631.45854
G1 X40.432 Y40.986 E631.50198
G1 X26.986 Y54.432 E632.69114
G1 X26.986 Y55.127 E632.73458
G1 X41.127 Y40.986 E633.98517
G1 X41.821 Y40.986 E634.02861
G1 X26.986 Y55.821 E635.34063
G1 X26.986 Y56.516 E635.38407
G1 X42.516 Y40.986 E636.75753
G1 X43.211 Y40.986 E636.80097
G1 X26.986 Y57.211 E638.23586
G1 X26.986 Y57.905 E638.27930
G1 X43.905 Y40.986 E639.77562
G1 X44.600 Y40.986 E639.81906
G1 X26.986 Y58.600 E641.37681
G1 X26.986 Y59.295 E641.42025
G1 X45.295 Y40.986 E643.03944
G1 X45.989 Y40.986 E643.08288
G1 X26.986 Y59.989 E644.76350
G1 X26.986 Y60.684 E644.80694
G1 X46.684 Y40.986 E646.54899
G1 X47.378 Y40.986 E646.59243
G1 X26.986 Y61.378 E648.39592
G1 X26.986 Y62.073 E648.43936
G1 X48.073 Y40.986 E650.30428
G1 X48.768 Y40.986 E650.34771
G1 X26.986 Y62.768 E652.27407
G1 X26.986 Y63.462 E652.31751
G1 X49.462 Y40.986 E654.30529
G1 X50.157 Y40.986 E654.34873
G1 X26.986 Y64.157 E656.39795
G1 X26.986 Y64.851 E656.44138
G1 X50.851 Y40.986 E658.55203
G1 X51.546 Y40.986 E658.59547
G1 X26.986 Y65.546 E660.76755
G1 X26.986 Y66.241 E660.81099
G1 X52.241 Y40.986 E663.04451
G1 X52.935 Y40.986 E663.08795
G1 X26.986 Y66.935 E665.38290
G1 X26.986 Y67.630 E665.42633
G1 X53.630 Y40.986 E667.78271
G1 X54.325 Y40.986 E667.82615
G1 X26.986 Y68.325 E670.24397
G1 X26.986 Y69.019 E670.28741
G1 X55.019 Y40.986 E672.76665
G1 X55.714 Y40.986 E672.81009
G1 X26.986 Y69.714 E675.35077
G1 X26.986 Y70.408 E675.39421
G1 X56.408 Y40.986 E677.99632
G1 X57.103 Y40.986 E678.03976
G1 X26.986 Y71.103 E680.70330
G1 X26.986 Y71.798 E680.74674
G1 X57.798 Y40.986 E683.47172
G1 X58.492 Y40.986 E683.51516
G1 X28.465 Y71.014 E686.17078
G1 X29.160 Y71.014 E686.21422
G1 X59.187 Y40.986 E688.86985
G1 X59.881 Y40.986 E688.91329
G1 X29.854 Y71.014 E691.56892
G1 X30.549 Y71.014 E691.61236
G1 X60.576 Y40.986 E694.26799
G1 X61.271 Y40.986 E694.31143
G1 X31.244 Y71.014 E696.96706
G1 X31.938 Y71.014 E697.01049
G1 X61.965 Y40.986 E699.66612
G1 X62.660 Y40.986 E699.70956
G1 X32.633 Y71.014 E702.36519
G1 X33.328 Y71.014 E702.40863
G1 X63.355 Y40.986 E705.06426
G1 X64.049 Y40.986 E705.10770
G1 X34.022 Y71.014 E707.76333
G1 X34.717 Y71.014 E707.80677
G1 X64.744 Y40.986 E710.46239
G1 X65.438 Y40.986 E710.50583
G1 X34.947 Y71.478 E713.20253
G1 X34.947 Y72.173 E713.24597
G1 X66.133 Y40.986 E716.00410
G1 X66.828 Y40.986 E716.04754
G1 X34.947 Y72.867 E718.86711
G1 X34.947 Y73.562 E718.91055
G1 X67.522 Y40.986 E721.79154
G1 X68.217 Y40.986 E721.83498
G1 X35.190 Y74.014 E724.75593
G1 X35.884 Y74.014 E724.79937
G1 X68.911 Y40.986 E727.72033
G1 X69.606 Y40.986 E727.76377
G1 X36.579 Y74.014 E730.68472
G1 X37.274 Y74.014 E730.72816
G1 X70.301 Y40.986 E733.64911
G1 X70.995 Y40.986 E733.69255
G1 X37.968 Y74.014 E736.61350
G1 X38.663 Y74.014 E736.65694
G1 X71.690 Y40.986 E739.57789
G1 X72.385 Y40.986 E739.62133
G1 X39.358 Y74.014 E742.54228
G1 X40.052 Y74.014 E742.58572
G1 X73.079 Y40.986 E745.50668
G1 X73.774 Y40.986 E745.55011
G1 X40.747 Y74.014 E748.47107
