; generated by Slic3r 1.2.9 on 2017-09-18 at 17:31:15

; external perimeters extrusion width = 0.50mm
; perimeters extrusion width = 0.58mm
; infill extrusion width = 0.58mm
; solid infill extrusion width = 0.58mm
; top infill extrusion width = 0.58mm

M127
M109 S220 ; set bed temperature
M104 S220 T0 ; set temperature
G28 ; home all axes
G1 Z5 F5000 ; lift nozzle

M73 P0
G1 Z0.500 F7800.000
G1 E-2.00000 F2400.00000
M103 ; extruder off
G1 X63.415 Y49.354 F7800.000
M101 ; extruder on
G1 E0.00000 F2400.00000
G1 X65.177 Y47.815 E0.33242 F1019.454
G1 X67.352 Y46.954 E0.66484
G1 X68.765 Y46.807 E0.86661
G1 X71.235 Y46.807 E1.21759
G1 X73.541 Y47.204 E1.55001
M101 ; extruder on
G1 X75.581 Y48.350 E1.88243 F1019.454
G1 X77.120 Y50.112 E2.21485
G1 X77.982 Y52.287 E2.54726
G1 X78.128 Y53.700 E2.74904
G1 X78.128 Y61.300 E3.82883
G1 X77.731 Y63.606 E4.16125
G1 X76.585 Y65.646 E4.49367
G1 X74.823 Y67.185 E4.82608
G1 X72.648 Y68.046 E5.15850
G1 X71.235 Y68.193 E5.36028
G1 X68.765 Y68.193 E5.71126
G1 X66.459 Y67.796 E6.04368
G1 X64.419 Y66.650 E6.37609
G1 X62.880 Y64.888 E6.70851
G1 X62.018 Y62.713 E7.04093
G1 X61.872 Y61.300 E7.24271
G1 X61.872 Y53.700 E8.32250
G1 X62.269 Y51.394 E8.65492
G1 X63.378 Y49.420 E8.97668
G1 E6.97668 F2400.00000
M103 ; extruder off
G1 X70.735 Y60.800 F7800.000
M101 ; extruder on
G1 E8.97668 F2400.00000
G1 X69.265 Y60.800 E9.18558 F1019.454
G1 X69.265 Y54.200 E10.12329
G1 X70.735 Y54.200 E10.33219
G1 X70.735 Y60.725 E11.25924
G1 X70.302 Y60.550 F7800.000
G1 X70.000 Y60.354 F7800.000
M101 ; extruder on
G1 X70.000 Y54.646 E12.07012 F1019.454
M73 P5
G1 Z0.900 F7800.000
G1 X70.883 Y60.107 F7800.000
M101 ; extruder on
G1 X69.117 Y60.107 E12.18046 F775.905
G1 X69.117 Y54.893 E12.50629
G1 X70.883 Y54.893 E12.61663
G1 X70.883 Y60.032 E12.93777
G1 X71.374 Y60.597 F7800.000
M101 ; extruder on
G1 X68.626 Y60.597 E13.10947 F775.905
G1 X68.626 Y54.403 E13.49666
G1 X71.374 Y54.403 E13.66836
G1 X71.374 Y60.522 E14.05086
G1 X71.826 Y61.050 F7800.000
M101 ; extruder on
G1 X71.485 Y61.050 E14.07217 F900.000
M101 ; extruder on
G1 X68.515 Y61.050 E14.22880 F775.905
M101 ; extruder on
G1 X68.174 Y61.050 E14.25011 F900.000
G1 X68.174 Y53.950 E14.69386
G1 X68.515 Y53.950 E14.71517
M101 ; extruder on
G1 X71.485 Y53.950 E14.87181 F775.905
M101 ; extruder on
G1 X71.826 Y53.950 E14.89312 F900.000
G1 X71.826 Y60.975 E15.33218
G1 X70.341 Y59.814 F7800.000
M101 ; extruder on
G1 X70.590 Y59.565 E15.35616 F1034.539
G1 X70.590 Y58.807 E15.40796
G1 X69.583 Y59.814 E15.50520
G1 X69.410 Y59.227 E15.54692
G1 X70.590 Y58.048 E15.66082
G1 X70.590 Y57.290 E15.71262
G1 X69.410 Y58.469 E15.82652
G1 X69.410 Y57.710 E15.87832
G1 X70.590 Y56.531 E15.99222
G1 X70.590 Y55.773 E16.04403
G1 X69.410 Y56.952 E16.15792
G1 X69.410 Y56.193 E16.20973
G1 X70.417 Y55.186 E16.30696
G1 X69.659 Y55.186 E16.35877
G1 X69.410 Y55.435 E16.38275
M73 P11
G1 Z1.300 F7800.000
G1 X71.376 Y60.107 F7800.000
M101 ; extruder on
G1 X68.624 Y60.107 E16.55473 F900.000
G1 X68.624 Y54.893 E16.88056
G1 X71.376 Y54.893 E17.05254
G1 X71.376 Y60.032 E17.37368
G1 X71.867 Y60.597 F7800.000
M101 ; extruder on
G1 X68.133 Y60.597 E17.60702 F900.000
G1 X68.133 Y54.403 E17.99421
G1 X71.867 Y54.403 E18.22755
G1 X71.867 Y60.522 E18.61005
G1 X72.319 Y61.050 F7800.000
M101 ; extruder on
G1 X67.681 Y61.050 E18.85465 F900.000
G1 X67.681 Y53.950 E19.22905
G1 X72.319 Y53.950 E19.47365
G1 X72.319 Y60.975 E19.84409
G1 X71.886 Y60.800 F7800.000
G1 E17.84409 F2400.00000
M103 ; extruder off
G1 X69.165 Y59.814 F7800.000
M101 ; extruder on
G1 E19.84409 F2400.00000
G1 X68.917 Y59.565 E19.86621 F1200.000
G1 X68.917 Y58.866 E19.91027
G1 X69.865 Y59.814 E19.99469
G1 X70.565 Y59.814 E20.03875
G1 X68.917 Y58.166 E20.18549
G1 X68.917 Y57.467 E20.22955
G1 X71.083 Y59.632 E20.42244
G1 X71.083 Y58.933 E20.46650
G1 X68.917 Y56.767 E20.65939
G1 X68.917 Y56.067 E20.70345
G1 X71.083 Y58.233 E20.89634
G1 X71.083 Y57.533 E20.94040
G1 X68.917 Y55.368 E21.13329
G1 X69.435 Y55.186 E21.16787
G1 X71.083 Y56.834 E21.31460
G1 X71.083 Y56.134 E21.35866
G1 X70.135 Y55.186 E21.44309
G1 X70.835 Y55.186 E21.48715
G1 X71.083 Y55.435 E21.50926
M126
M73 P16
G1 Z1.700 F7800.000
G1 X71.683 Y60.107 F7800.000
M101 ; extruder on
G1 X68.317 Y60.107 E21.71962 F900.000
G1 X68.317 Y54.893 E22.04544
G1 X71.683 Y54.893 E22.25579
G1 X71.683 Y60.032 E22.57693
G1 X72.174 Y60.597 F7800.000
M101 ; extruder on
G1 X67.826 Y60.597 E22.84864 F900.000
G1 X67.826 Y54.403 E23.23583
G1 X72.174 Y54.403 E23.50754
G1 X72.174 Y60.522 E23.89004
G1 X72.626 Y61.050 F7800.000
M101 ; extruder on
G1 X67.374 Y61.050 E24.16701 F900.000
G1 X67.374 Y53.950 E24.54141
G1 X72.626 Y53.950 E24.81839
G1 X72.626 Y60.975 E25.18883
G1 X72.193 Y60.800 F7800.000
G1 X71.141 Y59.814 F7800.000
M101 ; extruder on
G1 X71.390 Y59.565 E25.21310 F1200.000
G1 X71.390 Y58.797 E25.26617
G1 X70.374 Y59.814 E25.36550
G1 X69.606 Y59.814 E25.41857
G1 X71.390 Y58.030 E25.59295
G1 X71.390 Y57.262 E25.64602
G1 X68.838 Y59.814 E25.89545
G1 X68.610 Y59.274 E25.93596
G1 X71.390 Y56.494 E26.20767
G1 X71.390 Y55.726 E26.26074
G1 X68.610 Y58.506 E26.53245
G1 X68.610 Y57.738 E26.58552
G1 X71.162 Y55.186 E26.83496
G1 X70.394 Y55.186 E26.88803
G1 X68.610 Y56.970 E27.06241
G1 X68.610 Y56.203 E27.11548
G1 X69.626 Y55.186 E27.21480
G1 X68.859 Y55.186 E27.26787
G1 X68.610 Y55.435 E27.29214
M126
M73 P22
G1 Z2.100 F7800.000
G1 E25.29214 F2400.00000
M103 ; extruder off
G1 X71.950 Y60.107 F7800.000
M101 ; extruder on
G1 E27.29214 F2400.00000
G1 X68.050 Y60.107 E27.53593 F900.000
G1 X68.050 Y54.893 E27.86175
G1 X71.950 Y54.893 E28.10554
G1 X71.950 Y60.032 E28.42668
G1 X72.441 Y60.597 F7800.000
M101 ; extruder on
G1 X67.559 Y60.597 E28.73182 F900.000
G1 X67.559 Y54.403 E29.11901
G1 X72.441 Y54.403 E29.42415
G1 X72.441 Y60.522 E29.80665
G1 X72.894 Y61.050 F7800.000
M101 ; extruder on
G1 X67.106 Y61.050 E30.11183 F900.000
G1 X67.106 Y53.950 E30.48623
G1 X72.894 Y53.950 E30.79141
G1 X72.894 Y60.975 E31.16186
G1 X72.461 Y60.800 F7800.000
G1 E29.16186 F2400.00000
M103 ; extruder off
G1 X68.343 Y59.565 F7800.000
M101 ; extruder on
G1 E31.16186 F2400.00000
G1 X68.591 Y59.814 E31.18539 F900.000
G1 X69.336 Y59.814 E31.23529
G1 X68.343 Y58.821 E31.32939
G1 X68.343 Y58.076 E31.37930
G1 X70.080 Y59.814 E31.54397
G1 X70.825 Y59.814 E31.59387
G1 X68.343 Y57.332 E31.82912
G1 X68.343 Y56.587 E31.87902
G1 X71.569 Y59.814 E32.18484
G1 X71.657 Y59.157 E32.22923
G1 X68.343 Y55.843 E32.54340
G1 X68.431 Y55.186 E32.58779
G1 X71.657 Y58.413 E32.89361
G1 X71.657 Y57.668 E32.94351
G1 X69.175 Y55.186 E33.17876
G1 X69.920 Y55.186 E33.22866
G1 X71.657 Y56.924 E33.39334
G1 X71.657 Y56.179 E33.44324
G1 X70.664 Y55.186 E33.53734
G1 X71.409 Y55.186 E33.58724
G1 X71.657 Y55.435 E33.61078
M126
M73 P27
G1 Z2.500 F7800.000
G1 X72.607 Y60.597 F7800.000
M101 ; extruder on
G1 X71.501 Y60.597 E33.67987 F886.797
G1 X71.501 Y54.403 E34.06705
G1 X72.607 Y54.403 E34.13614
G1 X72.607 Y60.522 E34.51864
G1 X73.059 Y61.050 F7800.000
M101 ; extruder on
G1 X71.049 Y61.050 E34.62466 F886.797
G1 X71.049 Y53.950 E34.99906
G1 X73.059 Y53.950 E35.10508
G1 X73.059 Y60.975 E35.47552
G1 X72.626 Y60.800 F7800.000
G1 X72.054 Y60.352 F7800.000
M101 ; extruder on
G1 X72.054 Y54.648 E36.25087 F1182.396
G1 E34.25087 F2400.00000
M103 ; extruder off
G1 X70.799 Y61.300 F7800.000
G1 X70.799 Y61.300 F7800.000
G1 X70.000 Y61.300 F7800.000
G1 X69.201 Y61.300 F7800.000
G1 X68.499 Y60.597 F7800.000
M101 ; extruder on
G1 E36.25087 F2400.00000
G1 X67.393 Y60.597 E36.31997 F886.797
G1 X67.393 Y54.403 E36.70715
G1 X68.499 Y54.403 E36.77624
G1 X68.499 Y60.522 E37.15874
G1 X68.951 Y61.050 F7800.000
M101 ; extruder on
G1 X66.941 Y61.050 E37.26476 F886.797
G1 X66.941 Y53.950 E37.63916
G1 X68.951 Y53.950 E37.74517
G1 X68.951 Y60.975 E38.11562
G1 X68.518 Y60.800 F7800.000
G1 X67.946 Y60.352 F7800.000
M101 ; extruder on
G1 X67.946 Y54.648 E38.89097 F1182.396
M73 P33
G1 Z2.900 F7800.000
G1 E36.89097 F2400.00000
M103 ; extruder off
G1 X71.919 Y60.597 F7800.000
M101 ; extruder on
G1 E38.89097 F2400.00000
G1 X71.919 Y54.403 E39.27816 F861.232
G1 X72.759 Y54.403 E39.33061
G1 X72.759 Y60.597 E39.71779
G1 X71.994 Y60.597 E39.76555
G1 X71.467 Y61.050 F7800.000
M101 ; extruder on
G1 X71.467 Y53.950 E40.13995 F861.232
G1 X73.211 Y53.950 E40.23192
G1 X73.211 Y61.050 E40.60632
G1 X71.542 Y61.050 E40.69434
G1 X71.717 Y60.617 F7800.000
G1 X72.339 Y60.352 F7800.000
M101 ; extruder on
G1 X72.339 Y54.648 E41.46970 F1148.309
G1 E39.46970 F2400.00000
M103 ; extruder off
G1 X71.217 Y61.300 F7800.000
G1 X71.217 Y61.300 F7800.000
G1 X70.000 Y61.300 F7800.000
G1 X68.783 Y61.300 F7800.000
G1 X68.081 Y60.597 F7800.000
M101 ; extruder on
G1 E41.46970 F2400.00000
G1 X67.241 Y60.597 E41.52215 F861.232
G1 X67.241 Y54.403 E41.90933
G1 X68.081 Y54.403 E41.96178
G1 X68.081 Y60.522 E42.34428
G1 X68.533 Y61.050 F7800.000
M101 ; extruder on
G1 X66.789 Y61.050 E42.43625 F861.232
G1 X66.789 Y53.950 E42.81065
G1 X68.533 Y53.950 E42.90262
G1 X68.533 Y60.975 E43.27307
G1 X68.100 Y60.800 F7800.000
G1 X67.661 Y60.352 F7800.000
M101 ; extruder on
G1 X67.661 Y54.648 E44.04842 F1148.309
M73 P38
G1 Z3.300 F7800.000
G1 E42.04842 F2400.00000
M103 ; extruder off
G1 X72.128 Y60.597 F7800.000
M101 ; extruder on
G1 E44.04842 F2400.00000
G1 X72.128 Y54.403 E44.43561 F846.297
G1 X72.811 Y54.403 E44.47833
G1 X72.811 Y60.597 E44.86552
G1 X72.203 Y60.597 E44.90355
G1 X71.675 Y61.050 F7800.000
M101 ; extruder on
G1 X71.675 Y53.950 E45.27795 F846.297
G1 X73.264 Y53.950 E45.36173
G1 X73.264 Y61.050 E45.73613
G1 X71.750 Y61.050 E45.81594
G1 X71.925 Y60.617 F7800.000
G1 X72.469 Y60.352 F7800.000
M101 ; extruder on
G1 X72.469 Y54.648 E46.17245 F1128.396
G1 E44.17245 F2400.00000
M103 ; extruder off
G1 X71.425 Y61.300 F7800.000
G1 X71.425 Y61.300 F7800.000
G1 X70.000 Y61.300 F7800.000
G1 X68.575 Y61.300 F7800.000
G1 X67.872 Y60.597 F7800.000
M101 ; extruder on
G1 E46.17245 F2400.00000
G1 X67.189 Y60.597 E46.21517 F846.297
G1 X67.189 Y54.403 E46.60236
G1 X67.872 Y54.403 E46.64508
G1 X67.872 Y60.522 E47.02758
G1 X68.325 Y61.050 F7800.000
M101 ; extruder on
G1 X66.736 Y61.050 E47.11135 F846.297
G1 X66.736 Y53.950 E47.48575
G1 X68.325 Y53.950 E47.56952
G1 X68.325 Y60.975 E47.93997
G1 X67.892 Y60.800 F7800.000
G1 X67.531 Y60.352 F7800.000
M101 ; extruder on
G1 X67.531 Y54.648 E48.29647 F1128.396
M73 P44
G1 Z3.700 F7800.000
G1 E46.29647 F2400.00000
M103 ; extruder off
G1 X72.204 Y60.597 F7800.000
M101 ; extruder on
G1 E48.29647 F2400.00000
G1 X72.204 Y54.403 E48.68366 F843.986
G1 X72.864 Y54.403 E48.72488
G1 X72.864 Y60.597 E49.11206
G1 X72.279 Y60.597 E49.14859
G1 X71.752 Y61.050 F7800.000
M101 ; extruder on
G1 X71.752 Y53.950 E49.52299 F843.986
G1 X73.316 Y53.950 E49.60549
G1 X73.316 Y61.050 E49.97989
G1 X71.827 Y61.050 E50.05844
G1 X72.002 Y60.617 F7800.000
G1 X72.534 Y60.352 F7800.000
M101 ; extruder on
G1 X72.534 Y54.648 E50.41495 F1125.315
G1 E48.41495 F2400.00000
M103 ; extruder off
G1 X71.502 Y61.300 F7800.000
G1 X71.502 Y61.300 F7800.000
G1 X70.000 Y61.300 F7800.000
G1 X68.498 Y61.300 F7800.000
G1 X67.796 Y60.597 F7800.000
M101 ; extruder on
G1 E50.41495 F2400.00000
G1 X67.136 Y60.597 E50.45617 F843.986
G1 X67.136 Y54.403 E50.84335
G1 X67.796 Y54.403 E50.88457
G1 X67.796 Y60.522 E51.26707
G1 X68.248 Y61.050 F7800.000
M101 ; extruder on
G1 X66.684 Y61.050 E51.34957 F843.986
G1 X66.684 Y53.950 E51.72397
G1 X68.248 Y53.950 E51.80647
G1 X68.248 Y60.975 E52.17692
G1 X67.815 Y60.800 F7800.000
G1 X67.466 Y60.352 F7800.000
M101 ; extruder on
G1 X67.466 Y54.648 E52.53342 F1125.315
M73 P50
G1 Z4.100 F7800.000
G1 E50.53342 F2400.00000
M103 ; extruder off
G1 X72.172 Y60.597 F7800.000
M101 ; extruder on
G1 E52.53342 F2400.00000
G1 X72.172 Y54.403 E52.92061 F843.986
G1 X72.831 Y54.403 E52.96183
G1 X72.831 Y60.597 E53.34901
G1 X72.247 Y60.597 E53.38554
G1 X71.719 Y61.050 F7800.000
M101 ; extruder on
G1 X71.719 Y53.950 E53.75994 F843.986
G1 X73.284 Y53.950 E53.84245
G1 X73.284 Y61.050 E54.21685
G1 X71.794 Y61.050 E54.29539
G1 X71.969 Y60.617 F7800.000
G1 X72.502 Y60.352 F7800.000
M101 ; extruder on
G1 X72.502 Y54.648 E54.65190 F1125.315
G1 E52.65190 F2400.00000
M103 ; extruder off
G1 X71.469 Y61.300 F7800.000
G1 X71.469 Y61.300 F7800.000
G1 X70.000 Y61.300 F7800.000
G1 X68.531 Y61.300 F7800.000
G1 X67.828 Y60.597 F7800.000
M101 ; extruder on
G1 E54.65190 F2400.00000
G1 X67.169 Y60.597 E54.69312 F843.986
G1 X67.169 Y54.403 E55.08030
G1 X67.828 Y54.403 E55.12152
G1 X67.828 Y60.522 E55.50402
G1 X68.281 Y61.050 F7800.000
M101 ; extruder on
G1 X66.716 Y61.050 E55.58652 F843.986
G1 X66.716 Y53.950 E55.96092
G1 X68.281 Y53.950 E56.04342
G1 X68.281 Y60.975 E56.41387
G1 X67.848 Y60.800 F7800.000
G1 X67.498 Y60.352 F7800.000
M101 ; extruder on
G1 X67.498 Y54.648 E56.77037 F1125.315
M73 P55
G1 Z4.500 F7800.000
G1 E54.77037 F2400.00000
M103 ; extruder off
G1 X72.025 Y60.597 F7800.000
M101 ; extruder on
G1 E56.77037 F2400.00000
G1 X72.025 Y54.403 E57.15756 F852.996
G1 X72.779 Y54.403 E57.20464
G1 X72.779 Y60.597 E57.59183
G1 X72.100 Y60.597 E57.63423
G1 X71.573 Y61.050 F7800.000
M101 ; extruder on
G1 X71.573 Y53.950 E58.00863 F852.996
G1 X73.231 Y53.950 E58.09608
G1 X73.231 Y61.050 E58.47048
G1 X71.648 Y61.050 E58.55397
G1 X71.823 Y60.617 F7800.000
G1 X72.402 Y60.352 F7800.000
M101 ; extruder on
G1 X72.402 Y54.648 E58.91048 F1137.328
G1 E56.91048 F2400.00000
M103 ; extruder off
G1 X71.323 Y61.300 F7800.000
G1 X71.323 Y61.300 F7800.000
G1 X70.000 Y61.300 F7800.000
G1 X68.677 Y61.300 F7800.000
G1 X67.975 Y60.597 F7800.000
M101 ; extruder on
G1 E58.91048 F2400.00000
G1 X67.221 Y60.597 E58.95756 F852.996
G1 X67.221 Y54.403 E59.34475
G1 X67.975 Y54.403 E59.39183
G1 X67.975 Y60.522 E59.77433
G1 X68.427 Y61.050 F7800.000
M101 ; extruder on
G1 X66.769 Y61.050 E59.86178 F852.996
G1 X66.769 Y53.950 E60.23618
G1 X68.427 Y53.950 E60.32363
G1 X68.427 Y60.975 E60.69408
G1 X67.994 Y60.800 F7800.000
G1 X67.598 Y60.352 F7800.000
M101 ; extruder on
G1 X67.598 Y54.648 E61.05058 F1137.328
M73 P61
G1 Z4.900 F7800.000
G1 E59.05058 F2400.00000
M103 ; extruder off
G1 X71.701 Y60.597 F7800.000
M101 ; extruder on
G1 E61.05058 F2400.00000
G1 X71.701 Y54.403 E61.43777 F873.739
G1 X72.670 Y54.403 E61.49836
G1 X72.670 Y60.597 E61.88554
G1 X71.776 Y60.597 E61.94145
G1 X71.248 Y61.050 F7800.000
M101 ; extruder on
G1 X71.248 Y53.950 E62.31585 F873.739
G1 X73.123 Y53.950 E62.41469
G1 X73.123 Y61.050 E62.78909
G1 X71.323 Y61.050 E62.88398
G1 X71.498 Y60.617 F7800.000
G1 X72.185 Y60.352 F7800.000
M101 ; extruder on
G1 X72.185 Y54.648 E63.65934 F1164.986
G1 E61.65934 F2400.00000
M103 ; extruder off
G1 X70.998 Y61.300 F7800.000
G1 X70.998 Y61.300 F7800.000
G1 X70.000 Y61.300 F7800.000
G1 X69.002 Y61.300 F7800.000
G1 X68.299 Y60.597 F7800.000
M101 ; extruder on
G1 E63.65934 F2400.00000
G1 X67.330 Y60.597 E63.71993 F873.739
G1 X67.330 Y54.403 E64.10711
G1 X68.299 Y54.403 E64.16770
G1 X68.299 Y60.522 E64.55020
G1 X68.752 Y61.050 F7800.000
M101 ; extruder on
G1 X66.877 Y61.050 E64.64904 F873.739
G1 X66.877 Y53.950 E65.02344
G1 X68.752 Y53.950 E65.12229
G1 X68.752 Y60.975 E65.49273
G1 X68.319 Y60.800 F7800.000
G1 X67.815 Y60.352 F7800.000
M101 ; extruder on
G1 X67.815 Y54.648 E66.26809 F1164.986
M73 P66
G1 Z5.300 F7800.000
G1 X67.986 Y60.107 F7800.000
M101 ; extruder on
G1 X67.986 Y54.893 E66.59391 F896.397
G1 X69.252 Y54.893 E66.67300
M101 ; extruder on
M126
G1 X70.748 Y54.893 E66.76653 F900.000
M126
M101 ; extruder on
G1 X72.014 Y54.893 E66.84562 F896.397
G1 X72.014 Y60.107 E67.17145
G1 X70.748 Y60.107 E67.25054
M101 ; extruder on
M126
G1 X69.252 Y60.107 E67.34407 F900.000
M126
M101 ; extruder on
G1 X68.061 Y60.107 E67.41847 F896.397
G1 X67.495 Y60.597 F7800.000
M101 ; extruder on
G1 X67.495 Y54.403 E67.80565 F896.397
G1 X69.252 Y54.403 E67.91542
M101 ; extruder on
M126
G1 X70.748 Y54.403 E68.00895 F900.000
M126
M101 ; extruder on
G1 X72.505 Y54.403 E68.11872 F896.397
G1 X72.505 Y60.597 E68.50590
G1 X70.748 Y60.597 E68.61567
M101 ; extruder on
M126
G1 X69.252 Y60.597 E68.70920 F900.000
M126
M101 ; extruder on
G1 X67.570 Y60.597 E68.81428 F896.397
G1 X67.043 Y61.050 F7800.000
M101 ; extruder on
