; generated by Slic3r 1.2.9 on 2017-09-18 at 17:31:32

; external perimeters extrusion width = 0.50mm
; perimeters extrusion width = 0.58mm
; infill extrusion width = 0.58mm
; solid infill extrusion width = 0.58mm
; top infill extrusion width = 0.58mm

M127
M109 S220 ; set bed temperature
M104 S220 T0 ; set temperature
G28 ; home all axes
G1 Z5 F5000 ; lift nozzle

M73 P0
G1 Z0.500 F7800.000
G1 E-2.00000 F2400.00000
M103 ; extruder off
G1 X55.426 Y44.198 F7800.000
M101 ; extruder on
G1 E0.00000 F2400.00000
G1 X56.698 Y42.926 E0.25560 F1800.000
G1 X57.439 Y42.358 E0.38825
G1 X58.998 Y41.458 E0.64393
G1 X59.860 Y41.101 E0.77660
G1 X61.598 Y40.635 E1.03221
G1 X62.524 Y40.513 E1.16490
G1 X63.423 Y40.454 E1.29298
G1 X76.576 Y40.454 E3.16172
G1 X77.476 Y40.513 E3.28979
M101 ; extruder on
G1 X78.402 Y40.635 E3.42249 F1800.000
G1 X80.140 Y41.101 E3.67811
G1 X81.002 Y41.458 E3.81077
G1 X82.561 Y42.358 E4.06645
G1 X83.302 Y42.926 E4.19910
G1 X84.574 Y44.198 E4.45470
G1 X85.142 Y44.939 E4.58735
G1 X86.042 Y46.497 E4.84303
G1 X86.399 Y47.360 E4.97568
G1 X86.865 Y49.099 E5.23139
G1 X86.987 Y50.024 E5.36404
G1 X87.046 Y50.923 E5.49207
G1 X87.046 Y64.077 E7.36083
G1 X86.987 Y64.976 E7.48886
G1 X86.865 Y65.901 E7.62151
G1 X86.399 Y67.640 E7.87722
G1 X86.042 Y68.503 E8.00988
G1 X85.142 Y70.061 E8.26555
G1 X84.574 Y70.802 E8.39821
G1 X83.302 Y72.074 E8.65379
G1 X82.561 Y72.642 E8.78645
G1 X81.003 Y73.542 E9.04212
G1 X80.140 Y73.899 E9.17479
G1 X78.402 Y74.365 E9.43042
G1 X77.476 Y74.487 E9.56307
G1 X75.677 Y74.487 E9.81874
G1 X74.751 Y74.365 E9.95140
G1 X73.013 Y73.899 E10.20703
G1 X72.179 Y73.554 E10.33533
G1 X70.592 Y72.642 E10.59532
G1 X69.851 Y72.074 E10.72798
G1 X69.174 Y71.479 E10.85605
G1 X56.021 Y58.326 E13.49886
G1 X55.426 Y57.649 E13.62693
G1 X54.858 Y56.908 E13.75958
G1 X53.958 Y55.349 E14.01526
G1 X53.601 Y54.487 E14.14794
G1 X53.135 Y52.748 E14.40362
G1 X53.013 Y51.823 E14.53630
G1 X53.013 Y50.024 E14.79179
G1 X53.135 Y49.098 E14.92446
G1 X53.601 Y47.360 E15.18015
G1 X53.958 Y46.497 E15.31283
G1 X54.858 Y44.939 E15.56848
G1 X55.381 Y44.258 E15.69048
G1 E13.69048 F2400.00000
M103 ; extruder off
G1 X78.002 Y52.349 F7800.000
M101 ; extruder on
G1 E15.69048 F2400.00000
G1 X77.585 Y52.670 E15.76526 F1800.000
G1 X77.098 Y52.871 E15.84005
G1 X76.576 Y52.940 E15.91483
G1 X76.055 Y52.871 E15.98961
G1 X75.568 Y52.670 E16.06440
G1 X75.151 Y52.349 E16.13918
G1 X74.830 Y51.932 E16.21396
G1 X74.629 Y51.445 E16.28875
G1 X74.553 Y50.872 E16.37094
G1 X74.632 Y50.394 E16.43973
G1 X74.830 Y49.915 E16.51336
G1 X75.151 Y49.498 E16.58814
G1 X75.568 Y49.177 E16.66292
G1 X76.055 Y48.976 E16.73771
M101 ; extruder on
G1 X76.562 Y48.909 E16.81035 F1800.000
G1 X77.096 Y48.975 E16.88691
G1 X77.585 Y49.177 E16.96200
G1 X78.002 Y49.498 E17.03678
G1 X78.323 Y49.915 E17.11156
G1 X78.524 Y50.402 E17.18634
G1 X78.600 Y50.975 E17.26854
G1 X78.521 Y51.453 E17.33733
G1 X78.323 Y51.932 E17.41096
G1 X78.048 Y52.290 E17.47508
G1 X78.110 Y52.837 F7800.000
G1 X78.632 Y53.184 F7800.000
M101 ; extruder on
G1 X78.086 Y53.595 E17.57215 F1800.000
G1 X77.372 Y53.891 E17.68203
G1 X76.576 Y53.996 E17.79598
G1 X75.781 Y53.891 E17.90993
G1 X75.067 Y53.595 E18.01982
G1 X74.403 Y53.094 E18.13798
G1 X73.916 Y52.460 E18.25163
G1 X73.620 Y51.745 E18.36151
G1 X73.505 Y50.921 E18.47968
G1 X73.609 Y50.128 E18.59333
G1 X73.916 Y49.387 E18.70727
G1 X74.404 Y48.751 E18.82122
G1 X75.040 Y48.263 E18.93517
G1 X75.779 Y47.957 E19.04882
G1 X76.605 Y47.855 E19.16699
G1 X77.372 Y47.956 E19.27687
M101 ; extruder on
G1 X78.113 Y48.263 E19.39082 F1800.000
G1 X78.749 Y48.751 E19.50477
G1 X79.237 Y49.387 E19.61872
G1 X79.544 Y50.128 E19.73266
G1 X79.649 Y50.923 E19.84661
G1 X79.544 Y51.719 E19.96056
G1 X79.237 Y52.460 E20.07450
G1 X78.750 Y53.094 E20.18815
G1 X78.691 Y53.138 E20.19860
G1 X78.171 Y52.988 F7800.000
G1 X78.315 Y52.768 F7800.000
M101 ; extruder on
G1 X77.824 Y53.137 E20.28588 F1800.000
G1 X77.244 Y53.377 E20.37506
G1 X76.587 Y53.466 E20.46937
G1 X75.918 Y53.381 E20.56512
G1 X75.329 Y53.137 E20.65573
G1 X74.775 Y52.719 E20.75431
G1 X74.373 Y52.195 E20.84806
G1 X74.125 Y51.591 E20.94097
G1 X74.034 Y50.853 E21.04652
M101 ; extruder on
G1 X74.121 Y50.265 E21.13095 F1800.000
G1 X74.373 Y49.652 E21.22527
G1 X74.778 Y49.125 E21.31962
G1 X75.305 Y48.720 E21.41397
G1 X75.914 Y48.468 E21.50772
G1 X76.569 Y48.385 E21.60150
G1 X77.235 Y48.466 E21.69685
G1 X77.839 Y48.716 E21.78976
G1 X78.375 Y49.125 E21.88552
G1 X78.774 Y49.643 E21.97842
G1 X79.035 Y50.275 E22.07558
G1 X79.121 Y50.973 E22.17552
G1 X79.032 Y51.581 E22.26286
G1 X78.780 Y52.195 E22.35717
G1 X78.375 Y52.722 E22.45156
G1 E20.45156 F2400.00000
M103 ; extruder off
G1 X72.173 Y52.171 F7800.000
G1 X70.000 Y52.753 F7800.000
G1 X70.000 Y52.618 F7800.000
G1 X67.861 Y52.045 F7800.000
G1 X64.844 Y52.353 F7800.000
M101 ; extruder on
G1 E22.45156 F2400.00000
G1 X64.432 Y52.670 E22.52541 F1800.000
G1 X63.945 Y52.871 E22.60020
G1 X63.423 Y52.940 E22.67498
G1 X62.902 Y52.871 E22.74976
G1 X62.415 Y52.670 E22.82455
G1 X61.998 Y52.349 E22.89933
G1 X61.677 Y51.932 E22.97411
G1 X61.476 Y51.445 E23.04890
G1 X61.400 Y50.872 E23.13109
G1 X61.479 Y50.394 E23.19989
G1 X61.677 Y49.915 E23.27351
G1 X61.998 Y49.498 E23.34829
G1 X62.415 Y49.177 E23.42307
G1 X62.902 Y48.976 E23.49786
M101 ; extruder on
G1 X63.409 Y48.909 E23.57050 F1800.000
G1 X63.943 Y48.975 E23.64706
G1 X64.432 Y49.177 E23.72215
G1 X64.849 Y49.498 E23.79693
G1 X65.170 Y49.915 E23.87171
G1 X65.371 Y50.402 E23.94650
G1 X65.447 Y50.975 E24.02869
G1 X65.368 Y51.453 E24.09748
G1 X65.170 Y51.932 E24.17111
G1 X64.891 Y52.295 E24.23616
G1 X64.952 Y52.841 F7800.000
G1 X65.473 Y53.188 F7800.000
M101 ; extruder on
G1 X64.933 Y53.595 E24.33230 F1800.000
G1 X64.219 Y53.891 E24.44218
G1 X63.423 Y53.996 E24.55614
G1 X62.628 Y53.891 E24.67009
G1 X61.914 Y53.595 E24.77997
G1 X61.250 Y53.094 E24.89813
G1 X60.763 Y52.460 E25.01178
G1 X60.467 Y51.745 E25.12167
G1 X60.352 Y50.921 E25.23983
G1 X60.456 Y50.128 E25.35348
G1 X60.763 Y49.387 E25.46743
G1 X61.251 Y48.751 E25.58137
G1 X61.887 Y48.263 E25.69532
G1 X62.626 Y47.957 E25.80897
G1 X63.452 Y47.855 E25.92714
G1 X64.219 Y47.956 E26.03703
M101 ; extruder on
G1 X64.960 Y48.263 E26.15097 F1800.000
G1 X65.596 Y48.751 E26.26492
G1 X66.084 Y49.387 E26.37887
G1 X66.391 Y50.128 E26.49282
G1 X66.496 Y50.923 E26.60676
G1 X66.391 Y51.719 E26.72071
G1 X66.084 Y52.460 E26.83466
G1 X65.597 Y53.094 E26.94831
G1 X65.533 Y53.142 E26.95967
G1 X65.013 Y52.992 F7800.000
G1 X65.157 Y52.772 F7800.000
M101 ; extruder on
G1 X64.671 Y53.137 E27.04603 F1800.000
G1 X64.091 Y53.377 E27.13521
G1 X63.434 Y53.466 E27.22952
G1 X62.765 Y53.381 E27.32528
G1 X62.176 Y53.137 E27.41588
G1 X61.622 Y52.719 E27.51446
G1 X61.220 Y52.195 E27.60821
G1 X60.972 Y51.591 E27.70112
G1 X60.881 Y50.853 E27.80668
M101 ; extruder on
G1 X60.968 Y50.265 E27.89110 F1800.000
G1 X61.220 Y49.652 E27.98542
G1 X61.625 Y49.125 E28.07978
G1 X62.152 Y48.720 E28.17413
G1 X62.761 Y48.468 E28.26787
G1 X63.416 Y48.385 E28.36166
G1 X64.082 Y48.466 E28.45700
G1 X64.686 Y48.716 E28.54992
G1 X65.222 Y49.125 E28.64567
G1 X65.621 Y49.643 E28.73858
G1 X65.882 Y50.275 E28.83574
G1 X65.968 Y50.973 E28.93568
G1 X65.879 Y51.581 E29.02301
G1 X65.627 Y52.195 E29.11733
G1 X65.217 Y52.726 E29.21261
G1 E27.21261 F2400.00000
M103 ; extruder off
G1 X66.613 Y54.206 F7800.000
G1 X69.954 Y57.546 F7800.000
G1 X69.977 Y57.523 F7800.000
G1 X73.317 Y60.864 F7800.000
G1 X77.992 Y65.510 F7800.000
M101 ; extruder on
G1 E29.21261 F2400.00000
G1 X77.585 Y65.823 E29.28555 F1800.000
G1 X77.098 Y66.024 E29.36034
G1 X76.576 Y66.093 E29.43512
G1 X76.055 Y66.024 E29.50989
G1 X75.568 Y65.823 E29.58468
G1 X75.151 Y65.502 E29.65946
G1 X74.830 Y65.085 E29.73424
G1 X74.629 Y64.598 E29.80903
G1 X74.553 Y64.025 E29.89123
G1 X74.632 Y63.547 E29.96002
G1 X74.830 Y63.068 E30.03364
G1 X75.151 Y62.651 E30.10843
G1 X75.568 Y62.330 E30.18321
G1 X76.055 Y62.129 E30.25800
M101 ; extruder on
G1 X76.562 Y62.062 E30.33063 F1800.000
G1 X77.096 Y62.128 E30.40719
G1 X77.585 Y62.330 E30.48228
G1 X78.002 Y62.651 E30.55706
G1 X78.323 Y63.068 E30.63184
G1 X78.524 Y63.555 E30.70663
G1 X78.600 Y64.128 E30.78883
G1 X78.521 Y64.606 E30.85762
G1 X78.323 Y65.085 E30.93124
G1 X78.040 Y65.453 E30.99721
G1 X78.099 Y65.999 F7800.000
G1 X78.621 Y66.344 F7800.000
M101 ; extruder on
G1 X78.086 Y66.748 E31.09244 F1800.000
G1 X77.372 Y67.044 E31.20232
G1 X76.576 Y67.149 E31.31627
G1 X75.781 Y67.044 E31.43022
G1 X75.067 Y66.748 E31.54010
G1 X74.403 Y66.247 E31.65827
G1 X73.916 Y65.613 E31.77192
G1 X73.620 Y64.898 E31.88180
G1 X73.505 Y64.074 E31.99996
G1 X73.609 Y63.281 E32.11361
G1 X73.916 Y62.540 E32.22756
G1 X74.404 Y61.904 E32.34151
G1 X75.040 Y61.416 E32.45545
G1 X75.779 Y61.110 E32.56910
G1 X76.605 Y61.008 E32.68727
G1 X77.372 Y61.109 E32.79716
M101 ; extruder on
G1 X78.113 Y61.416 E32.91111 F1800.000
G1 X78.749 Y61.904 E33.02505
G1 X79.237 Y62.540 E33.13900
G1 X79.544 Y63.281 E33.25295
G1 X79.649 Y64.077 E33.36690
G1 X79.544 Y64.872 E33.48084
G1 X79.237 Y65.613 E33.59479
G1 X78.750 Y66.247 E33.70844
G1 X78.681 Y66.299 E33.72073
G1 X78.161 Y66.149 F7800.000
G1 X78.305 Y65.929 F7800.000
M101 ; extruder on
G1 X77.824 Y66.290 E33.80616 F1800.000
G1 X77.244 Y66.530 E33.89534
G1 X76.587 Y66.619 E33.98965
G1 X75.918 Y66.534 E34.08541
G1 X75.329 Y66.290 E34.17602
G1 X74.775 Y65.872 E34.27460
G1 X74.373 Y65.348 E34.36834
G1 X74.125 Y64.744 E34.46125
G1 X74.034 Y64.006 E34.56681
M101 ; extruder on
G1 X74.121 Y63.419 E34.65124 F1800.000
G1 X74.373 Y62.805 E34.74555
G1 X74.778 Y62.278 E34.83991
G1 X75.305 Y61.873 E34.93426
G1 X75.914 Y61.621 E35.02801
G1 X76.569 Y61.538 E35.12179
G1 X77.235 Y61.619 E35.21713
G1 X77.839 Y61.869 E35.31005
G1 X78.375 Y62.278 E35.40581
G1 X78.780 Y62.805 E35.50016
G1 X79.034 Y63.418 E35.59451
G1 X79.121 Y64.077 E35.68887
G1 X79.032 Y64.735 E35.78320
G1 X78.784 Y65.339 E35.87610
G1 X78.365 Y65.883 E35.97366
M73 P5
G1 Z0.900 F7800.000
G1 E33.97366 F2400.00000
M103 ; extruder off
G1 X77.824 Y59.673 F7800.000
G1 X78.407 Y57.500 F7800.000
G1 X78.407 Y57.500 F7800.000
G1 X77.824 Y55.327 F7800.000
G1 X78.110 Y52.522 F7800.000
M101 ; extruder on
G1 E35.97366 F2400.00000
G1 X77.687 Y52.847 E36.00701 F900.000
G1 X77.151 Y53.068 E36.04324
G1 X76.576 Y53.144 E36.07947
G1 X76.002 Y53.068 E36.11570
G1 X75.466 Y52.847 E36.15193
G1 X75.006 Y52.494 E36.18816
G1 X74.653 Y52.034 E36.22439
G1 X74.432 Y51.498 E36.26062
G1 X74.356 Y50.923 E36.29685
G1 X74.432 Y50.349 E36.33309
G1 X74.653 Y49.813 E36.36932
G1 X75.006 Y49.353 E36.40555
G1 X75.466 Y49.000 E36.44177
G1 X76.002 Y48.779 E36.47801
M101 ; extruder on
G1 X76.533 Y48.709 E36.51147 F900.000
G1 X77.144 Y48.776 E36.54990
G1 X77.687 Y49.000 E36.58663
G1 X78.147 Y49.353 E36.62286
G1 X78.500 Y49.813 E36.65908
G1 X78.721 Y50.349 E36.69532
G1 X78.797 Y50.923 E36.73155
G1 X78.721 Y51.498 E36.76778
G1 X78.500 Y52.034 E36.80401
G1 X78.164 Y52.471 E36.83844
G1 X77.824 Y52.171 F7800.000
M101 ; extruder on
G1 X77.459 Y52.451 E36.86272 F900.000
G1 X77.033 Y52.628 E36.88701
G1 X76.576 Y52.688 E36.91129
G1 X76.120 Y52.628 E36.93557
G1 X75.694 Y52.451 E36.95986
G1 X75.329 Y52.171 E36.98414
G1 X75.049 Y51.806 E37.00843
G1 X74.872 Y51.380 E37.03272
G1 X74.812 Y50.923 E37.05700
G1 X74.872 Y50.467 E37.08129
G1 X75.049 Y50.041 E37.10557
G1 X75.329 Y49.676 E37.12986
G1 X75.694 Y49.396 E37.15414
G1 X76.120 Y49.219 E37.17843
M101 ; extruder on
G1 X76.538 Y49.164 E37.20065 F900.000
G1 X77.030 Y49.218 E37.22679
G1 X77.459 Y49.396 E37.25122
G1 X77.824 Y49.676 E37.27551
G1 X78.104 Y50.041 E37.29979
G1 X78.281 Y50.467 E37.32408
G1 X78.341 Y50.923 E37.34836
G1 X78.281 Y51.380 E37.37265
G1 X78.104 Y51.806 E37.39694
G1 X77.870 Y52.111 E37.41727
G1 X77.924 Y52.620 F7800.000
G1 X78.490 Y53.039 F7800.000
M101 ; extruder on
G1 X78.011 Y53.407 E37.45505 F900.000
G1 X77.319 Y53.694 E37.50185
G1 X76.576 Y53.791 E37.54864
G1 X75.834 Y53.694 E37.59543
G1 X75.142 Y53.407 E37.64223
G1 X74.549 Y52.951 E37.68902
G1 X74.093 Y52.357 E37.73581
G1 X73.806 Y51.666 E37.78260
G1 X73.709 Y50.923 E37.82940
G1 X73.806 Y50.181 E37.87619
G1 X74.093 Y49.489 E37.92298
G1 X74.549 Y48.896 E37.96978
G1 X75.142 Y48.440 E38.01657
G1 X75.834 Y48.153 E38.06336
G1 X76.577 Y48.056 E38.11016
G1 X77.319 Y48.153 E38.15695
M101 ; extruder on
G1 X78.011 Y48.440 E38.20374 F900.000
G1 X78.604 Y48.896 E38.25054
G1 X79.060 Y49.489 E38.29733
G1 X79.347 Y50.181 E38.34412
G1 X79.444 Y50.923 E38.39091
G1 X79.347 Y51.666 E38.43771
G1 X79.060 Y52.357 E38.48450
G1 X78.604 Y52.951 E38.53129
G1 X78.550 Y52.993 E38.53561
G1 X78.766 Y53.398 F7800.000
M101 ; extruder on
G1 X78.239 Y53.802 E38.57063 F900.000
G1 X77.437 Y54.135 E38.61640
G1 X76.576 Y54.248 E38.66216
G1 X75.716 Y54.135 E38.70793
G1 X74.914 Y53.802 E38.75369
G1 X74.226 Y53.274 E38.79945
G1 X73.697 Y52.586 E38.84522
G1 X73.365 Y51.784 E38.89098
G1 X73.252 Y50.923 E38.93674
G1 X73.365 Y50.063 E38.98250
G1 X73.697 Y49.261 E39.02827
G1 X74.226 Y48.573 E39.07403
G1 X74.914 Y48.044 E39.11979
G1 X75.716 Y47.712 E39.16556
G1 X76.576 Y47.599 E39.21132
G1 X76.629 Y47.606 E39.21412
M101 ; extruder on
G1 X77.437 Y47.712 E39.25709 F900.000
G1 X78.239 Y48.044 E39.30285
G1 X78.927 Y48.573 E39.34861
G1 X79.456 Y49.261 E39.39437
G1 X79.788 Y50.063 E39.44014
G1 X79.901 Y50.923 E39.48590
G1 X79.788 Y51.784 E39.53166
G1 X79.456 Y52.586 E39.57743
G1 X78.927 Y53.274 E39.62319
G1 X78.825 Y53.352 E39.62997
G1 X78.304 Y53.207 F7800.000
G1 X78.295 Y52.785 F7800.000
M101 ; extruder on
G1 X77.848 Y53.127 E39.66512 F1200.000
G1 X77.244 Y53.377 E39.70601
G1 X76.586 Y53.466 E39.74750
G1 X75.918 Y53.381 E39.78961
G1 X75.314 Y53.131 E39.83049
G1 X74.778 Y52.722 E39.87260
G1 X74.373 Y52.195 E39.91411
G1 X74.119 Y51.582 E39.95561
G1 X74.034 Y50.914 E39.99772
M101 ; extruder on
G1 X74.119 Y50.265 E40.03861 F1200.000
G1 X74.373 Y49.652 E40.08012
G1 X74.778 Y49.125 E40.12162
G1 X75.305 Y48.720 E40.16313
G1 X75.918 Y48.466 E40.20463
G1 X76.577 Y48.385 E40.24610
G1 X77.234 Y48.466 E40.28752
G1 X77.839 Y48.716 E40.32846
G1 X78.375 Y49.125 E40.37057
G1 X78.780 Y49.652 E40.41207
G1 X79.034 Y50.265 E40.45358
G1 X79.119 Y50.914 E40.49447
G1 X79.034 Y51.582 E40.53658
G1 X78.784 Y52.186 E40.57747
G1 X78.354 Y52.739 E40.62120
G1 E38.62120 F2400.00000
M103 ; extruder off
G1 X72.173 Y52.171 F7800.000
G1 X70.000 Y52.753 F7800.000
G1 X70.000 Y52.753 F7800.000
G1 X67.827 Y52.171 F7800.000
G1 X64.946 Y52.530 F7800.000
M101 ; extruder on
G1 E40.62120 F2400.00000
G1 X64.534 Y52.847 E40.65370 F900.000
G1 X63.998 Y53.068 E40.68994
G1 X63.423 Y53.144 E40.72616
G1 X62.849 Y53.068 E40.76239
G1 X62.313 Y52.847 E40.79862
G1 X61.853 Y52.494 E40.83485
G1 X61.500 Y52.034 E40.87108
G1 X61.279 Y51.498 E40.90731
G1 X61.203 Y50.923 E40.94354
G1 X61.279 Y50.349 E40.97978
G1 X61.500 Y49.813 E41.01601
G1 X61.853 Y49.353 E41.05224
G1 X62.313 Y49.000 E41.08847
G1 X62.849 Y48.779 E41.12470
M101 ; extruder on
G1 X63.380 Y48.709 E41.15817 F900.000
G1 X63.991 Y48.776 E41.19660
G1 X64.534 Y49.000 E41.23332
G1 X64.994 Y49.353 E41.26955
G1 X65.347 Y49.813 E41.30578
G1 X65.568 Y50.349 E41.34201
G1 X65.644 Y50.923 E41.37824
G1 X65.568 Y51.498 E41.41447
G1 X65.347 Y52.034 E41.45071
G1 X65.003 Y52.481 E41.48597
G1 X64.671 Y52.171 F7800.000
M101 ; extruder on
G1 X64.306 Y52.451 E41.51025 F900.000
G1 X63.880 Y52.628 E41.53454
G1 X63.423 Y52.688 E41.55882
G1 X62.967 Y52.628 E41.58311
G1 X62.541 Y52.451 E41.60739
G1 X62.176 Y52.171 E41.63168
G1 X61.896 Y51.806 E41.65596
G1 X61.719 Y51.380 E41.68025
G1 X61.659 Y50.923 E41.70453
G1 X61.719 Y50.467 E41.72882
G1 X61.896 Y50.041 E41.75311
G1 X62.176 Y49.676 E41.77739
G1 X62.541 Y49.396 E41.80167
G1 X62.967 Y49.219 E41.82596
M101 ; extruder on
G1 X63.385 Y49.164 E41.84818 F900.000
G1 X63.877 Y49.218 E41.87432
G1 X64.306 Y49.396 E41.89876
G1 X64.671 Y49.676 E41.92304
G1 X64.951 Y50.041 E41.94732
G1 X65.128 Y50.467 E41.97161
G1 X65.188 Y50.923 E41.99590
G1 X65.128 Y51.380 E42.02018
G1 X64.951 Y51.806 E42.04447
G1 X64.717 Y52.111 E42.06480
G1 X64.771 Y52.620 F7800.000
G1 X65.337 Y53.039 F7800.000
M101 ; extruder on
G1 X64.858 Y53.407 E42.10258 F900.000
G1 X64.166 Y53.694 E42.14938
