; generated by Slic3r 1.2.9 on 2017-09-18 at 17:31:53

; external perimeters extrusion width = 0.50mm
; perimeters extrusion width = 0.58mm
; infill extrusion width = 0.58mm
; solid infill extrusion width = 0.58mm
; top infill extrusion width = 0.58mm

M127
M109 S220 ; set bed temperature
M104 S220 T0 ; set temperature
G28 ; home all axes
G1 Z5 F5000 ; lift nozzle

M73 P0
G1 Z0.500 F7800.000
G1 E-2.00000 F2400.00000
M103 ; extruder off
G1 X55.257 Y34.669 F7800.000
M101 ; extruder on
G1 E0.00000 F2400.00000
G1 X56.959 Y32.450 E0.39723 F1800.000
G1 X58.231 Y31.178 E0.65288
G1 X60.449 Y29.476 E1.05011
G1 X62.007 Y28.577 E1.30573
G1 X64.590 Y27.507 E1.70296
G1 X66.328 Y27.041 E1.95864
G1 X69.100 Y26.676 E2.35588
G1 X70.900 Y26.676 E2.61150
M101 ; extruder on
G1 X73.672 Y27.041 E3.00873 F1800.000
G1 X75.410 Y27.507 E3.26441
G1 X77.993 Y28.577 E3.66165
G1 X79.551 Y29.476 E3.91726
G1 X81.769 Y31.178 E4.31449
G1 X83.041 Y32.450 E4.57014
G1 X84.602 Y34.484 E4.93427
G1 X84.743 Y34.669 E4.96737
G1 X85.643 Y36.227 E5.22303
G1 X86.713 Y38.810 E5.62027
G1 X87.179 Y40.548 E5.87590
G1 X87.544 Y43.320 E6.27313
G1 X87.603 Y44.220 E6.40123
G1 X87.603 Y70.780 E10.17492
G1 X87.544 Y71.680 E10.30302
G1 X87.179 Y74.452 E10.70025
G1 X86.713 Y76.190 E10.95590
G1 X85.643 Y78.773 E11.35313
G1 X84.743 Y80.331 E11.60878
G1 X83.041 Y82.550 E12.00601
G1 X81.769 Y83.822 E12.26164
G1 X79.551 Y85.524 E12.65888
G1 X77.993 Y86.424 E12.91452
G1 X75.410 Y87.493 E13.31176
G1 X73.672 Y87.959 E13.56741
G1 X70.900 Y88.324 E13.96464
G1 X69.100 Y88.324 E14.22029
G1 X66.328 Y87.959 E14.61752
G1 X64.590 Y87.493 E14.87317
G1 X62.007 Y86.424 E15.27040
G1 X60.449 Y85.524 E15.52604
G1 X58.231 Y83.822 E15.92327
G1 X56.959 Y82.550 E16.17890
G1 X55.257 Y80.331 E16.57615
G1 X54.357 Y78.773 E16.83178
G1 X53.287 Y76.190 E17.22903
G1 X52.821 Y74.452 E17.48468
G1 X52.456 Y71.680 E17.88191
G1 X52.397 Y70.780 E18.01001
G1 X52.397 Y44.220 E21.78370
G1 X52.456 Y43.320 E21.91180
G1 X52.821 Y40.548 E22.30902
G1 X53.287 Y38.810 E22.56466
G1 X54.357 Y36.227 E22.96190
G1 X55.219 Y34.734 E23.20690
G1 E21.20690 F2400.00000
M103 ; extruder off
G1 X75.230 Y70.780 F7800.000
M101 ; extruder on
G1 E23.20690 F2400.00000
G1 X75.052 Y72.134 E23.40088 F1800.000
G1 X74.529 Y73.395 E23.59487
G1 X73.698 Y74.479 E23.78885
G1 X72.615 Y75.310 E23.98282
G1 X71.353 Y75.832 E24.17681
G1 X70.000 Y76.010 E24.37079
G1 X68.646 Y75.832 E24.56477
G1 X67.385 Y75.310 E24.75876
G1 X66.391 Y74.547 E24.93669
G1 X65.298 Y73.379 E25.16395
G1 X65.298 Y68.181 E25.90246
G1 X66.391 Y67.013 E26.12971
G1 X67.385 Y66.251 E26.30765
G1 X68.646 Y65.729 E26.50163
M101 ; extruder on
G1 X69.988 Y65.552 E26.69394 F1800.000
G1 X71.350 Y65.727 E26.88909
G1 X72.615 Y66.251 E27.08354
G1 X73.698 Y67.082 E27.27752
G1 X74.529 Y68.165 E27.47150
G1 X75.052 Y69.427 E27.66548
G1 X75.220 Y70.706 E27.84881
G1 X74.329 Y70.780 F7800.000
M101 ; extruder on
G1 X74.182 Y71.901 E28.00939 F1800.000
G1 X73.749 Y72.945 E28.16999
G1 X73.061 Y73.842 E28.33057
G1 X72.165 Y74.530 E28.49115
G1 X71.120 Y74.963 E28.65174
G1 X70.000 Y75.110 E28.81232
G1 X68.879 Y74.963 E28.97291
G1 X67.835 Y74.530 E29.13350
G1 X66.993 Y73.884 E29.28431
G1 X66.191 Y73.027 E29.45105
G1 X66.191 Y68.534 E30.08939
G1 X66.993 Y67.677 E30.25613
G1 X67.835 Y67.031 E30.40694
G1 X68.879 Y66.598 E30.56753
M101 ; extruder on
G1 X69.989 Y66.452 E30.72662 F1800.000
G1 X71.118 Y66.597 E30.88837
G1 X72.165 Y67.031 E31.04925
G1 X73.061 Y67.719 E31.20983
G1 X73.749 Y68.616 E31.37041
G1 X74.182 Y69.660 E31.53100
G1 X74.320 Y70.706 E31.68093
G1 X73.429 Y70.780 F7800.000
M101 ; extruder on
G1 X73.312 Y71.668 E31.80812 F1800.000
G1 X72.970 Y72.495 E31.93532
G1 X72.425 Y73.205 E32.06250
G1 X71.714 Y73.750 E32.18969
G1 X70.887 Y74.093 E32.31688
G1 X70.000 Y74.210 E32.44407
G1 X69.112 Y74.093 E32.57126
G1 X68.285 Y73.750 E32.69846
G1 X67.594 Y73.220 E32.82214
G1 X67.084 Y72.674 E32.92836
G1 X67.084 Y68.886 E33.46653
G1 X67.594 Y68.341 E33.57276
G1 X68.285 Y67.811 E33.69644
G1 X69.112 Y67.468 E33.82363
M101 ; extruder on
G1 X69.991 Y67.352 E33.94951 F1800.000
G1 X70.887 Y67.468 E34.07787
G1 X71.714 Y67.811 E34.20516
G1 X72.425 Y68.356 E34.33235
G1 X72.970 Y69.066 E34.45954
G1 X73.312 Y69.893 E34.58673
G1 X73.419 Y70.706 E34.70327
G1 X73.851 Y71.049 F7800.000
G1 X70.000 Y44.718 F7800.000
M101 ; extruder on
G1 X68.984 Y44.584 E34.84881 F1800.000
G1 X68.038 Y44.192 E34.99438
G1 X67.225 Y43.568 E35.13996
G1 X66.601 Y42.756 E35.28549
G1 X66.209 Y41.809 E35.43104
G1 X66.075 Y40.793 E35.57660
G1 X66.209 Y39.778 E35.72218
G1 X66.601 Y38.831 E35.86773
G1 X67.225 Y38.018 E36.01330
G1 X68.038 Y37.395 E36.15884
G1 X68.984 Y37.003 E36.30437
G1 X69.357 Y36.954 E36.35785
M101 ; extruder on
G1 X70.000 Y36.869 E36.44996 F1800.000
G1 X71.016 Y37.003 E36.59553
G1 X71.962 Y37.395 E36.74106
G1 X72.775 Y38.018 E36.88661
G1 X73.398 Y38.831 E37.03218
G1 X73.791 Y39.778 E37.17773
G1 X73.924 Y40.793 E37.32331
G1 X73.791 Y41.809 E37.46887
G1 X73.398 Y42.756 E37.61441
G1 X72.775 Y43.568 E37.75995
G1 X71.962 Y44.192 E37.90554
G1 X71.015 Y44.584 E38.05110
G1 X70.074 Y44.708 E38.18598
G1 X70.000 Y43.817 F7800.000
M101 ; extruder on
G1 X69.217 Y43.714 E38.29814 F1800.000
G1 X68.488 Y43.412 E38.41030
G1 X67.861 Y42.932 E38.52248
G1 X67.381 Y42.305 E38.63463
G1 X67.079 Y41.576 E38.74678
G1 X66.976 Y40.793 E38.85894
G1 X67.079 Y40.011 E38.97112
G1 X67.381 Y39.281 E39.08328
G1 X67.861 Y38.655 E39.19545
G1 X68.488 Y38.174 E39.30760
G1 X69.217 Y37.872 E39.41974
G1 X69.474 Y37.839 E39.45652
M101 ; extruder on
G1 X70.000 Y37.769 E39.53192 F1800.000
G1 X70.783 Y37.872 E39.64409
G1 X71.512 Y38.174 E39.75624
G1 X72.138 Y38.655 E39.86840
G1 X72.619 Y39.281 E39.98057
G1 X72.921 Y40.011 E40.09272
G1 X73.024 Y40.793 E40.20490
G1 X72.921 Y41.576 E40.31706
G1 X72.619 Y42.305 E40.42921
G1 X72.138 Y42.932 E40.54136
G1 X71.512 Y43.412 E40.65354
G1 X70.782 Y43.714 E40.76571
G1 X70.074 Y43.808 E40.86720
G1 X70.000 Y42.917 F7800.000
M101 ; extruder on
G1 X69.450 Y42.845 E40.94597 F1800.000
G1 X68.938 Y42.633 E41.02473
G1 X68.498 Y42.295 E41.10350
G1 X68.161 Y41.855 E41.18227
G1 X67.948 Y41.343 E41.26103
G1 X67.876 Y40.793 E41.33979
G1 X67.948 Y40.244 E41.41857
G1 X68.161 Y39.732 E41.49733
G1 X68.498 Y39.292 E41.57610
G1 X68.938 Y38.954 E41.65486
G1 X69.450 Y38.742 E41.73362
G1 X69.590 Y38.724 E41.75370
M101 ; extruder on
G1 X70.000 Y38.670 E41.81239 F1800.000
G1 X70.549 Y38.742 E41.89116
G1 X71.062 Y38.954 E41.96992
G1 X71.501 Y39.292 E42.04868
G1 X71.839 Y39.732 E42.12746
G1 X72.051 Y40.244 E42.20621
G1 X72.123 Y40.793 E42.28499
G1 X72.051 Y41.343 E42.36376
G1 X71.839 Y41.855 E42.44251
G1 X71.501 Y42.295 E42.52128
G1 X71.062 Y42.633 E42.60006
G1 X70.549 Y42.845 E42.67882
G1 X70.074 Y42.907 E42.74693
G1 X69.731 Y43.339 F7800.000
G1 E40.74693 F2400.00000
M103 ; extruder off
G1 X69.320 Y38.255 F7800.000
G1 X69.320 Y38.255 F7800.000
G1 X69.083 Y36.462 F7800.000
G1 X69.081 Y35.936 F7800.000
M101 ; extruder on
G1 E42.74693 F2400.00000
G1 X70.000 Y35.815 E42.87865 F1800.000
G1 X72.175 Y36.101 E43.19038
M101 ; extruder on
G1 X74.202 Y36.941 E43.50212 F1800.000
G1 X75.943 Y38.276 E43.81386
G1 X77.279 Y40.017 E44.12559
G1 X78.118 Y42.044 E44.43733
G1 X78.425 Y44.369 E44.77052
G1 X78.425 Y70.631 E48.50165
G1 X78.118 Y72.956 E48.83485
G1 X77.279 Y74.983 E49.14658
G1 X75.945 Y76.721 E49.45785
G1 X74.177 Y78.070 E49.77385
G1 X72.175 Y78.899 E50.08164
G1 X70.000 Y79.185 E50.39337
G1 X67.825 Y78.899 E50.70511
G1 X65.798 Y78.059 E51.01684
G1 X64.057 Y76.724 E51.32857
G1 X62.721 Y74.983 E51.64031
G1 X61.881 Y72.956 E51.95204
G1 X61.575 Y70.631 E52.28524
G1 X61.575 Y44.369 E56.01637
G1 X61.881 Y42.044 E56.34956
G1 X62.721 Y40.017 E56.66130
G1 X64.057 Y38.276 E56.97303
G1 X65.798 Y36.941 E57.28477
G1 X67.825 Y36.101 E57.59651
G1 X69.006 Y35.946 E57.76586
G1 X68.964 Y35.051 F7800.000
M101 ; extruder on
G1 X70.000 Y34.914 E57.91428 F1800.000
G1 X72.359 Y35.225 E58.25236
M101 ; extruder on
G1 X72.408 Y35.231 E58.25941 F1800.000
G1 X74.653 Y36.161 E58.60454
G1 X76.580 Y37.640 E58.94967
G1 X78.059 Y39.567 E59.29480
G1 X78.988 Y41.811 E59.63994
G1 X79.317 Y44.311 E59.99814
G1 X79.317 Y70.689 E63.74589
G1 X78.988 Y73.189 E64.10410
G1 X78.059 Y75.433 E64.44923
G1 X76.581 Y77.359 E64.79408
G1 X74.626 Y78.850 E65.14347
G1 X72.408 Y79.769 E65.48448
G1 X70.000 Y80.086 E65.82961
G1 X67.592 Y79.769 E66.17473
G1 X65.347 Y78.839 E66.51986
G1 X63.420 Y77.360 E66.86499
G1 X61.941 Y75.433 E67.21012
G1 X61.012 Y73.189 E67.55525
G1 X60.683 Y70.689 E67.91346
G1 X60.683 Y44.311 E71.66122
G1 X61.012 Y41.811 E72.01942
G1 X61.941 Y39.567 E72.36456
G1 X63.420 Y37.640 E72.70969
G1 X65.347 Y36.161 E73.05482
G1 X67.592 Y35.231 E73.39995
G1 X68.890 Y35.060 E73.58600
G1 X68.848 Y34.166 F7800.000
M101 ; extruder on
G1 X70.000 Y34.014 E73.75112 F1800.000
G1 X72.476 Y34.340 E74.10589
M101 ; extruder on
G1 X72.641 Y34.362 E74.12964 F1800.000
G1 X75.103 Y35.381 E74.50817
G1 X77.217 Y37.003 E74.88670
G1 X78.838 Y39.117 E75.26522
G1 X79.858 Y41.578 E75.64375
G1 X80.210 Y44.252 E76.02697
G1 X80.210 Y70.748 E79.79134
G1 X79.858 Y73.422 E80.17457
G1 X78.838 Y75.883 E80.55309
G1 X77.217 Y77.996 E80.93152
G1 X75.075 Y79.630 E81.31430
G1 X72.641 Y80.638 E81.68852
G1 X70.000 Y80.986 E82.06705
G1 X67.359 Y80.638 E82.44557
G1 X64.897 Y79.619 E82.82410
G1 X62.783 Y77.997 E83.20262
G1 X61.162 Y75.883 E83.58115
G1 X60.142 Y73.422 E83.95967
G1 X59.790 Y70.748 E84.34289
G1 X59.790 Y44.252 E88.10727
G1 X60.142 Y41.578 E88.49049
G1 X61.162 Y39.117 E88.86902
G1 X62.783 Y37.003 E89.24754
G1 X64.897 Y35.381 E89.62607
G1 X67.359 Y34.362 E90.00460
G1 X68.773 Y34.175 E90.20735
G1 X69.152 Y34.562 F7800.000
G1 X65.850 Y38.164 F7800.000
M101 ; extruder on
G1 X66.264 Y37.749 E90.29057 F1800.000
G1 X66.618 Y37.478 E90.35383
G1 X67.739 Y36.827 E90.53804
G1 X67.991 Y36.723 E90.57684
G1 X68.838 Y36.496 E90.70133
G1 X70.000 Y36.342 E90.86791
G1 X71.162 Y36.496 E91.03444
G1 X72.009 Y36.723 E91.15899
G1 X72.261 Y36.827 E91.19773
G1 X73.382 Y37.478 E91.38195
G1 X73.736 Y37.749 E91.44526
G1 X74.149 Y38.163 E91.52836
G1 X75.700 Y39.115 F7800.000
M101 ; extruder on
G1 X75.104 Y38.520 E91.64849 F1800.000
G1 X74.147 Y38.831 E91.79200
G1 X77.478 Y42.162 E92.46398
G1 X77.757 Y43.708 E92.68807
G1 X74.454 Y40.405 E93.35443
G1 X74.353 Y41.571 E93.52146
G1 X77.875 Y45.094 E94.23210
G1 X77.875 Y46.361 E94.41293
G1 X74.030 Y42.516 E95.18875
G1 X73.564 Y43.317 E95.32103
G1 X77.875 Y47.629 E96.19082
G1 X77.875 Y48.896 E96.37165
G1 X72.983 Y44.005 E97.35852
G1 X72.266 Y44.555 E97.48749
G1 X77.875 Y50.164 E98.61905
G1 X77.875 Y51.432 E98.79988
G1 X71.400 Y44.957 E100.10618
G1 X70.375 Y45.199 E100.25644
G1 X77.875 Y52.699 E101.76952
G1 X77.875 Y53.967 E101.95035
G1 X69.087 Y45.178 E103.72339
G1 X66.761 Y44.121 F7800.000
M101 ; extruder on
G1 X63.079 Y40.438 E104.46636 F1800.000
G1 X63.582 Y39.673 E104.59692
G1 X65.615 Y41.706 E105.00711
G1 X65.594 Y40.418 E105.19095
G1 X64.132 Y38.956 E105.48589
G1 X64.770 Y38.326 E105.61376
G1 X65.837 Y39.393 E105.82900
G1 X62.707 Y41.334 F7800.000
M101 ; extruder on
G1 X77.875 Y56.502 E108.88901 F1800.000
G1 X77.875 Y55.234 E109.06984
G1 X66.672 Y44.032 E111.32995
G1 X62.234 Y43.396 F7800.000
M101 ; extruder on
G1 X77.875 Y59.037 E114.48540 F1800.000
G1 X77.875 Y60.305 E114.66623
G1 X62.125 Y44.554 E117.84379
G1 X62.125 Y45.822 E118.02462
G1 X77.875 Y61.572 E121.20218
G1 X77.875 Y62.840 E121.38301
G1 X62.125 Y47.090 E124.56056
G1 X62.125 Y48.357 E124.74139
G1 X77.875 Y64.108 E127.91895
G1 X77.875 Y65.375 E128.09978
G1 X62.125 Y49.625 E131.27734
G1 X62.125 Y50.892 E131.45817
G1 X77.875 Y66.643 E134.63572
G1 X77.875 Y67.910 E134.81655
G1 X62.125 Y52.160 E137.99411
G1 X62.125 Y53.428 E138.17494
G1 X77.875 Y69.178 E141.35250
G1 X77.875 Y70.446 E141.53333
G1 X74.827 Y67.397 E142.14828
G1 X73.383 Y65.953 F7800.000
M101 ; extruder on
G1 X62.125 Y54.695 E144.41952 F1800.000
G1 X62.125 Y55.963 E144.60035
G1 X71.303 Y65.141 E146.45207
G1 X69.924 Y65.029 E146.64950
G1 X62.125 Y57.230 E148.22292
G1 X62.125 Y58.498 E148.40375
G1 X68.804 Y65.177 E149.75119
G1 X67.875 Y65.516 E149.89220
G1 X62.125 Y59.766 E151.05232
G1 X62.125 Y61.033 E151.23315
G1 X67.023 Y65.932 E152.22141
G1 X66.306 Y66.482 E152.35038
G1 X62.125 Y62.301 E153.19394
G1 X62.125 Y63.568 E153.37477
G1 X65.661 Y67.104 E154.08815
G1 X65.048 Y67.759 E154.21608
G1 X62.125 Y64.836 E154.80584
G1 X62.125 Y66.104 E154.98667
G1 X64.749 Y68.728 E155.51606
G1 X64.749 Y69.995 E155.69689
G1 X62.125 Y67.371 E156.22628
G1 X62.125 Y68.639 E156.40711
G1 X64.749 Y71.263 E156.93650
G1 X64.749 Y72.530 E157.11733
G1 X62.125 Y69.906 E157.64672
G1 X62.243 Y71.292 E157.84517
G1 X64.749 Y73.798 E158.35066
G1 X64.300 Y75.885 F7800.000
M101 ; extruder on
G1 X64.896 Y76.480 E158.47078 F1800.000
G1 X66.366 Y75.415 F7800.000
M101 ; extruder on
G1 X69.488 Y78.537 E159.10060 F1800.000
G1 X70.771 Y78.553 E159.28369
G1 X68.629 Y76.411 E159.71585
G1 X70.024 Y76.538 E159.91568
G1 X71.891 Y78.405 E160.29240
G1 X72.844 Y78.090 E160.43551
G1 X71.144 Y76.391 E160.77838
G1 X72.083 Y76.062 E160.92028
G1 X73.740 Y77.719 E161.25458
G1 X74.510 Y77.221 E161.38534
G1 X72.943 Y75.654 E161.70135
G1 X73.660 Y75.104 E161.83032
G1 X75.229 Y76.672 E162.14669
G1 X75.868 Y76.044 E162.27457
G1 X74.298 Y74.474 E162.59131
G1 X74.848 Y73.757 E162.72028
G1 X76.418 Y75.327 E163.03702
G1 X76.921 Y74.562 E163.16758
G1 X75.264 Y72.905 E163.50190
G1 X75.603 Y71.976 E163.64291
G1 X77.293 Y73.666 E163.98373
G1 X77.618 Y72.724 E164.12591
G1 X75.751 Y70.856 E164.50266
G1 X75.639 Y69.477 E164.70008
G1 X77.766 Y71.604 E165.12913
G1 X67.942 Y78.259 F7800.000
M101 ; extruder on
G1 X62.522 Y72.838 E166.22266 F1800.000
G1 X77.875 Y57.770 F7800.000
M101 ; extruder on
G1 X62.382 Y42.276 E169.34837 F1800.000
M73 P1
G1 Z0.900 F7800.000
G1 X69.972 Y66.655 F7800.000
M101 ; extruder on
G1 X71.064 Y66.791 E169.41717 F900.000
G1 X72.064 Y67.205 E169.48483
G1 X72.919 Y67.861 E169.55219
G1 X73.575 Y68.716 E169.61955
G1 X73.988 Y69.712 E169.68691
G1 X74.128 Y70.780 E169.75427
G1 X73.988 Y71.849 E169.82163
G1 X73.575 Y72.845 E169.88900
G1 X72.919 Y73.700 E169.95636
G1 X72.064 Y74.356 E170.02372
G1 X71.068 Y74.768 E170.09108
G1 X70.000 Y74.909 E170.15844
G1 X68.931 Y74.768 E170.22581
G1 X67.935 Y74.356 E170.29317
G1 X67.127 Y73.736 E170.35685
G1 X66.390 Y72.948 E170.42425
G1 X66.390 Y68.613 E170.69522
G1 X67.127 Y67.825 E170.76263
G1 X67.935 Y67.205 E170.82630
G1 X68.931 Y66.792 E170.89367
M101 ; extruder on
G1 X69.897 Y66.665 E170.95456 F900.000
G1 X69.973 Y67.150 F7800.000
M101 ; extruder on
G1 X70.938 Y67.270 E171.01528 F900.000
G1 X71.817 Y67.634 E171.07474
G1 X72.569 Y68.211 E171.13402
G1 X73.146 Y68.964 E171.19330
G1 X73.509 Y69.840 E171.25259
G1 X73.633 Y70.780 E171.31187
G1 X73.509 Y71.721 E171.37116
G1 X73.146 Y72.597 E171.43044
G1 X72.569 Y73.350 E171.48972
G1 X71.817 Y73.927 E171.54901
G1 X70.940 Y74.290 E171.60829
G1 X70.000 Y74.414 E171.66757
G1 X69.059 Y74.290 E171.72686
G1 X68.183 Y73.927 E171.78614
G1 X67.458 Y73.371 E171.84326
G1 X66.881 Y72.754 E171.89603
G1 X66.881 Y68.807 E172.14276
G1 X67.458 Y68.190 E172.19553
G1 X68.183 Y67.634 E172.25265
G1 X69.059 Y67.271 E172.31193
M101 ; extruder on
G1 X69.899 Y67.160 E172.36487 F900.000
G1 X69.975 Y67.607 F7800.000
M101 ; extruder on
G1 X70.821 Y67.711 E172.40982 F900.000
G1 X71.588 Y68.029 E172.45360
G1 X72.246 Y68.534 E172.49734
G1 X72.751 Y69.192 E172.54107
G1 X73.069 Y69.958 E172.58481
G1 X73.177 Y70.780 E172.62855
G1 X73.069 Y71.603 E172.67228
G1 X72.751 Y72.369 E172.71602
G1 X72.246 Y73.027 E172.75975
G1 X71.588 Y73.532 E172.80349
G1 X70.822 Y73.849 E172.84723
G1 X70.000 Y73.958 E172.89096
G1 X69.177 Y73.849 E172.93470
G1 X68.411 Y73.532 E172.97843
G1 X67.763 Y73.034 E173.02152
G1 X67.334 Y72.576 E173.05466
G1 X67.334 Y68.985 E173.24399
G1 X67.763 Y68.526 E173.27712
G1 X68.411 Y68.029 E173.32021
G1 X69.177 Y67.712 E173.36394
M101 ; extruder on
G1 X69.901 Y67.616 E173.40242 F900.000
G1 X70.242 Y67.183 F7800.000
G1 X70.000 Y43.616 F7800.000
M101 ; extruder on
G1 X69.269 Y43.520 E173.44848 F900.000
G1 X68.588 Y43.238 E173.49454
G1 X68.004 Y42.789 E173.54060
