; generated by Slic3r 1.2.9 on 2017-09-18 at 17:32:30

; external perimeters extrusion width = 0.50mm
; perimeters extrusion width = 0.58mm
; infill extrusion width = 0.58mm
; solid infill extrusion width = 0.58mm
; top infill extrusion width = 0.58mm

M127
M109 S220 ; set bed temperature
M104 S220 T0 ; set temperature
G28 ; home all axes
G1 Z5 F5000 ; lift nozzle

M73 P0
G1 Z0.500 F7800.000
G1 E-2.00000 F2400.00000
M103 ; extruder off
G1 X57.801 Y43.724 F7800.000
M101 ; extruder on
G1 E0.00000 F2400.00000
G1 X62.879 Y37.012 E1.19574 F1800.000
G1 X64.586 Y35.412 E1.52815
G1 X66.418 Y34.561 E1.81516
G1 X67.264 Y34.310 E1.94045
G1 X69.588 Y34.036 E2.27287
G1 X71.830 Y34.539 E2.59941
M101 ; extruder on
G1 X73.393 Y35.179 E2.83936 F1800.000
G1 X75.704 Y36.731 E3.23488
G1 X77.687 Y38.752 E3.63711
G1 X98.446 Y62.552 E8.12413
G1 X99.789 Y64.901 E8.50856
G1 X100.789 Y67.901 E8.95785
G1 X101.141 Y70.214 E9.29026
G1 X100.700 Y72.512 E9.62268
G1 X99.515 Y74.529 E9.95510
G1 X97.724 Y76.034 E10.28752
G1 X95.225 Y76.904 E10.66344
G1 X67.225 Y80.904 E14.68200
G1 X66.250 Y80.973 E14.82084
G1 X45.750 Y80.973 E17.73343
G1 X43.444 Y80.576 E18.06585
G1 X41.404 Y79.431 E18.39826
G1 X39.865 Y77.669 E18.73068
G1 X39.004 Y75.493 E19.06310
G1 X38.857 Y74.081 E19.26488
G1 X38.857 Y71.081 E19.69111
G1 X39.254 Y68.775 E20.02353
G1 X40.253 Y66.922 E20.32252
G1 X57.756 Y43.783 E24.44469
G1 E22.44469 F2400.00000
M103 ; extruder off
G1 X59.339 Y71.795 F7800.000
M101 ; extruder on
G1 E24.44469 F2400.00000
G1 X55.707 Y71.795 E24.96073 F1800.000
G1 X55.657 Y71.316 E25.02926
G1 X59.316 Y70.539 E25.56078
G1 X59.245 Y71.081 E25.63837
G1 X59.329 Y71.721 E25.73012
G1 X60.584 Y72.688 F7800.000
M101 ; extruder on
G1 X47.196 Y72.688 E27.63220 F1800.000
G1 X47.146 Y72.208 E27.70073
G1 X60.637 Y69.347 E29.66007
G1 X60.251 Y70.277 E29.80317
G1 X60.145 Y71.081 E29.91832
G1 X60.251 Y71.884 E30.03347
G1 X60.555 Y72.619 E30.14642
G1 E28.14642 F2400.00000
M103 ; extruder off
G1 X60.586 Y72.679 F7800.000
G1 X66.916 Y69.945 F7800.000
G1 X66.959 Y69.660 F7800.000
M101 ; extruder on
G1 E30.14642 F2400.00000
G1 X66.719 Y69.078 E30.23583 F1800.000
G1 X66.082 Y68.249 E30.38438
G1 X65.253 Y67.612 E30.53293
G1 X64.535 Y67.315 E30.64321
G1 X64.535 Y63.828 E31.13867
G1 X67.074 Y62.365 E31.55495
G1 X69.396 Y60.243 E32.00186
G1 X71.101 Y58.401 E32.35856
G1 X72.314 Y56.118 E32.72587
G1 X73.442 Y53.788 E33.09354
G1 X73.860 Y53.887 E33.15460
G1 X73.847 Y54.817 E33.28668
G1 X73.511 Y56.343 E33.50870
G1 X72.543 Y58.406 E33.83250
G1 X71.978 Y62.186 E34.37555
G1 X73.500 Y68.607 E35.31313
G1 X67.645 Y68.837 E36.14569
G1 X67.007 Y69.602 E36.28718
G1 X74.149 Y67.473 F7800.000
M101 ; extruder on
G1 X91.673 Y67.473 E38.77698 F1800.000
G1 X92.033 Y67.833 E38.84923
G1 X92.342 Y68.762 E38.98832
G1 X68.077 Y69.713 E42.43859
G1 X66.434 Y71.684 E42.80309
G1 X66.249 Y70.277 E43.00473
G1 X65.939 Y69.528 E43.11988
G1 X65.445 Y68.885 E43.23503
G1 X64.802 Y68.392 E43.35019
G1 X64.045 Y68.078 E43.46658
G1 X63.643 Y68.030 E43.52421
G1 X63.643 Y63.121 E44.22171
G1 X64.323 Y62.920 E44.32250
G1 X66.544 Y61.640 E44.68668
G1 X68.766 Y59.610 E45.11441
G1 X70.367 Y57.880 E45.44932
G1 X71.518 Y55.714 E45.79777
G1 X72.557 Y53.566 E46.13672
G1 X73.163 Y51.248 E46.47719
G1 X73.121 Y48.432 E46.87731
G1 X73.562 Y48.346 E46.94101
G1 X74.005 Y49.496 E47.11604
G1 X74.769 Y52.731 E47.58832
G1 X74.738 Y54.920 E47.89937
G1 X74.362 Y56.632 E48.14845
G1 X73.406 Y58.667 E48.46785
G1 X72.886 Y62.148 E48.96788
G1 X74.132 Y67.400 E49.73484
G1 X74.855 Y66.581 F7800.000
M101 ; extruder on
G1 X92.043 Y66.581 E52.17690 F1800.000
G1 X92.813 Y67.351 E52.33163
G1 X93.565 Y69.607 E52.66955
G1 X68.508 Y70.590 E56.23231
G1 X66.016 Y73.581 E56.78545
G1 X64.052 Y73.581 E57.06448
G1 X63.966 Y73.150 E57.12693
G1 X64.352 Y72.990 E57.18629
G1 X64.811 Y72.637 E57.26850
G1 X65.169 Y72.159 E57.35331
G1 X65.379 Y71.651 E57.43147
G1 X65.454 Y71.081 E57.51322
G1 X65.379 Y70.510 E57.59498
G1 X65.159 Y69.978 E57.67674
G1 X64.809 Y69.522 E57.75849
G1 X64.352 Y69.172 E57.84025
G1 X63.818 Y68.950 E57.92245
G1 X63.225 Y68.880 E58.00726
G1 X62.679 Y68.951 E58.08542
G1 X62.148 Y69.172 E58.16718
G1 X61.689 Y69.524 E58.24938
G1 X61.331 Y70.002 E58.33419
G1 X61.121 Y70.510 E58.41235
G1 X61.046 Y71.081 E58.49411
G1 X61.121 Y71.651 E58.57586
G1 X61.341 Y72.183 E58.65762
G1 X61.693 Y72.642 E58.73982
G1 X62.171 Y72.999 E58.82463
G1 X62.534 Y73.150 E58.88039
G1 X62.448 Y73.581 E58.94285
G1 X46.250 Y73.581 E61.24423
G1 X46.250 Y71.486 E61.54187
G1 X62.750 Y67.986 E63.93831
G1 X62.750 Y62.454 E64.72422
G1 X63.969 Y62.094 E64.90479
G1 X66.014 Y60.916 E65.24012
G1 X68.137 Y58.976 E65.64867
G1 X69.634 Y57.358 E65.96179
G1 X70.722 Y55.310 E66.29139
G1 X71.716 Y53.256 E66.61552
G1 X72.268 Y51.139 E66.92633
G1 X72.215 Y47.489 E67.44506
G1 X71.198 Y44.406 E67.90634
G1 X69.945 Y42.142 E68.27386
G1 X70.197 Y41.859 E68.32773
G1 X70.500 Y41.982 E68.37415
G1 X72.364 Y43.882 E68.75237
G1 X73.727 Y46.295 E69.14603
G1 X74.860 Y49.231 E69.59316
G1 X75.663 Y52.633 E70.08977
G1 X75.630 Y55.023 E70.42937
G1 X75.212 Y56.921 E70.70551
G1 X74.270 Y58.928 E71.02052
G1 X73.794 Y62.109 E71.47752
G1 X74.837 Y66.508 E72.11974
G1 X74.893 Y67.079 F7800.000
G1 X73.928 Y68.478 F7800.000
M101 ; extruder on
G1 X87.417 Y68.214 E76.18355 F1800.000
G1 X87.417 Y68.214 F7800.000
M101 ; extruder on
G1 X91.661 Y68.131 E76.78678 F1800.000
G1 X91.399 Y68.136 F7800.000
G1 X72.196 Y67.617 F7800.000
G1 X69.814 Y62.954 F7800.000
G1 X70.448 Y61.474 F7800.000
G1 X70.562 Y61.249 F7800.000
G1 X71.696 Y60.527 F7800.000
M101 ; extruder on
G1 X71.257 Y60.088 E76.87539 F1800.000
G1 X70.089 Y60.188 E77.04275
G1 X71.532 Y61.631 E77.33390
G1 X71.532 Y62.899 E77.51502
G1 X69.458 Y60.825 E77.93371
G1 X68.795 Y61.431 E78.06185
G1 X71.926 Y64.562 E78.69389
G1 X72.321 Y66.225 E78.93777
G1 X68.133 Y62.037 E79.78316
G1 X67.470 Y62.642 E79.91130
G1 X72.715 Y67.887 E80.97004
G1 X71.695 Y68.135 E81.11988
G1 X66.696 Y63.137 E82.12884
G1 X65.892 Y63.601 E82.26140
G1 X70.474 Y68.183 E83.18646
G1 X69.254 Y68.231 E83.36079
G1 X65.102 Y64.080 E84.19884
G1 X65.085 Y65.330 E84.37739
G1 X68.033 Y68.279 E84.97261
G1 X65.520 Y67.034 F7800.000
M101 ; extruder on
G1 X65.085 Y66.599 E85.06055 F1800.000
G1 X71.426 Y59.448 F7800.000
M101 ; extruder on
G1 X71.701 Y58.876 E85.15067 F1800.000
G1 X71.936 Y58.193 E85.25333
G1 X72.951 Y56.152 E85.57716
G1 X73.274 Y55.219 E85.71746
G1 X73.699 Y53.390 F7800.000
M101 ; extruder on
G1 X73.774 Y52.840 E85.88490 F1800.000
G1 X73.789 Y51.515 E86.28389
G1 X73.815 Y51.516 F7800.000
M101 ; extruder on
G1 X73.616 Y49.907 E86.51423 F1800.000
G1 X73.257 Y47.951 F7800.000
M101 ; extruder on
G1 X73.112 Y47.265 E86.72541 F1800.000
G1 X72.904 Y46.683 E86.91136
G1 X72.116 Y44.902 E87.49819
G1 X72.116 Y44.902 F7800.000
M101 ; extruder on
G1 X71.840 Y44.277 E87.59527 F1800.000
G1 X71.775 Y44.171 E87.61290
G1 X71.119 Y43.288 E87.76928
G1 E85.76928 F2400.00000
M103 ; extruder off
G1 X66.311 Y61.322 F7800.000
G1 X58.706 Y71.238 F7800.000
G1 X55.238 Y71.602 F7800.000
M101 ; extruder on
G1 E87.76928 F2400.00000
G1 X51.701 Y71.973 E88.84042 F1800.000
G1 X51.701 Y71.973 F7800.000
M101 ; extruder on
G1 X49.396 Y72.215 E89.16978 F1800.000
M73 P8
G1 Z0.900 F7800.000
G1 E87.16978 F2400.00000
M103 ; extruder off
G1 X65.136 Y70.575 F7800.000
M101 ; extruder on
G1 E89.16978 F2400.00000
G1 X65.202 Y71.081 E89.19665 F900.000
G1 X65.136 Y71.586 E89.22353
G1 X64.941 Y72.057 E89.25040
G1 X64.630 Y72.461 E89.27727
G1 X64.226 Y72.771 E89.30415
G1 X63.755 Y72.966 E89.33102
G1 X63.250 Y73.033 E89.35789
G1 X62.745 Y72.966 E89.38477
G1 X62.274 Y72.771 E89.41164
G1 X61.870 Y72.461 E89.43851
G1 X61.559 Y72.057 E89.46539
G1 X61.364 Y71.586 E89.49226
G1 X61.298 Y71.081 E89.51913
G1 X61.364 Y70.575 E89.54600
G1 X61.559 Y70.105 E89.57288
G1 X61.870 Y69.700 E89.59975
G1 X62.274 Y69.390 E89.62662
G1 X62.745 Y69.195 E89.65350
G1 X63.156 Y69.141 E89.67536
M101 ; extruder on
G1 X63.250 Y69.128 E89.68037 F900.000
G1 X63.755 Y69.195 E89.70724
G1 X64.226 Y69.390 E89.73412
G1 X64.630 Y69.700 E89.76099
G1 X64.941 Y70.105 E89.78786
G1 X65.107 Y70.506 E89.81078
G1 X65.612 Y70.726 F7800.000
G1 X63.250 Y68.372 F7800.000
G1 X61.219 Y69.015 F7800.000
G1 X61.200 Y69.023 F7800.000
M101 ; extruder on
G1 X60.735 Y69.629 E89.85848 F900.000
G1 X60.445 Y70.329 E89.90586
G1 X60.346 Y71.081 E89.95323
G1 X60.445 Y71.832 E90.00061
G1 X60.735 Y72.532 E90.04798
G1 X61.008 Y72.887 E90.07593
G1 X46.943 Y72.887 E90.95494
G1 X46.943 Y72.047 E91.00743
G1 X61.127 Y69.039 E91.91360
G1 X74.306 Y67.274 F7800.000
M101 ; extruder on
G1 X91.756 Y67.274 E93.00418 F3600.000
G1 X92.207 Y67.725 E93.04406
G1 X92.615 Y68.950 E93.12478
G1 X68.173 Y69.909 E94.65360
G1 X66.084 Y72.416 E94.85757
G1 X65.867 Y72.285 E94.87339
G1 X66.055 Y71.832 E94.90403
G1 X66.154 Y71.081 E94.95140
G1 X66.055 Y70.329 E94.99878
G1 X65.765 Y69.629 E95.04615
G1 X65.303 Y69.027 E95.09353
G1 X64.702 Y68.566 E95.14091
G1 X64.002 Y68.276 E95.18828
G1 X63.443 Y68.202 E95.22347
G1 X63.443 Y62.972 E95.55035
G1 X64.244 Y62.735 E95.60253
G1 X66.426 Y61.479 E95.75990
G1 X68.626 Y59.468 E95.94617
G1 X70.204 Y57.763 E96.09136
G1 X71.340 Y55.623 E96.24279
G1 X72.369 Y53.497 E96.39044
G1 X72.963 Y51.223 E96.53730
G1 X72.907 Y47.372 E96.77801
G1 X72.447 Y45.980 E96.86966
G1 X72.691 Y45.872 E96.88635
G1 X73.098 Y46.592 E96.93804
G1 X74.196 Y49.436 E97.12860
G1 X74.968 Y52.709 E97.33875
G1 X74.937 Y54.943 E97.47838
G1 X74.552 Y56.697 E97.59061
G1 X73.599 Y58.725 E97.73069
G1 X73.089 Y62.139 E97.94642
G1 X74.289 Y67.201 E98.27156
G1 X74.695 Y66.783 F7800.000
M101 ; extruder on
G1 X91.959 Y66.783 E99.35059 F3600.000
G1 X92.636 Y67.460 E99.41042
G1 X93.288 Y69.415 E99.53923
G1 X68.410 Y70.391 E101.09526
G1 X65.921 Y73.378 E101.33829
G1 X64.507 Y73.378 E101.42668
G1 X64.439 Y73.178 E101.43987
G1 X64.953 Y72.784 E101.48037
G1 X65.336 Y72.285 E101.51967
G1 X65.576 Y71.704 E101.55897
G1 X65.659 Y71.081 E101.59827
G1 X65.576 Y70.457 E101.63756
G1 X65.336 Y69.876 E101.67686
G1 X64.953 Y69.378 E101.71616
G1 X64.454 Y68.995 E101.75546
G1 X63.873 Y68.754 E101.79475
G1 X63.250 Y68.672 E101.83405
G1 X62.627 Y68.754 E101.87335
G1 X62.046 Y68.995 E101.91265
G1 X61.547 Y69.378 E101.95195
G1 X61.164 Y69.876 E101.99124
G1 X60.923 Y70.457 E102.03054
G1 X60.841 Y71.081 E102.06984
G1 X60.923 Y71.704 E102.10914
G1 X61.164 Y72.285 E102.14843
G1 X61.547 Y72.784 E102.18773
G1 X62.061 Y73.178 E102.22824
G1 X61.993 Y73.378 E102.24143
G1 X46.453 Y73.378 E103.21272
G1 X46.453 Y71.650 E103.32074
G1 X62.953 Y68.150 E104.37494
G1 X62.953 Y62.605 E104.72145
G1 X64.049 Y62.281 E104.79292
G1 X66.134 Y61.080 E104.94332
G1 X68.279 Y59.120 E105.12495
G1 X69.800 Y57.477 E105.26487
G1 X70.902 Y55.401 E105.41174
G1 X71.907 Y53.326 E105.55580
G1 X72.471 Y51.164 E105.69549
G1 X72.417 Y47.455 E105.92734
G1 X71.384 Y44.324 E106.13338
G1 X70.385 Y42.518 E106.26236
G1 X70.591 Y42.365 E106.27843
G1 X72.201 Y44.005 E106.42210
G1 X73.543 Y46.382 E106.59268
G1 X74.666 Y49.291 E106.78758
G1 X75.460 Y52.655 E107.00361
G1 X75.428 Y55.000 E107.15016
G1 X75.019 Y56.856 E107.26893
G1 X74.074 Y58.869 E107.40794
G1 X73.588 Y62.118 E107.61327
G1 X74.677 Y66.710 E107.90823
G1 X75.052 Y66.331 F7800.000
M101 ; extruder on
G1 X92.146 Y66.331 E108.80964 F1800.000
G1 X93.031 Y67.216 E108.87565
G1 X93.908 Y69.844 E109.02173
G1 X68.629 Y70.835 E110.35575
G1 X66.133 Y73.831 E110.56137
G1 X46.000 Y73.831 E111.62302
G1 X46.000 Y71.283 E111.75736
G1 X62.500 Y67.783 E112.64680
G1 X62.500 Y62.267 E112.93766
G1 X63.870 Y61.862 E113.01297
G1 X65.865 Y60.713 E113.13443
G1 X67.960 Y58.798 E113.28407
G1 X69.428 Y57.212 E113.39802
G1 X70.499 Y55.196 E113.51839
G1 X71.480 Y53.169 E113.63716
G1 X72.018 Y51.109 E113.74943
G1 X71.965 Y47.531 E113.93815
G1 X70.968 Y44.506 E114.10610
G1 X69.753 Y42.311 E114.23837
G1 X68.829 Y41.296 E114.31076
G1 X69.208 Y41.184 E114.33159
G1 X70.642 Y41.770 E114.41330
G1 X72.566 Y43.731 E114.55813
G1 X73.953 Y46.188 E114.70694
G1 X75.099 Y49.157 E114.87475
G1 X75.913 Y52.606 E115.06160
G1 X75.879 Y55.052 E115.19061
G1 X75.450 Y57.002 E115.29592
G1 X74.512 Y59.001 E115.41237
G1 X74.049 Y62.099 E115.57752
G1 X75.035 Y66.258 E115.80291
G1 X75.091 Y66.829 F7800.000
G1 X73.286 Y62.131 F7800.000
G1 X70.562 Y61.249 F7800.000
G1 X71.803 Y58.584 F7800.000
G1 X71.834 Y58.490 F7800.000
G1 X73.786 Y58.782 F7800.000
G1 X73.718 Y57.656 F7800.000
M101 ; extruder on
G1 X63.736 Y67.637 E116.68724 F1200.000
G1 X64.054 Y68.015 E116.71818
G1 X73.276 Y58.793 E117.53521
G1 X73.154 Y59.611 E117.58703
G1 X64.546 Y68.219 E118.34963
G1 X64.990 Y68.471 E118.38161
G1 X73.031 Y60.430 E119.09403
G1 X72.909 Y61.248 E119.14586
G1 X65.384 Y68.773 E119.81256
G1 X65.709 Y69.144 E119.84346
G1 X72.791 Y62.062 E120.47091
G1 X72.924 Y62.624 E120.50713
G1 X66.010 Y69.539 E121.11974
G1 X66.214 Y70.031 E121.15311
G1 X73.058 Y63.187 E121.75948
G1 X73.191 Y63.749 E121.79569
G1 X66.369 Y70.571 E122.40010
G1 X66.450 Y71.186 E122.43897
G1 X73.325 Y64.312 E123.04804
G1 X73.458 Y64.874 E123.08426
G1 X68.743 Y69.589 E123.50201
G1 X69.467 Y69.561 E123.54742
G1 X73.591 Y65.436 E123.91282
G1 X73.725 Y65.999 E123.94904
G1 X70.191 Y69.532 E124.26209
G1 X70.916 Y69.504 E124.30750
G1 X73.858 Y66.561 E124.56820
G1 X73.991 Y67.124 E124.60442
G1 X71.640 Y69.476 E124.81277
G1 X72.364 Y69.447 E124.85818
G1 X74.244 Y67.567 E125.02474
G1 X74.940 Y67.567 E125.06834
G1 X73.088 Y69.419 E125.23239
G1 X73.813 Y69.390 E125.27779
G1 X75.636 Y67.567 E125.43933
G1 X76.332 Y67.567 E125.48292
G1 X74.537 Y69.362 E125.64194
G1 X75.261 Y69.334 E125.68734
G1 X77.027 Y67.567 E125.84384
G1 X77.723 Y67.567 E125.88744
G1 X75.985 Y69.305 E126.04142
G1 X76.710 Y69.277 E126.08683
G1 X78.419 Y67.567 E126.23829
G1 X79.115 Y67.567 E126.28189
G1 X77.434 Y69.248 E126.43084
G1 X78.158 Y69.220 E126.47625
G1 X79.811 Y67.567 E126.62268
G1 X80.507 Y67.567 E126.66627
G1 X78.882 Y69.192 E126.81019
G1 X79.607 Y69.163 E126.85560
G1 X81.203 Y67.567 E126.99700
G1 X81.898 Y67.567 E127.04059
G1 X80.331 Y69.135 E127.17948
G1 X81.055 Y69.106 E127.22489
G1 X82.594 Y67.567 E127.36126
G1 X83.290 Y67.567 E127.40485
G1 X81.779 Y69.078 E127.53870
G1 X82.504 Y69.049 E127.58411
G1 X83.986 Y67.567 E127.71545
G1 X84.682 Y67.567 E127.75904
G1 X83.228 Y69.021 E127.88786
G1 X83.952 Y68.993 E127.93327
G1 X85.378 Y67.567 E128.05957
G1 X86.074 Y67.567 E128.10316
G1 X84.676 Y68.964 E128.22695
G1 X85.401 Y68.936 E128.27236
G1 X86.769 Y67.567 E128.39363
G1 X87.465 Y67.567 E128.43722
G1 X86.125 Y68.907 E128.55598
G1 X86.849 Y68.879 E128.60138
G1 X88.161 Y67.567 E128.71762
G1 X88.857 Y67.567 E128.76122
G1 X87.573 Y68.851 E128.87494
G1 X88.298 Y68.822 E128.92035
G1 X89.553 Y67.567 E129.03155
G1 X90.249 Y67.567 E129.07514
G1 X89.022 Y68.794 E129.18383
G1 X89.746 Y68.765 E129.22924
G1 X90.944 Y67.567 E129.33541
G1 X91.640 Y67.567 E129.37901
G1 X90.470 Y68.737 E129.48266
G1 X91.195 Y68.709 E129.52807
G1 X91.990 Y67.913 E129.59852
G1 X92.164 Y68.435 E129.63299
G1 X91.919 Y68.680 E129.65469
G1 X72.196 Y67.617 F7800.000
G1 X71.599 Y59.089 F7800.000
G1 X72.825 Y56.416 F7800.000
G1 X72.951 Y56.152 F7800.000
G1 X74.736 Y56.759 F7800.000
G1 X74.295 Y56.382 F7800.000
M101 ; extruder on
G1 X63.736 Y66.941 E130.59017 F1200.000
G1 X63.736 Y66.245 E130.63376
G1 X74.491 Y55.490 E131.58663
G1 X74.647 Y54.639 E131.64086
G1 X63.736 Y65.549 E132.60752
G1 X63.736 Y64.854 E132.65111
G1 X68.243 Y60.347 E133.05041
G1 X69.622 Y58.968 F7800.000
M101 ; extruder on
G1 X74.657 Y53.933 E133.49649 F1200.000
G1 X74.667 Y53.228 E133.54070
G1 X71.141 Y56.753 E133.85304
G1 X71.871 Y55.327 F7800.000
M101 ; extruder on
G1 X74.651 Y52.548 E134.09931 F1200.000
G1 X74.518 Y51.985 E134.13555
G1 X72.524 Y53.979 E134.31221
G1 X72.842 Y52.965 E134.37877
G1 X74.385 Y51.422 E134.51549
G1 X74.252 Y50.859 E134.55172
G1 X73.088 Y52.023 E134.65490
G1 X73.254 Y51.161 E134.70987
G1 X74.119 Y50.296 E134.78658
G1 X73.986 Y49.733 E134.82282
G1 X73.244 Y50.476 E134.88865
G1 X73.234 Y49.790 E134.93162
G1 X73.487 Y49.537 E134.95405
G1 X71.803 Y58.584 F7800.000
G1 X69.082 Y65.253 F7800.000
G1 X67.904 Y65.596 F7800.000
G1 X65.081 Y64.143 F7800.000
