; generated by Slic3r 1.2.9 on 2017-09-20 at 19:40:09

; external perimeters extrusion width = 0.50mm
; perimeters extrusion width = 0.58mm
; infill extrusion width = 0.58mm
; solid infill extrusion width = 0.58mm
; top infill extrusion width = 0.58mm

M127
M109 S210 ; set bed temperature
M104 S220 T0 ; set temperature
G28 ; home all axes
G1 Z5 F5000 ; lift nozzle

M73 P0
G1 Z0.500 F7800.000
G1 E-2.00000 F2400.00000
M103 ; extruder off
G1 X38.078 Y32.213 F7800.000
M101 ; extruder on
G1 E0.00000 F2400.00000
G1 X39.261 Y31.046 E0.23603 F1800.000
G1 X50.261 Y22.546 E2.21111
G1 X52.328 Y21.450 E2.54353
G1 X54.476 Y21.107 E2.85246
G1 X74.476 Y21.107 E5.69401
G1 X76.478 Y21.404 E5.98158
M101 ; extruder on
G1 X104.478 Y29.905 E10.13906 F1800.000
G1 X106.569 Y30.954 E10.47148
G1 X108.188 Y32.643 E10.80390
G1 X109.149 Y34.776 E11.13632
G1 X109.368 Y36.500 E11.38317
G1 X109.368 Y78.500 E17.35043
G1 X108.971 Y80.806 E17.68284
G1 X107.826 Y82.846 E18.01526
G1 X106.064 Y84.385 E18.34768
G1 X104.478 Y85.095 E18.59456
G1 X76.478 Y93.596 E22.75201
G1 X74.476 Y93.893 E23.03958
G1 X54.476 Y93.893 E25.88113
G1 X52.170 Y93.496 E26.21355
G1 X50.261 Y92.454 E26.52249
G1 X39.261 Y83.954 E28.49757
G1 X37.679 Y82.230 E28.82999
G1 X36.955 Y80.735 E29.06601
G1 X32.168 Y66.767 E31.16382
G1 X31.278 Y63.632 E31.62687
G1 X31.086 Y62.711 E31.76052
G1 X30.696 Y59.872 E32.16775
G1 X30.632 Y58.933 E32.30140
G1 X30.632 Y56.067 E32.70862
G1 X30.710 Y55.026 E32.85698
G1 X31.086 Y52.289 E33.24946
G1 X31.278 Y51.368 E33.38311
G1 X32.168 Y48.233 E33.84616
G1 X36.955 Y34.265 E35.94397
G1 X38.042 Y32.278 E36.26573
G1 E34.26573 F2400.00000
M103 ; extruder off
G1 X40.281 Y33.892 F7800.000
M101 ; extruder on
G1 E36.26573 F2400.00000
G1 X52.547 Y24.414 E38.46811 F1800.000
G1 X53.809 Y23.983 E38.65756
G1 X74.772 Y23.983 E41.63597
G1 X75.359 Y24.070 E41.72023
M101 ; extruder on
G1 X104.912 Y33.042 E46.10832 F1800.000
G1 X106.493 Y35.173 E46.48535
G1 X106.493 Y79.827 E52.82967
G1 X104.912 Y81.959 E53.20677
G1 X75.359 Y90.930 E57.59476
G1 X74.772 Y91.017 E57.67902
G1 X53.809 Y91.017 E60.65743
G1 X52.547 Y90.586 E60.84689
G1 X40.281 Y81.108 E63.04926
G1 X39.458 Y79.433 E63.31440
G1 X39.458 Y73.852 E64.10736
G1 X39.355 Y73.562 E64.15110
G1 X38.116 Y72.039 E64.43001
G1 X37.958 Y71.815 E64.46901
G1 X35.277 Y67.405 E65.20223
G1 X35.320 Y67.329 E65.21471
G1 X35.341 Y66.910 E65.27423
G1 X34.949 Y66.007 E65.41417
G1 X34.857 Y65.748 E65.45316
G1 X34.010 Y62.724 E65.89938
G1 X33.954 Y62.456 E65.93837
G1 X33.559 Y59.583 E66.35034
G1 X33.507 Y59.070 E66.42353
G1 X33.507 Y55.930 E66.86974
G1 X33.526 Y55.656 E66.90873
G1 X33.954 Y52.544 E67.35495
G1 X34.010 Y52.276 E67.39394
G1 X34.857 Y49.252 E67.84016
G1 X34.949 Y48.993 E67.87915
G1 X36.200 Y46.112 E68.32537
G1 X36.326 Y45.869 E68.36436
G1 X37.958 Y43.185 E68.81058
G1 X38.116 Y42.961 E68.84957
G1 X39.355 Y41.438 E69.12849
G1 X39.458 Y41.148 E69.17222
G1 X39.458 Y35.567 E69.96519
G1 X40.248 Y33.959 E70.21967
G1 X40.991 Y34.471 F7800.000
M101 ; extruder on
G1 X52.975 Y25.211 E72.37154 F1800.000
G1 X53.957 Y24.876 E72.51889
G1 X74.706 Y24.876 E75.46689
M101 ; extruder on
G1 X75.162 Y24.943 E75.53242 F1800.000
G1 X104.371 Y33.810 E79.86926
G1 X105.600 Y35.468 E80.16250
G1 X105.600 Y79.532 E86.42303
G1 X104.370 Y81.190 E86.71633
G1 X75.162 Y90.057 E91.05309
G1 X74.706 Y90.124 E91.11862
G1 X53.957 Y90.124 E94.06662
G1 X52.975 Y89.789 E94.21398
G1 X40.991 Y80.529 E96.36584
G1 X40.351 Y79.226 E96.57205
G1 X40.351 Y73.535 E97.38064
G1 X40.248 Y73.245 E97.42437
G1 X38.828 Y71.499 E97.74403
G1 X38.705 Y71.325 E97.77436
G1 X36.311 Y67.388 E98.42906
G1 X36.337 Y66.961 E98.48973
G1 X35.780 Y65.679 E98.68833
G1 X35.708 Y65.478 E98.71865
G1 X34.877 Y62.513 E99.15621
G1 X34.834 Y62.304 E99.18653
G1 X34.443 Y59.461 E99.59417
G1 X34.400 Y59.040 E99.65438
G1 X34.400 Y55.960 E100.09192
G1 X34.415 Y55.747 E100.12225
G1 X34.834 Y52.696 E100.55980
G1 X34.877 Y52.487 E100.59012
G1 X35.708 Y49.522 E101.02768
G1 X35.780 Y49.321 E101.05800
G1 X37.007 Y46.496 E101.49556
G1 X37.105 Y46.306 E101.52588
G1 X38.705 Y43.675 E101.96343
G1 X38.828 Y43.501 E101.99376
G1 X40.248 Y41.755 E102.31342
G1 X40.351 Y41.465 E102.35716
G1 X40.351 Y35.774 E103.16574
G1 X40.958 Y34.539 E103.36130
G1 X41.701 Y35.051 F7800.000
M101 ; extruder on
G1 X53.404 Y26.008 E105.46266 F1800.000
G1 X54.105 Y25.768 E105.56791
G1 X74.640 Y25.768 E108.48549
G1 X74.966 Y25.817 E108.53230
M101 ; extruder on
G1 X103.829 Y34.579 E112.81788 F1800.000
G1 X104.707 Y35.763 E113.02734
G1 X104.707 Y79.237 E119.20407
G1 X103.829 Y80.422 E119.41358
G1 X74.966 Y89.183 E123.69910
G1 X74.640 Y89.232 E123.74591
G1 X54.105 Y89.232 E126.66349
G1 X53.404 Y88.992 E126.76875
G1 X41.701 Y79.949 E128.87010
G1 X41.244 Y79.018 E129.01740
G1 X41.244 Y73.217 E129.84159
G1 X41.141 Y72.927 E129.88533
G1 X39.452 Y70.835 E130.26735
G1 X37.316 Y67.323 E130.85136
G1 X37.332 Y67.012 E130.89553
G1 X36.560 Y65.208 E131.17440
G1 X35.745 Y62.301 E131.60329
G1 X35.293 Y59.009 E132.07539
G1 X35.303 Y55.839 E132.52589
G1 X35.745 Y52.699 E132.97639
G1 X36.560 Y49.792 E133.40527
G1 X37.813 Y46.880 E133.85577
G1 X39.452 Y44.165 E134.30627
G1 X41.141 Y42.073 E134.68829
G1 X41.244 Y41.783 E134.73202
G1 X41.244 Y35.982 E135.55622
G1 X41.668 Y35.118 E135.69286
G1 X42.411 Y35.631 F7800.000
M101 ; extruder on
G1 X53.833 Y26.805 E137.74371 F1800.000
G1 X54.253 Y26.661 E137.80686
G1 X74.574 Y26.661 E140.69403
M101 ; extruder on
G1 X74.770 Y26.690 E140.72212 F1800.000
G1 X103.288 Y35.347 E144.95644
G1 X103.815 Y36.058 E145.08211
G1 X103.815 Y78.942 E151.17505
G1 X103.288 Y79.653 E151.30076
G1 X74.770 Y88.310 E155.53504
G1 X74.574 Y88.339 E155.56313
G1 X54.253 Y88.339 E158.45030
G1 X53.833 Y88.195 E158.51345
G1 X42.411 Y79.369 E160.56430
G1 X42.136 Y78.811 E160.65268
G1 X42.136 Y72.900 E161.49249
G1 X42.033 Y72.610 E161.53623
G1 X40.199 Y70.345 E161.95034
G1 X38.318 Y67.252 E162.46468
G1 X38.327 Y67.063 E162.49150
G1 X37.411 Y64.938 E162.82039
G1 X36.613 Y62.090 E163.24061
G1 X36.185 Y58.979 E163.68676
G1 X36.192 Y55.930 E164.11994
G1 X36.613 Y52.910 E164.55313
G1 X37.442 Y49.976 E164.98632
G1 X38.620 Y47.263 E165.40654
G1 X40.199 Y44.655 E165.83972
G1 X42.033 Y42.390 E166.25383
G1 X42.136 Y42.100 E166.29757
G1 X42.136 Y36.189 E167.13738
G1 X42.378 Y35.698 E167.21511
G1 E165.21511 F2400.00000
M103 ; extruder off
G1 X53.276 Y26.176 F7800.000
G1 X54.310 Y26.000 F7800.000
G1 X74.549 Y26.000 F7800.000
G1 X74.549 Y27.000 F7800.000
G1 X102.922 Y36.353 F7800.000
M101 ; extruder on
G1 E167.21511 F2400.00000
G1 X102.922 Y78.647 E173.22426 F1800.000
G1 X102.746 Y78.884 E173.26616
G1 X74.574 Y87.437 E177.44921
G1 X54.401 Y87.446 E180.31523
G1 X54.261 Y87.398 E180.33628
G1 X43.121 Y78.790 E182.33661
G1 X43.029 Y78.604 E182.36607
G1 X43.029 Y72.583 E183.22150
G1 X42.926 Y72.293 E183.26524
G1 X40.946 Y69.855 E183.71145
G1 X39.320 Y67.181 E184.15612
G1 X39.323 Y67.115 E184.16559
G1 X38.262 Y64.668 E184.54450
G1 X37.481 Y61.878 E184.95605
G1 X37.078 Y58.948 E185.37625
G1 X37.080 Y56.021 E185.79212
G1 X37.481 Y53.122 E186.20800
G1 X38.273 Y50.304 E186.62387
G1 X39.441 Y47.620 E187.03975
G1 X40.946 Y45.145 E187.45130
G1 X42.926 Y42.707 E187.89751
G1 X43.029 Y42.417 E187.94124
G1 X43.029 Y36.396 E188.79667
G1 X43.121 Y36.210 E188.82613
G1 X54.261 Y27.602 E190.82647
G1 X54.401 Y27.554 E190.84752
G1 X74.574 Y27.563 E193.71354
G1 X102.746 Y36.116 E197.89660
G1 X102.877 Y36.292 E197.92784
G1 E195.92784 F2400.00000
M103 ; extruder off
G1 X43.976 Y71.334 F7800.000
M101 ; extruder on
G1 E197.92784 F2400.00000
G1 X43.366 Y71.334 E198.01447 F1800.000
G1 X41.729 Y69.321 E198.38305
G1 X40.275 Y66.931 E198.78055
G1 X39.160 Y64.365 E199.17805
G1 X38.405 Y61.671 E199.57555
G1 X38.024 Y58.899 E199.97305
G1 X38.024 Y56.101 E200.37056
G1 X38.405 Y53.329 E200.76806
G1 X39.160 Y50.635 E201.16556
G1 X40.275 Y48.069 E201.56306
G1 X41.729 Y45.679 E201.96056
G1 X43.366 Y43.666 E202.32914
G1 X43.976 Y43.666 E202.41577
G1 X43.976 Y36.746 E203.39907
G1 X54.646 Y28.500 E205.31502
G1 X74.401 Y28.500 E208.12178
G1 X101.976 Y36.871 E212.21599
G1 X101.976 Y78.129 E218.07790
G1 X74.401 Y86.500 E222.17211
G1 X54.646 Y86.500 E224.97887
G1 X43.976 Y78.254 E226.89482
G1 X43.976 Y71.409 E227.86746
G1 X43.976 Y70.834 F7800.000
G1 X44.476 Y70.834 F7800.000
G1 X45.173 Y50.607 F7800.000
G1 X54.185 Y44.449 F7800.000
G1 X58.061 Y45.997 F7800.000
G1 X58.648 Y46.183 F7800.000
G1 X60.480 Y46.942 F7800.000
G1 X60.971 Y46.302 F7800.000
G1 X61.223 Y45.865 F7800.000
M101 ; extruder on
G1 X59.462 Y44.513 E228.18288 F1800.000
G1 X58.111 Y42.752 E228.49830
G1 X57.261 Y40.701 E228.81372
G1 X56.971 Y38.500 E229.12915
G1 X57.261 Y36.299 E229.44457
G1 X58.111 Y34.248 E229.75999
G1 X59.462 Y32.487 E230.07541
G1 X61.223 Y31.135 E230.39083
G1 X63.274 Y30.285 E230.70626
G1 X65.151 Y30.038 E230.97524
M101 ; extruder on
G1 X65.476 Y29.996 E231.02168 F1800.000
G1 X67.677 Y30.285 E231.33710
G1 X69.728 Y31.135 E231.65252
G1 X71.489 Y32.487 E231.96795
G1 X72.840 Y34.248 E232.28337
G1 X73.690 Y36.299 E232.59879
G1 X73.980 Y38.500 E232.91421
G1 X73.690 Y40.701 E233.22963
G1 X72.840 Y42.752 E233.54506
G1 X71.489 Y44.513 E233.86048
G1 X69.728 Y45.865 E234.17590
G1 X67.677 Y46.715 E234.49132
G1 X65.476 Y47.004 E234.80675
G1 X63.274 Y46.715 E235.12217
G1 X61.293 Y45.894 E235.42693
G1 X60.780 Y46.096 F7800.000
G1 X44.868 Y44.559 F7800.000
M101 ; extruder on
G1 X44.868 Y37.184 E236.47479 F1800.000
G1 X54.951 Y29.393 E238.28516
G1 X61.970 Y29.393 E239.28248
G1 X62.056 Y29.824 E239.34493
G1 X60.773 Y30.355 E239.54224
G1 X58.825 Y31.850 E239.89106
G1 X57.331 Y33.798 E240.23988
G1 X56.391 Y36.066 E240.58870
G1 X56.071 Y38.500 E240.93752
G1 X56.391 Y40.934 E241.28633
G1 X57.331 Y43.202 E241.63515
G1 X58.825 Y45.150 E241.98397
G1 X60.773 Y46.645 E242.33279
G1 X63.041 Y47.584 E242.68160
G1 X65.476 Y47.905 E243.03042
G1 X67.910 Y47.584 E243.37924
G1 X70.178 Y46.645 E243.72806
G1 X72.126 Y45.150 E244.07688
G1 X73.620 Y43.202 E244.42569
G1 X74.560 Y40.934 E244.77451
G1 X74.880 Y38.500 E245.12333
G1 X74.560 Y36.066 E245.47215
G1 X73.620 Y33.798 E245.82096
G1 X72.126 Y31.850 E246.16978
G1 X70.178 Y30.355 E246.51860
G1 X68.895 Y29.824 E246.71591
G1 X68.981 Y29.393 E246.77836
G1 X74.269 Y29.393 E247.52970
G1 X101.083 Y37.533 E251.51104
G1 X101.083 Y55.203 E254.02166
G1 X100.582 Y55.236 E254.09293
G1 X100.355 Y53.513 E254.33988
G1 X98.816 Y49.798 E254.91124
G1 X96.368 Y46.607 E255.48260
G1 X93.178 Y44.159 E256.05395
G1 X89.463 Y42.620 E256.62530
G1 X85.476 Y42.095 E257.19666
G1 X81.488 Y42.620 E257.76802
G1 X77.773 Y44.159 E258.33938
G1 X74.583 Y46.607 E258.91073
G1 X72.135 Y49.798 E259.48209
G1 X70.596 Y53.513 E260.05344
G1 X70.071 Y57.500 E260.62480
G1 X70.596 Y61.487 E261.19615
G1 X72.135 Y65.202 E261.76751
G1 X74.583 Y68.393 E262.33887
G1 X77.773 Y70.841 E262.91022
G1 X81.488 Y72.380 E263.48157
G1 X85.476 Y72.905 E264.05293
G1 X89.463 Y72.380 E264.62429
G1 X93.178 Y70.841 E265.19565
G1 X96.368 Y68.393 E265.76700
G1 X98.816 Y65.202 E266.33836
G1 X100.355 Y61.487 E266.90972
G1 X100.582 Y59.764 E267.15667
G1 X101.083 Y59.797 E267.22794
G1 X101.083 Y77.467 E269.73856
G1 X74.269 Y85.607 E273.71990
G1 X68.981 Y85.607 E274.47123
G1 X68.895 Y85.176 E274.53369
G1 X70.178 Y84.645 E274.73100
G1 X72.126 Y83.150 E275.07982
G1 X73.620 Y81.202 E275.42863
G1 X74.560 Y78.934 E275.77745
G1 X74.880 Y76.500 E276.12627
G1 X74.560 Y74.066 E276.47509
G1 X73.620 Y71.798 E276.82391
G1 X72.126 Y69.850 E277.17272
G1 X70.178 Y68.355 E277.52154
G1 X67.910 Y67.416 E277.87036
G1 X65.476 Y67.095 E278.21918
G1 X63.041 Y67.416 E278.56799
G1 X60.773 Y68.355 E278.91681
G1 X58.825 Y69.850 E279.26563
G1 X57.331 Y71.798 E279.61445
G1 X56.391 Y74.066 E279.96327
G1 X56.071 Y76.500 E280.31208
G1 X56.391 Y78.934 E280.66090
G1 X57.331 Y81.202 E281.00972
G1 X58.825 Y83.150 E281.35854
G1 X60.773 Y84.645 E281.70735
G1 X62.056 Y85.176 E281.90467
G1 X61.970 Y85.607 E281.96712
G1 X54.951 Y85.607 E282.96444
G1 X44.868 Y77.816 E284.77481
G1 X44.868 Y70.441 E285.82267
G1 X43.790 Y70.441 E285.97581
G1 X42.460 Y68.805 E286.27539
G1 X41.069 Y66.519 E286.65555
G1 X40.003 Y64.065 E287.03569
G1 X39.282 Y61.489 E287.41585
G1 X38.917 Y58.838 E287.79600
G1 X38.917 Y56.162 E288.17615
G1 X39.282 Y53.511 E288.55630
G1 X40.003 Y50.935 E288.93645
G1 X41.069 Y48.481 E289.31660
G1 X42.460 Y46.195 E289.69675
G1 X43.790 Y44.559 E289.99633
G1 X44.793 Y44.559 E290.13882
G1 X65.544 Y48.796 F7800.000
M101 ; extruder on
G1 X68.143 Y48.454 E290.51120 F1800.000
G1 X70.628 Y47.424 E290.89341
G1 X72.762 Y45.787 E291.27562
G1 X74.400 Y43.653 E291.65784
G1 X75.430 Y41.167 E292.04005
G1 X75.781 Y38.500 E292.42226
G1 X75.430 Y35.833 E292.80448
G1 X74.400 Y33.347 E293.18669
G1 X72.762 Y31.213 E293.56890
G1 X72.027 Y30.649 E293.70061
G1 X72.150 Y30.285 E293.75515
G1 X74.136 Y30.285 E294.03731
G1 X100.190 Y38.195 E297.90578
G1 X100.190 Y49.655 E299.53400
G1 X99.759 Y49.740 E299.59646
G1 X99.596 Y49.347 E299.65690
G1 X97.005 Y45.971 E300.26165
G1 X93.628 Y43.379 E300.86640
G1 X89.696 Y41.750 E301.47115
G1 X85.476 Y41.195 E302.07590
G1 X81.255 Y41.750 E302.68066
G1 X77.323 Y43.379 E303.28541
G1 X73.946 Y45.971 E303.89016
G1 X71.355 Y49.347 E304.49491
G1 X69.726 Y53.280 E305.09966
G1 X69.621 Y54.080 E305.21436
G1 X69.213 Y54.134 E305.27275
G1 X68.266 Y51.847 E305.62438
G1 X66.469 Y49.506 E306.04368
G1 X65.604 Y48.842 E306.19873
G1 X69.213 Y60.866 F7800.000
M101 ; extruder on
G1 X69.621 Y60.920 E306.25712 F1800.000
G1 X69.726 Y61.720 E306.37182
G1 X71.355 Y65.653 E306.97657
G1 X73.946 Y69.029 E307.58132
G1 X77.323 Y71.621 E308.18607
G1 X81.255 Y73.250 E308.79082
G1 X85.476 Y73.805 E309.39557
G1 X89.696 Y73.250 E310.00033
G1 X93.628 Y71.621 E310.60508
G1 X97.005 Y69.029 E311.20983
G1 X99.596 Y65.653 E311.81458
G1 X99.759 Y65.260 E311.87502
G1 X100.190 Y65.345 E311.93747
G1 X100.190 Y76.805 E313.56569
G1 X74.136 Y84.715 E317.43416
G1 X72.150 Y84.715 E317.71633
G1 X72.027 Y84.351 E317.77086
G1 X72.762 Y83.787 E317.90257
G1 X74.400 Y81.653 E318.28479
G1 X75.430 Y79.167 E318.66700
G1 X75.781 Y76.500 E319.04921
G1 X75.430 Y73.833 E319.43143
G1 X74.400 Y71.347 E319.81364
G1 X72.762 Y69.213 E320.19585
G1 X70.628 Y67.576 E320.57807
G1 X68.143 Y66.546 E320.96028
G1 X65.544 Y66.204 E321.33266
G1 X66.469 Y65.494 E321.49836
G1 X68.266 Y63.153 E321.91766
G1 X69.184 Y60.935 E322.25863
G1 X67.086 Y65.754 F7800.000
G1 X58.287 Y68.939 F7800.000
G1 X51.414 Y71.699 F7800.000
G1 X50.826 Y71.942 F7800.000
G1 X44.476 Y70.834 F7800.000
G1 X44.476 Y69.000 F7800.000
G1 X45.761 Y69.548 F7800.000
M101 ; extruder on
G1 X44.215 Y69.548 E322.47830 F1800.000
G1 X43.191 Y68.289 E322.70888
G1 X41.864 Y66.107 E323.07168
G1 X40.847 Y63.765 E323.43448
G1 X40.158 Y61.307 E323.79728
G1 X39.810 Y58.777 E324.16008
G1 X39.810 Y56.223 E324.52288
G1 X40.158 Y53.693 E324.88568
G1 X40.847 Y51.235 E325.24848
G1 X41.864 Y48.893 E325.61128
G1 X43.191 Y46.711 E325.97408
G1 X44.215 Y45.452 E326.20466
G1 X45.761 Y45.452 E326.42432
G1 X45.761 Y37.622 E327.53673
G1 X55.256 Y30.285 E329.24153
G1 X58.801 Y30.285 E329.74522
G1 X58.924 Y30.649 E329.79975
G1 X58.189 Y31.213 E329.93146
G1 X56.551 Y33.347 E330.31367
G1 X55.522 Y35.833 E330.69588
G1 X55.170 Y38.500 E331.07810
G1 X55.522 Y41.167 E331.46031
G1 X56.551 Y43.653 E331.84253
G1 X58.189 Y45.787 E332.22474
G1 X58.685 Y46.167 E332.31355
G1 X55.550 Y46.580 E332.76282
G1 X52.823 Y47.709 E333.18212
G1 X50.482 Y49.506 E333.60142
G1 X48.685 Y51.847 E334.02073
G1 X48.538 Y52.203 E334.07540
G1 X47.556 Y54.574 E334.44003
G1 X47.170 Y57.500 E334.85933
G1 X47.556 Y60.426 E335.27864
G1 X48.685 Y63.153 E335.69794
G1 X50.482 Y65.494 E336.11724
G1 X52.823 Y67.291 E336.53654
G1 X55.550 Y68.420 E336.95585
G1 X58.685 Y68.833 E337.40512
G1 X58.189 Y69.213 E337.49393
G1 X56.551 Y71.347 E337.87614
G1 X55.522 Y73.833 E338.25836
G1 X55.170 Y76.500 E338.64057
G1 X55.522 Y79.167 E339.02278
G1 X56.551 Y81.653 E339.40500
G1 X58.189 Y83.787 E339.78721
G1 X58.924 Y84.351 E339.91892
G1 X58.801 Y84.715 E339.97345
G1 X55.256 Y84.715 E340.47714
G1 X45.761 Y77.378 E342.18194
G1 X45.761 Y69.623 E343.28369
G1 X51.755 Y64.221 F7800.000
