; generated by Slic3r 1.2.9 on 2017-09-20 at 19:45:13

; external perimeters extrusion width = 0.50mm
; perimeters extrusion width = 0.58mm
; infill extrusion width = 0.58mm
; solid infill extrusion width = 0.58mm
; top infill extrusion width = 0.58mm

M127
M109 S210 ; set bed temperature
M104 S220 T0 ; set temperature
G28 ; home all axes
G1 Z5 F5000 ; lift nozzle

M73 P0
G1 Z0.500 F7800.000
G1 E-2.00000 F2400.00000
M103 ; extruder off
G1 X20.412 Y33.615 F7800.000
M101 ; extruder on
G1 E0.00000 F2400.00000
G1 X22.587 Y32.754 E0.33242 F1800.000
G1 X24.000 Y32.607 E0.53420
G1 X116.000 Y32.607 E13.60532
G1 X118.306 Y33.004 E13.93774
M101 ; extruder on
G1 X120.346 Y34.150 E14.27016 F1800.000
G1 X121.885 Y35.912 E14.60258
G1 X122.746 Y38.087 E14.93499
G1 X122.893 Y39.500 E15.13677
G1 X122.893 Y75.500 E20.25156
G1 X122.496 Y77.806 E20.58398
G1 X121.350 Y79.846 E20.91640
G1 X119.588 Y81.385 E21.24882
G1 X117.413 Y82.246 E21.58123
G1 X116.000 Y82.393 E21.78301
G1 X24.000 Y82.393 E34.85414
G1 X21.694 Y81.996 E35.18656
G1 X19.654 Y80.850 E35.51898
G1 X18.115 Y79.088 E35.85139
G1 X17.254 Y76.913 E36.18381
G1 X17.107 Y75.500 E36.38559
G1 X17.107 Y39.500 E41.50038
G1 X17.504 Y37.194 E41.83280
G1 X18.650 Y35.154 E42.16522
G1 X20.355 Y33.664 E42.48698
G1 X22.308 Y35.511 F7800.000
M101 ; extruder on
G1 X22.336 Y35.483 E42.49261 F1800.000
G1 X117.664 Y35.483 E56.03656
G1 X120.017 Y37.836 E56.50938
M101 ; extruder on
G1 X120.017 Y77.164 E62.09699 F1800.000
G1 X117.664 Y79.517 E62.56982
G1 X22.336 Y79.517 E76.11376
G1 X19.983 Y77.164 E76.58659
G1 X19.983 Y37.836 E82.17420
G1 X22.255 Y35.564 E82.63072
G1 X22.706 Y36.376 F7800.000
M101 ; extruder on
G1 X117.294 Y36.376 E96.06960 F1800.000
M101 ; extruder on
G1 X119.124 Y38.206 E96.43735 F1800.000
G1 X119.124 Y76.794 E101.91989
G1 X117.294 Y78.624 E102.28764
G1 X22.706 Y78.624 E115.72652
G1 X20.876 Y76.794 E116.09427
G1 X20.876 Y38.206 E121.57681
G1 X22.653 Y36.429 E121.93390
G1 X23.076 Y37.268 F7800.000
M101 ; extruder on
G1 X116.924 Y37.268 E135.26771 F1800.000
G1 X118.232 Y38.576 E135.53039
M101 ; extruder on
G1 X118.232 Y76.424 E140.90785 F1800.000
G1 X116.924 Y77.732 E141.17053
G1 X23.076 Y77.732 E154.50434
G1 X21.768 Y76.424 E154.76702
G1 X21.768 Y38.576 E160.14448
G1 X23.023 Y37.321 E160.39651
G1 X23.445 Y38.161 F7800.000
M101 ; extruder on
G1 X116.555 Y38.161 E173.62524 F1800.000
M101 ; extruder on
G1 X117.339 Y38.945 E173.78285 F1800.000
G1 X117.339 Y76.055 E179.05524
G1 X116.555 Y76.839 E179.21285
G1 X23.445 Y76.839 E192.44159
G1 X22.661 Y76.055 E192.59919
G1 X22.661 Y38.945 E197.87159
G1 X23.392 Y38.214 E198.01854
G1 X23.815 Y39.054 F7800.000
M101 ; extruder on
G1 X116.185 Y39.054 E211.14220 F1800.000
G1 X116.446 Y39.315 E211.19474
M101 ; extruder on
G1 X116.446 Y75.685 E216.36206 F1800.000
G1 X116.185 Y75.946 E216.41460
G1 X23.815 Y75.946 E229.53826
G1 X23.554 Y75.685 E229.59080
G1 X23.554 Y39.315 E234.75812
G1 X23.762 Y39.107 E234.80000
G1 E232.80000 F2400.00000
M103 ; extruder off
G1 X24.500 Y75.000 F7800.000
M101 ; extruder on
G1 E234.80000 F2400.00000
G1 X24.500 Y40.000 E239.77271 F1800.000
G1 X115.500 Y40.000 E252.70176
G1 X115.500 Y75.000 E257.67448
G1 X24.575 Y75.000 E270.59287
G1 X24.750 Y74.567 F7800.000
G1 X25.393 Y74.107 F7800.000
M101 ; extruder on
G1 X25.393 Y40.893 E275.31192 F1800.000
G1 X114.607 Y40.893 E287.98730
G1 X114.607 Y74.107 E292.70635
G1 X25.468 Y74.107 E305.37108
G1 X28.000 Y71.500 F7800.000
M101 ; extruder on
G1 X28.000 Y43.500 E309.34925 F1800.000
G1 X112.000 Y43.500 E321.28375
G1 X112.000 Y71.500 E325.26192
G1 X28.075 Y71.500 E337.18577
G1 X27.500 Y71.500 F7800.000
G1 X27.107 Y72.393 F7800.000
M101 ; extruder on
G1 X27.107 Y42.607 E341.41761 F1800.000
G1 X112.893 Y42.607 E353.60578
G1 X112.893 Y72.393 E357.83762
G1 X27.182 Y72.393 E370.01513
G1 E368.01513 F2400.00000
M103 ; extruder off
G1 X24.000 Y75.500 F7800.000
G1 X24.000 Y75.500 F7800.000
G1 X32.000 Y67.500 F7800.000
M101 ; extruder on
G1 E370.01513 F2400.00000
G1 X32.000 Y47.500 E372.85668 F1800.000
G1 X108.000 Y47.500 E383.65457
G1 X108.000 Y67.500 E386.49612
G1 X32.075 Y67.500 E397.28335
G1 X32.250 Y67.067 F7800.000
G1 X32.893 Y66.607 F7800.000
M101 ; extruder on
G1 X32.893 Y48.393 E399.87124 F1800.000
G1 X107.107 Y48.393 E410.41546
G1 X107.107 Y66.607 E413.00334
G1 X32.968 Y66.607 E423.53691
G1 X33.785 Y65.715 F7800.000
M101 ; extruder on
G1 X33.785 Y49.285 E425.87113 F1800.000
G1 X106.215 Y49.285 E436.16169
G1 X106.215 Y65.715 E438.49591
G1 X33.860 Y65.715 E448.77581
G1 X34.754 Y65.165 F7800.000
M101 ; extruder on
G1 X34.335 Y64.746 E448.86117 F1800.000
G1 X34.335 Y63.466 E449.04583
G1 X36.034 Y65.165 E449.39234
G1 X37.315 Y65.165 E449.57700
G1 X34.335 Y62.185 E450.18466
G1 X34.335 Y60.904 E450.36931
G1 X38.596 Y65.165 E451.23811
G1 X39.877 Y65.165 E451.42277
G1 X34.335 Y59.623 E452.55272
G1 X34.335 Y58.342 E452.73737
G1 X41.158 Y65.165 E454.12846
G1 X42.439 Y65.165 E454.31312
G1 X34.335 Y57.061 E455.96535
G1 X34.335 Y55.780 E456.15001
G1 X43.720 Y65.165 E458.06339
G1 X45.001 Y65.165 E458.24805
G1 X34.335 Y54.499 E460.42257
G1 X34.335 Y53.218 E460.60723
G1 X46.282 Y65.165 E463.04290
G1 X47.563 Y65.165 E463.22755
G1 X34.335 Y51.937 E465.92437
G1 X34.335 Y50.656 E466.10902
G1 X48.844 Y65.165 E469.06698
G1 X50.125 Y65.165 E469.25164
G1 X34.794 Y49.835 E472.37703
G1 X36.075 Y49.835 E472.56168
G1 X51.406 Y65.165 E475.68707
G1 X52.687 Y65.165 E475.87173
G1 X37.356 Y49.835 E478.99712
G1 X38.637 Y49.835 E479.18177
G1 X53.968 Y65.165 E482.30716
G1 X55.249 Y65.165 E482.49182
G1 X39.918 Y49.835 E485.61721
G1 X41.199 Y49.835 E485.80186
G1 X56.530 Y65.165 E488.92725
G1 X57.811 Y65.165 E489.11191
G1 X42.480 Y49.835 E492.23729
G1 X43.761 Y49.835 E492.42195
G1 X59.091 Y65.165 E495.54734
G1 X60.372 Y65.165 E495.73200
G1 X45.042 Y49.835 E498.85738
G1 X46.323 Y49.835 E499.04204
G1 X61.653 Y65.165 E502.16743
G1 X62.934 Y65.165 E502.35209
G1 X47.604 Y49.835 E505.47747
G1 X48.885 Y49.835 E505.66213
G1 X64.215 Y65.165 E508.78752
G1 X65.496 Y65.165 E508.97218
G1 X50.166 Y49.835 E512.09756
G1 X51.447 Y49.835 E512.28222
G1 X66.777 Y65.165 E515.40761
G1 X68.058 Y65.165 E515.59226
G1 X52.728 Y49.835 E518.71765
G1 X54.009 Y49.835 E518.90231
G1 X69.339 Y65.165 E522.02770
G1 X70.620 Y65.165 E522.21235
G1 X55.290 Y49.835 E525.33774
G1 X56.571 Y49.835 E525.52240
G1 X71.901 Y65.165 E528.64779
G1 X73.182 Y65.165 E528.83244
G1 X57.851 Y49.835 E531.95783
G1 X59.132 Y49.835 E532.14249
G1 X74.463 Y65.165 E535.26788
G1 X75.744 Y65.165 E535.45253
G1 X60.413 Y49.835 E538.57792
G1 X61.694 Y49.835 E538.76258
G1 X77.025 Y65.165 E541.88797
G1 X78.306 Y65.165 E542.07262
G1 X62.975 Y49.835 E545.19801
G1 X64.256 Y49.835 E545.38267
G1 X79.587 Y65.165 E548.50806
G1 X80.868 Y65.165 E548.69271
G1 X65.537 Y49.835 E551.81810
G1 X66.818 Y49.835 E552.00276
G1 X82.148 Y65.165 E555.12815
G1 X83.429 Y65.165 E555.31280
G1 X68.099 Y49.835 E558.43819
G1 X69.380 Y49.835 E558.62285
G1 X84.710 Y65.165 E561.74824
G1 X85.991 Y65.165 E561.93289
G1 X70.661 Y49.835 E565.05828
G1 X71.942 Y49.835 E565.24294
G1 X87.272 Y65.165 E568.36833
G1 X88.553 Y65.165 E568.55298
G1 X73.223 Y49.835 E571.67837
G1 X74.504 Y49.835 E571.86303
G1 X89.834 Y65.165 E574.98842
G1 X91.115 Y65.165 E575.17307
G1 X75.785 Y49.835 E578.29846
G1 X77.066 Y49.835 E578.48312
G1 X92.396 Y65.165 E581.60851
G1 X93.677 Y65.165 E581.79316
G1 X78.347 Y49.835 E584.91855
G1 X79.628 Y49.835 E585.10321
G1 X94.958 Y65.165 E588.22859
G1 X96.239 Y65.165 E588.41325
G1 X80.909 Y49.835 E591.53864
G1 X82.189 Y49.835 E591.72330
G1 X97.520 Y65.165 E594.84868
G1 X98.801 Y65.165 E595.03334
G1 X83.470 Y49.835 E598.15873
G1 X84.751 Y49.835 E598.34339
G1 X100.082 Y65.165 E601.46877
G1 X101.363 Y65.165 E601.65343
G1 X86.032 Y49.835 E604.77882
G1 X87.313 Y49.835 E604.96348
G1 X102.644 Y65.165 E608.08886
G1 X103.925 Y65.165 E608.27352
G1 X88.594 Y49.835 E611.39891
G1 X89.875 Y49.835 E611.58357
G1 X105.206 Y65.165 E614.70895
G1 X105.665 Y64.344 E614.84463
G1 X91.156 Y49.835 E617.80259
G1 X92.437 Y49.835 E617.98724
G1 X105.665 Y63.063 E620.68406
G1 X105.665 Y61.782 E620.86872
G1 X93.718 Y49.835 E623.30439
G1 X94.999 Y49.835 E623.48904
G1 X105.665 Y60.501 E625.66357
G1 X105.665 Y59.220 E625.84823
G1 X96.280 Y49.835 E627.76161
G1 X97.561 Y49.835 E627.94626
G1 X105.665 Y57.939 E629.59850
G1 X105.665 Y56.658 E629.78316
G1 X98.842 Y49.835 E631.17425
G1 X100.123 Y49.835 E631.35890
G1 X105.665 Y55.377 E632.48885
G1 X105.665 Y54.096 E632.67351
G1 X101.404 Y49.835 E633.54231
G1 X102.685 Y49.835 E633.72697
G1 X105.665 Y52.815 E634.33462
G1 X105.665 Y51.534 E634.51928
G1 X103.966 Y49.835 E634.86579
G1 X105.246 Y49.835 E635.05045
G1 X105.665 Y50.254 E635.13582
G1 E633.13582 F2400.00000
M103 ; extruder off
G1 X24.000 Y75.500 F7800.000
G1 X24.000 Y75.500 F7800.000
G1 X26.321 Y73.179 F7800.000
M101 ; extruder on
G1 E635.13582 F2400.00000
G1 X26.250 Y72.839 E635.24055 F1800.000
G1 X26.250 Y42.161 E644.48179
G1 X26.321 Y41.821 E644.58652
G1 X26.661 Y41.750 E644.69124
G1 X113.339 Y41.750 E670.80150
G1 X113.679 Y41.821 E670.90623
G1 X113.750 Y42.161 E671.01095
G1 X113.750 Y72.839 E680.25219
G1 X113.679 Y73.179 E680.35692
G1 X113.339 Y73.250 E680.46165
G1 X26.661 Y73.250 E706.57190
G1 X26.394 Y73.195 E706.65404
M73 P5
G1 Z0.900 F7800.000
G1 X28.207 Y71.293 F7800.000
M101 ; extruder on
G1 X28.207 Y43.707 E708.37821 F3600.000
G1 X111.793 Y43.707 E713.60239
G1 X111.793 Y71.293 E715.32656
G1 X28.282 Y71.293 E720.54605
G1 X28.697 Y70.803 F7800.000
M101 ; extruder on
G1 X28.697 Y44.197 E722.20886 F3600.000
G1 X111.303 Y44.197 E727.37167
G1 X111.303 Y70.803 E729.03449
G1 X28.772 Y70.803 E734.19262
G1 X29.150 Y44.650 F7800.000
M101 ; extruder on
G1 X110.850 Y44.650 E739.29887 F3600.000
G1 X110.850 Y70.350 E740.90512
G1 X29.150 Y70.350 E746.01137
G1 X29.150 Y44.725 E747.61293
G1 E745.61293 F2400.00000
M103 ; extruder off
G1 X25.193 Y40.693 F7800.000
M101 ; extruder on
G1 E747.61293 F2400.00000
G1 X114.807 Y40.693 E753.21376 F3600.000
G1 X114.807 Y74.307 E755.31458
G1 X25.193 Y74.307 E760.91541
G1 X25.193 Y40.768 E763.01155
G1 X24.703 Y40.203 F7800.000
M101 ; extruder on
G1 X115.297 Y40.203 E768.67373 F3600.000
G1 X115.297 Y74.797 E770.83592
G1 X24.703 Y74.797 E776.49810
G1 X24.703 Y40.278 E778.65560
G1 X24.250 Y39.750 F7800.000
M101 ; extruder on
G1 X115.750 Y39.750 E783.48061 F1800.000
G1 X115.750 Y75.250 E785.35261
G1 X24.250 Y75.250 E790.17763
G1 X24.250 Y39.825 E792.04567
G1 X24.683 Y40.000 F7800.000
G1 E790.04567 F2400.00000
M103 ; extruder off
G1 X24.000 Y39.500 F7800.000
G1 X24.000 Y39.500 F7800.000
G1 X31.793 Y47.293 F7800.000
M101 ; extruder on
G1 E792.04567 F2400.00000
G1 X108.207 Y47.293 E796.82150 F3600.000
G1 X108.207 Y67.707 E798.09733
G1 X31.793 Y67.707 E802.87315
G1 X31.793 Y47.368 E804.14429
G1 X31.303 Y46.803 F7800.000
M101 ; extruder on
G1 X108.697 Y46.803 E808.98148 F3600.000
G1 X108.697 Y68.197 E810.31866
G1 X31.303 Y68.197 E815.15585
G1 X31.303 Y46.878 E816.48834
G1 E814.48834 F2400.00000
M103 ; extruder off
G1 X109.150 Y68.650 F7800.000
M101 ; extruder on
G1 E816.48834 F2400.00000
G1 X30.850 Y68.650 E821.38209 F3600.000
G1 X30.850 Y46.350 E822.77584
G1 X109.150 Y46.350 E827.66959
G1 X109.150 Y68.575 E829.05866
G1 X107.665 Y67.414 F7800.000
M101 ; extruder on
G1 X107.914 Y67.165 E829.08061 F1200.000
G1 X107.914 Y66.471 E829.12405
G1 X106.971 Y67.414 E829.20743
G1 X106.276 Y67.414 E829.25087
G1 X107.914 Y65.776 E829.39567
G1 X107.914 Y65.082 E829.43911
G1 X105.582 Y67.414 E829.64535
G1 X104.887 Y67.414 E829.68878
G1 X107.914 Y64.387 E829.95644
G1 X107.914 Y63.692 E829.99988
G1 X104.192 Y67.414 E830.32897
G1 X103.498 Y67.414 E830.37240
G1 X107.914 Y62.998 E830.76292
G1 X107.914 Y62.303 E830.80635
G1 X102.803 Y67.414 E831.25829
G1 X102.109 Y67.414 E831.30173
G1 X107.914 Y61.609 E831.81510
G1 X107.914 Y60.914 E831.85853
G1 X101.414 Y67.414 E832.43333
G1 X100.719 Y67.414 E832.47677
G1 X107.914 Y60.219 E833.11299
G1 X107.914 Y59.525 E833.15642
G1 X100.025 Y67.414 E833.85407
G1 X99.330 Y67.414 E833.89751
G1 X107.914 Y58.830 E834.65658
G1 X107.914 Y58.136 E834.70002
G1 X98.636 Y67.414 E835.52052
G1 X97.941 Y67.414 E835.56396
G1 X107.914 Y57.441 E836.44588
G1 X107.914 Y56.747 E836.48932
G1 X97.247 Y67.414 E837.43267
G1 X96.552 Y67.414 E837.47611
G1 X107.914 Y56.052 E838.48089
G1 X107.914 Y55.357 E838.52433
G1 X95.857 Y67.414 E839.59054
G1 X95.163 Y67.414 E839.63397
G1 X107.914 Y54.663 E840.76161
G1 X107.914 Y53.968 E840.80504
G1 X94.468 Y67.414 E841.99410
G1 X93.774 Y67.414 E842.03754
G1 X107.914 Y53.274 E843.28803
G1 X107.914 Y52.579 E843.33146
G1 X93.079 Y67.414 E844.64338
G1 X92.384 Y67.414 E844.68681
G1 X107.914 Y51.884 E846.06016
G1 X107.914 Y51.190 E846.10359
G1 X91.690 Y67.414 E847.53836
G1 X90.995 Y67.414 E847.58180
G1 X107.914 Y50.495 E849.07799
G1 X107.914 Y49.801 E849.12143
G1 X90.301 Y67.414 E850.67905
G1 X89.606 Y67.414 E850.72248
G1 X107.914 Y49.106 E852.34153
G1 X107.914 Y48.412 E852.38497
G1 X88.912 Y67.414 E854.06544
G1 X88.217 Y67.414 E854.10888
G1 X107.914 Y47.717 E855.85078
G1 X107.349 Y47.586 E855.88699
G1 X87.522 Y67.414 E857.64043
G1 X86.828 Y67.414 E857.68387
G1 X106.655 Y47.586 E859.43731
G1 X105.960 Y47.586 E859.48074
G1 X86.133 Y67.414 E861.23419
G1 X85.439 Y67.414 E861.27762
G1 X105.266 Y47.586 E863.03106
G1 X104.571 Y47.586 E863.07450
G1 X84.744 Y67.414 E864.82794
G1 X84.049 Y67.414 E864.87138
G1 X103.877 Y47.586 E866.62482
G1 X103.182 Y47.586 E866.66825
G1 X83.355 Y67.414 E868.42169
G1 X82.660 Y67.414 E868.46513
G1 X102.487 Y47.586 E870.21857
G1 X101.793 Y47.586 E870.26201
G1 X81.966 Y67.414 E872.01545
G1 X81.271 Y67.414 E872.05888
G1 X101.098 Y47.586 E873.81233
G1 X100.404 Y47.586 E873.85576
G1 X80.577 Y67.414 E875.60920
G1 X79.882 Y67.414 E875.65264
G1 X99.709 Y47.586 E877.40608
G1 X99.014 Y47.586 E877.44952
G1 X79.187 Y67.414 E879.20296
G1 X78.493 Y67.414 E879.24639
G1 X98.320 Y47.586 E880.99984
G1 X97.625 Y47.586 E881.04327
G1 X77.798 Y67.414 E882.79671
G1 X77.104 Y67.414 E882.84015
G1 X96.931 Y47.586 E884.59359
G1 X96.236 Y47.586 E884.63703
G1 X76.409 Y67.414 E886.39047
G1 X75.714 Y67.414 E886.43390
G1 X95.542 Y47.586 E888.18735
G1 X94.847 Y47.586 E888.23078
G1 X75.020 Y67.414 E889.98422
G1 X74.325 Y67.414 E890.02766
G1 X94.152 Y47.586 E891.78110
G1 X93.458 Y47.586 E891.82453
G1 X73.631 Y67.414 E893.57798
G1 X72.936 Y67.414 E893.62141
G1 X92.763 Y47.586 E895.37485
G1 X92.069 Y47.586 E895.41829
G1 X72.242 Y67.414 E897.17173
G1 X71.547 Y67.414 E897.21517
G1 X91.374 Y47.586 E898.96861
G1 X90.679 Y47.586 E899.01204
G1 X70.852 Y67.414 E900.76549
G1 X70.158 Y67.414 E900.80892
G1 X89.985 Y47.586 E902.56236
G1 X89.290 Y47.586 E902.60580
G1 X69.463 Y67.414 E904.35924
G1 X68.769 Y67.414 E904.40268
G1 X88.596 Y47.586 E906.15612
G1 X87.901 Y47.586 E906.19955
G1 X68.074 Y67.414 E907.95300
G1 X67.380 Y67.414 E907.99643
G1 X87.207 Y47.586 E909.74987
G1 X86.512 Y47.586 E909.79331
G1 X66.685 Y67.414 E911.54675
G1 X65.990 Y67.414 E911.59019
G1 X85.817 Y47.586 E913.34363
G1 X85.123 Y47.586 E913.38706
G1 X65.296 Y67.414 E915.14050
G1 X64.601 Y67.414 E915.18394
G1 X84.428 Y47.586 E916.93738
G1 X83.734 Y47.586 E916.98082
G1 X63.907 Y67.414 E918.73426
G1 X63.212 Y67.414 E918.77769
G1 X83.039 Y47.586 E920.53114
G1 X82.344 Y47.586 E920.57457
G1 X62.517 Y67.414 E922.32801
G1 X61.823 Y67.414 E922.37145
G1 X81.650 Y47.586 E924.12489
G1 X80.955 Y47.586 E924.16833
G1 X61.128 Y67.414 E925.92177
G1 X60.434 Y67.414 E925.96520
G1 X80.261 Y47.586 E927.71865
G1 X79.566 Y47.586 E927.76208
G1 X59.739 Y67.414 E929.51552
G1 X59.045 Y67.414 E929.55896
G1 X78.872 Y47.586 E931.31240
G1 X78.177 Y47.586 E931.35584
G1 X58.350 Y67.414 E933.10928
G1 X57.655 Y67.414 E933.15271
G1 X77.482 Y47.586 E934.90615
G1 X76.788 Y47.586 E934.94959
G1 X56.961 Y67.414 E936.70303
G1 X56.266 Y67.414 E936.74647
G1 X76.093 Y47.586 E938.49991
G1 X75.399 Y47.586 E938.54334
G1 X55.572 Y67.414 E940.29679
G1 X54.877 Y67.414 E940.34022
G1 X74.704 Y47.586 E942.09366
G1 X74.009 Y47.586 E942.13710
G1 X54.182 Y67.414 E943.89054
G1 X53.488 Y67.414 E943.93398
G1 X73.315 Y47.586 E945.68742
G1 X72.620 Y47.586 E945.73085
G1 X52.793 Y67.414 E947.48430
