; generated by Slic3r 1.2.9 on 2017-09-20 at 19:41:05

; external perimeters extrusion width = 0.50mm
; perimeters extrusion width = 0.58mm
; infill extrusion width = 0.58mm
; solid infill extrusion width = 0.58mm
; top infill extrusion width = 0.58mm

M127
M109 S210 ; set bed temperature
M104 S220 T0 ; set temperature
G28 ; home all axes
G1 Z5 F5000 ; lift nozzle

M73 P0
G1 Z0.500 F7800.000
G1 E-2.00000 F2400.00000
M103 ; extruder off
G1 X19.793 Y22.656 F7800.000
M101 ; extruder on
G1 E0.00000 F2400.00000
G1 X20.412 Y22.115 E0.11680 F1800.000
G1 X22.587 Y21.254 E0.44922
G1 X24.000 Y21.107 E0.65100
G1 X116.000 Y21.107 E13.72213
G1 X118.306 Y21.504 E14.05454
M101 ; extruder on
G1 X120.346 Y22.650 E14.38696 F1800.000
G1 X121.885 Y24.412 E14.71938
G1 X122.746 Y26.587 E15.05180
G1 X122.893 Y28.000 E15.25358
G1 X122.893 Y87.000 E23.63615
G1 X122.496 Y89.306 E23.96856
G1 X121.350 Y91.346 E24.30098
G1 X119.588 Y92.885 E24.63340
G1 X117.413 Y93.746 E24.96582
G1 X116.000 Y93.893 E25.16760
G1 X24.000 Y93.893 E38.23872
G1 X21.694 Y93.496 E38.57114
G1 X19.654 Y92.350 E38.90356
G1 X18.115 Y90.588 E39.23598
G1 X17.254 Y88.413 E39.56839
G1 X17.107 Y87.000 E39.77017
G1 X17.107 Y28.000 E48.15274
G1 X17.504 Y25.694 E48.48516
G1 X18.650 Y23.654 E48.81758
G1 X19.736 Y22.705 E49.02254
G1 E47.02254 F2400.00000
M103 ; extruder off
G1 X21.728 Y24.591 F7800.000
M101 ; extruder on
G1 E49.02254 F2400.00000
G1 X22.336 Y23.983 E49.14471 F1800.000
G1 X117.664 Y23.983 E62.68866
G1 X120.017 Y26.336 E63.16148
M101 ; extruder on
G1 X120.017 Y37.664 E64.77092 F1800.000
G1 X117.664 Y40.017 E65.24375
G1 X99.336 Y40.017 E67.84773
G1 X96.983 Y37.664 E68.32055
G1 X96.983 Y36.540 E68.48023
G1 X96.460 Y36.017 E68.58530
G1 X78.540 Y36.017 E71.13131
G1 X78.017 Y36.540 E71.23638
G1 X78.017 Y37.664 E71.39606
G1 X75.664 Y40.017 E71.86888
G1 X66.336 Y40.017 E73.19416
G1 X63.983 Y37.664 E73.66698
G1 X63.983 Y36.540 E73.82666
G1 X63.460 Y36.017 E73.93173
G1 X43.540 Y36.017 E76.76190
G1 X43.017 Y36.540 E76.86697
G1 X43.017 Y37.664 E77.02665
G1 X40.664 Y40.017 E77.49947
G1 X22.336 Y40.017 E80.10345
G1 X19.983 Y37.664 E80.57627
G1 X19.983 Y26.336 E82.18571
G1 X21.675 Y24.644 E82.52571
G1 X22.359 Y25.222 F7800.000
M101 ; extruder on
G1 X22.706 Y24.876 E82.59534 F1800.000
G1 X117.294 Y24.876 E96.03422
M101 ; extruder on
G1 X119.124 Y26.706 E96.40197 F1800.000
G1 X119.124 Y37.294 E97.90634
G1 X117.294 Y39.124 E98.27409
G1 X99.706 Y39.124 E100.77300
G1 X97.876 Y37.294 E101.14075
G1 X97.876 Y35.647 E101.37473
G1 X97.353 Y35.124 E101.47980
G1 X77.647 Y35.124 E104.27947
G1 X77.124 Y35.647 E104.38454
G1 X77.124 Y37.294 E104.61852
G1 X75.294 Y39.124 E104.98627
G1 X66.706 Y39.124 E106.20648
G1 X64.876 Y37.294 E106.57423
G1 X64.876 Y35.647 E106.80820
G1 X64.353 Y35.124 E106.91328
G1 X42.647 Y35.124 E109.99710
G1 X42.124 Y35.647 E110.10217
G1 X42.124 Y37.294 E110.33615
G1 X40.294 Y39.124 E110.70390
G1 X22.706 Y39.124 E113.20281
G1 X20.876 Y37.294 E113.57056
G1 X20.876 Y26.706 E115.07493
G1 X22.306 Y25.275 E115.36239
G1 X22.990 Y25.853 F7800.000
M101 ; extruder on
G1 X23.076 Y25.768 E115.37949 F1800.000
G1 X116.924 Y25.768 E128.71329
G1 X118.232 Y27.076 E128.97597
M101 ; extruder on
G1 X118.232 Y36.924 E130.37527 F1800.000
G1 X116.924 Y38.232 E130.63795
G1 X100.076 Y38.232 E133.03179
G1 X98.768 Y36.924 E133.29447
G1 X98.768 Y34.755 E133.60274
G1 X98.245 Y34.232 E133.70781
G1 X76.755 Y34.232 E136.76115
G1 X76.232 Y34.755 E136.86622
G1 X76.232 Y36.924 E137.17449
G1 X74.924 Y38.232 E137.43717
G1 X67.076 Y38.232 E138.55231
G1 X65.768 Y36.924 E138.81499
G1 X65.768 Y34.755 E139.12326
G1 X65.245 Y34.232 E139.22833
G1 X41.755 Y34.232 E142.56583
G1 X41.232 Y34.755 E142.67090
G1 X41.232 Y36.924 E142.97917
G1 X39.924 Y38.232 E143.24185
G1 X23.076 Y38.232 E145.63569
G1 X21.768 Y36.924 E145.89837
G1 X21.768 Y27.076 E147.29766
G1 X22.937 Y25.906 E147.53259
G1 X23.445 Y26.661 F7800.000
M101 ; extruder on
G1 X116.555 Y26.661 E160.76132 F1800.000
M101 ; extruder on
G1 X117.339 Y27.445 E160.91893 F1800.000
G1 X117.339 Y36.555 E162.21315
G1 X116.555 Y37.339 E162.37076
G1 X100.445 Y37.339 E164.65953
G1 X99.661 Y36.555 E164.81714
G1 X99.661 Y33.862 E165.19971
G1 X99.138 Y33.339 E165.30478
G1 X75.862 Y33.339 E168.61178
G1 X75.339 Y33.862 E168.71685
G1 X75.339 Y36.555 E169.09942
G1 X74.555 Y37.339 E169.25703
G1 X67.445 Y37.339 E170.26710
G1 X66.661 Y36.555 E170.42470
G1 X66.661 Y33.862 E170.80727
G1 X66.138 Y33.339 E170.91234
G1 X40.862 Y33.339 E174.50350
G1 X40.339 Y33.862 E174.60857
G1 X40.339 Y36.555 E174.99114
G1 X39.555 Y37.339 E175.14875
G1 X23.445 Y37.339 E177.43752
G1 X22.661 Y36.555 E177.59512
G1 X22.661 Y27.445 E178.88935
G1 X23.392 Y26.714 E179.03630
G1 E177.03630 F2400.00000
M103 ; extruder off
G1 X23.586 Y27.000 F7800.000
G1 X23.586 Y27.000 F7800.000
G1 X39.185 Y36.446 F7800.000
M101 ; extruder on
G1 E179.03630 F2400.00000
G1 X23.815 Y36.446 E181.22000 F1800.000
G1 X23.554 Y36.185 E181.27253
G1 X23.554 Y27.815 E182.46169
G1 X23.815 Y27.554 E182.51423
G1 X116.185 Y27.554 E195.63789
G1 X116.446 Y27.815 E195.69042
G1 X116.446 Y36.185 E196.87958
G1 X116.185 Y36.446 E196.93212
G1 X100.815 Y36.446 E199.11581
G1 X100.554 Y36.185 E199.16835
G1 X100.554 Y32.969 E199.62521
G1 X100.031 Y32.446 E199.73029
G1 X74.969 Y32.446 E203.29095
G1 X74.446 Y32.969 E203.39602
G1 X74.446 Y36.185 E203.85289
G1 X74.185 Y36.446 E203.90542
G1 X67.815 Y36.446 E204.81042
G1 X67.554 Y36.185 E204.86296
G1 X67.554 Y32.969 E205.31982
G1 X67.031 Y32.446 E205.42490
G1 X39.969 Y32.446 E209.26972
G1 X39.446 Y32.969 E209.37479
G1 X39.446 Y36.185 E209.83165
G1 X39.238 Y36.393 E209.87353
G1 E207.87353 F2400.00000
M103 ; extruder off
G1 X63.983 Y45.943 F7800.000
M101 ; extruder on
G1 E209.87353 F2400.00000
G1 X66.336 Y43.590 E210.34635 F1800.000
G1 X75.664 Y43.590 E211.67164
G1 X78.017 Y45.943 E212.14446
M101 ; extruder on
G1 X78.017 Y63.235 E214.60129 F1800.000
G1 X75.664 Y65.589 E215.07411
G1 X66.336 Y65.589 E216.39940
G1 X63.983 Y63.235 E216.87222
G1 X63.983 Y46.018 E219.31840
G1 X64.876 Y46.313 F7800.000
M101 ; extruder on
G1 X66.706 Y44.483 E219.68615 F1800.000
G1 X75.294 Y44.483 E220.90636
M101 ; extruder on
G1 X77.124 Y46.313 E221.27411 F1800.000
G1 X77.124 Y62.866 E223.62587
G1 X75.294 Y64.696 E223.99362
G1 X66.706 Y64.696 E225.21383
G1 X64.876 Y62.866 E225.58158
G1 X64.876 Y46.388 E227.92269
G1 X65.768 Y46.683 F7800.000
M101 ; extruder on
G1 X67.076 Y45.375 E228.18536 F1800.000
G1 X74.924 Y45.375 E229.30051
G1 X76.232 Y46.683 E229.56319
M101 ; extruder on
G1 X76.232 Y62.496 E231.80987 F1800.000
G1 X74.924 Y63.803 E232.07255
G1 X67.076 Y63.803 E233.18770
G1 X65.768 Y62.496 E233.45037
G1 X65.768 Y46.758 E235.68641
G1 X66.661 Y47.053 F7800.000
M101 ; extruder on
G1 X67.445 Y46.268 E235.84401 F1800.000
G1 X74.555 Y46.268 E236.85409
M101 ; extruder on
G1 X75.339 Y47.053 E237.01169 F1800.000
G1 X75.339 Y62.126 E239.15331
G1 X74.555 Y62.910 E239.31092
G1 X67.445 Y62.910 E240.32099
G1 X66.661 Y62.126 E240.47859
G1 X66.661 Y47.128 E242.60955
G1 X67.554 Y47.422 F7800.000
M101 ; extruder on
G1 X67.815 Y47.161 E242.66209 F1800.000
G1 X74.185 Y47.161 E243.56709
G1 X74.446 Y47.422 E243.61963
M101 ; extruder on
G1 X74.446 Y61.756 E245.65617 F1800.000
G1 X74.185 Y62.018 E245.70871
G1 X67.815 Y62.018 E246.61371
G1 X67.554 Y61.756 E246.66624
G1 X67.554 Y47.497 E248.69213
G1 E246.69213 F2400.00000
M103 ; extruder off
G1 X67.554 Y70.608 F7800.000
M101 ; extruder on
G1 E248.69213 F2400.00000
G1 X75.664 Y70.608 E249.84442 F1800.000
G1 X78.017 Y72.961 E250.31724
G1 X78.017 Y79.460 E251.24059
G1 X78.540 Y79.983 E251.34566
G1 X96.460 Y79.983 E253.89167
G1 X96.983 Y79.460 E253.99674
G1 X96.983 Y45.943 E258.75871
G1 X99.336 Y43.590 E259.23153
G1 X117.664 Y43.590 E261.83551
G1 X120.017 Y45.943 E262.30834
G1 X120.017 Y55.789 E263.70720
G1 X117.664 Y58.142 E264.18002
G1 X108.640 Y58.142 E265.46211
G1 X108.117 Y58.665 E265.56718
G1 X108.117 Y73.335 E267.65143
G1 X108.640 Y73.858 E267.75650
G1 X117.664 Y73.858 E269.03859
G1 X120.017 Y76.211 E269.51142
G1 X120.017 Y88.664 E271.28069
G1 X117.664 Y91.017 E271.75352
G1 X22.336 Y91.017 E285.29746
G1 X19.983 Y88.664 E285.77029
G1 X19.983 Y76.211 E287.53956
G1 X22.336 Y73.858 E288.01239
G1 X31.460 Y73.858 E289.30868
G1 X31.983 Y73.335 E289.41375
G1 X31.983 Y58.665 E291.49801
G1 X31.460 Y58.142 E291.60308
G1 X22.336 Y58.142 E292.89938
G1 X19.983 Y55.789 E293.37220
G1 X19.983 Y44.374 E294.99394
G1 X22.336 Y42.021 E295.46676
G1 X40.664 Y42.021 E298.07075
G1 X43.017 Y44.374 E298.54357
M101 ; extruder on
G1 X43.017 Y79.460 E303.52842 F1800.000
G1 X43.540 Y79.983 E303.63349
G1 X63.460 Y79.983 E306.46365
G1 X63.983 Y79.460 E306.56873
G1 X63.983 Y72.961 E307.49207
G1 X66.336 Y70.608 E307.96489
G1 X67.479 Y70.608 E308.12723
G1 X67.554 Y71.501 F7800.000
M101 ; extruder on
G1 X75.294 Y71.501 E309.22699 F1800.000
G1 X77.124 Y73.331 E309.59474
G1 X77.124 Y80.353 E310.59238
G1 X77.647 Y80.876 E310.69745
G1 X97.353 Y80.876 E313.49712
G1 X97.876 Y80.353 E313.60219
G1 X97.876 Y46.313 E318.43846
G1 X99.706 Y44.483 E318.80621
G1 X117.294 Y44.483 E321.30512
G1 X119.124 Y46.313 E321.67287
G1 X119.124 Y55.419 E322.96666
G1 X117.294 Y57.249 E323.33441
G1 X107.747 Y57.249 E324.69080
G1 X107.224 Y57.772 E324.79587
G1 X107.224 Y74.228 E327.13379
G1 X107.747 Y74.751 E327.23886
G1 X117.294 Y74.751 E328.59525
G1 X119.124 Y76.581 E328.96300
G1 X119.124 Y88.294 E330.62720
G1 X117.294 Y90.124 E330.99495
G1 X22.706 Y90.124 E344.43383
G1 X20.876 Y88.294 E344.80158
G1 X20.876 Y76.581 E346.46579
G1 X22.706 Y74.751 E346.83354
G1 X32.353 Y74.751 E348.20413
G1 X32.876 Y74.228 E348.30920
G1 X32.876 Y57.772 E350.64712
G1 X32.353 Y57.249 E350.75219
G1 X22.706 Y57.249 E352.12279
G1 X20.876 Y55.419 E352.49054
G1 X20.876 Y44.744 E354.00721
G1 X22.706 Y42.914 E354.37496
G1 X40.294 Y42.914 E356.87387
M101 ; extruder on
G1 X42.124 Y44.744 E357.24162 F1800.000
G1 X42.124 Y80.353 E362.30077
G1 X42.647 Y80.876 E362.40584
G1 X64.353 Y80.876 E365.48967
G1 X64.876 Y80.353 E365.59474
G1 X64.876 Y73.331 E366.59238
G1 X66.706 Y71.501 E366.96013
G1 X67.479 Y71.501 E367.06993
G1 X67.554 Y72.393 F7800.000
M101 ; extruder on
G1 X74.924 Y72.393 E368.11715 F1800.000
G1 X76.232 Y73.701 E368.37983
G1 X76.232 Y81.245 E369.45177
G1 X76.755 Y81.768 E369.55684
G1 X98.245 Y81.768 E372.61018
G1 X98.768 Y81.245 E372.71525
G1 X98.768 Y46.683 E377.62581
G1 X100.076 Y45.375 E377.88849
G1 X116.924 Y45.375 E380.28233
G1 X118.232 Y46.683 E380.54501
G1 X118.232 Y55.049 E381.73373
G1 X116.924 Y56.357 E381.99641
G1 X106.855 Y56.357 E383.42709
G1 X106.332 Y56.880 E383.53216
G1 X106.332 Y75.120 E386.12375
G1 X106.855 Y75.643 E386.22882
G1 X116.924 Y75.643 E387.65950
G1 X118.232 Y76.951 E387.92218
G1 X118.232 Y87.924 E389.48132
G1 X116.924 Y89.232 E389.74399
G1 X23.076 Y89.232 E403.07780
G1 X21.768 Y87.924 E403.34048
G1 X21.768 Y76.951 E404.89961
G1 X23.076 Y75.643 E405.16229
G1 X33.245 Y75.643 E406.60718
G1 X33.768 Y75.120 E406.71226
G1 X33.768 Y56.880 E409.30384
G1 X33.245 Y56.357 E409.40891
G1 X23.076 Y56.357 E410.85380
G1 X21.768 Y55.049 E411.11648
G1 X21.768 Y45.114 E412.52808
G1 X23.076 Y43.807 E412.79076
G1 X39.924 Y43.807 E415.18460
G1 X41.232 Y45.114 E415.44728
M101 ; extruder on
G1 X41.232 Y81.245 E420.58073 F1800.000
G1 X41.755 Y81.768 E420.68580
G1 X65.245 Y81.768 E424.02329
G1 X65.768 Y81.245 E424.12836
G1 X65.768 Y73.701 E425.20030
G1 X67.076 Y72.393 E425.46298
G1 X67.479 Y72.393 E425.52024
G1 X67.554 Y73.286 F7800.000
M101 ; extruder on
G1 X74.555 Y73.286 E426.51493 F1800.000
G1 X75.339 Y74.070 E426.67253
G1 X75.339 Y82.138 E427.81877
G1 X75.862 Y82.661 E427.92384
G1 X99.138 Y82.661 E431.23084
G1 X99.661 Y82.138 E431.33591
G1 X99.661 Y47.053 E436.32077
G1 X100.445 Y46.268 E436.47838
G1 X116.555 Y46.268 E438.76715
G1 X117.339 Y47.053 E438.92476
G1 X117.339 Y54.680 E440.00840
G1 X116.555 Y55.464 E440.16601
G1 X105.962 Y55.464 E441.67099
G1 X105.439 Y55.987 E441.77606
G1 X105.439 Y76.013 E444.62131
G1 X105.962 Y76.536 E444.72638
G1 X116.555 Y76.536 E446.23136
G1 X117.339 Y77.320 E446.38897
G1 X117.339 Y87.555 E447.84303
G1 X116.555 Y88.339 E448.00064
G1 X23.445 Y88.339 E461.22938
G1 X22.661 Y87.555 E461.38698
G1 X22.661 Y77.320 E462.84105
G1 X23.445 Y76.536 E462.99865
G1 X34.138 Y76.536 E464.51784
G1 X34.661 Y76.013 E464.62291
G1 X34.661 Y55.987 E467.46816
G1 X34.138 Y55.464 E467.57323
G1 X23.445 Y55.464 E469.09242
G1 X22.661 Y54.680 E469.25003
G1 X22.661 Y45.484 E470.55656
G1 X23.445 Y44.699 E470.71416
G1 X39.555 Y44.699 E473.00293
M101 ; extruder on
G1 X40.339 Y45.484 E473.16054 F1800.000
G1 X40.339 Y82.138 E478.36828
G1 X40.862 Y82.661 E478.47336
G1 X66.138 Y82.661 E482.06451
G1 X66.661 Y82.138 E482.16958
G1 X66.661 Y74.070 E483.31582
G1 X67.445 Y73.286 E483.47343
G1 X67.479 Y73.286 E483.47816
G1 X67.815 Y74.179 F7800.000
M101 ; extruder on
G1 X74.185 Y74.179 E484.38316 F1800.000
G1 X74.446 Y74.440 E484.43569
G1 X74.446 Y83.031 E485.65622
G1 X74.969 Y83.554 E485.76130
G1 X100.031 Y83.554 E489.32196
G1 X100.554 Y83.031 E489.42703
G1 X100.554 Y47.422 E494.48619
G1 X100.815 Y47.161 E494.53873
G1 X116.185 Y47.161 E496.72242
G1 X116.446 Y47.422 E496.77496
G1 X116.446 Y54.310 E497.75353
G1 X116.185 Y54.571 E497.80607
G1 X105.069 Y54.571 E499.38535
G1 X104.546 Y55.094 E499.49042
G1 X104.546 Y76.906 E502.58933
G1 X105.069 Y77.429 E502.69440
G1 X116.185 Y77.429 E504.27368
G1 X116.446 Y77.690 E504.32622
G1 X116.446 Y87.185 E505.67521
G1 X116.185 Y87.446 E505.72774
G1 X23.815 Y87.446 E518.85141
G1 X23.554 Y87.185 E518.90394
G1 X23.554 Y77.690 E520.25294
G1 X23.815 Y77.429 E520.30547
G1 X35.031 Y77.429 E521.89896
G1 X35.554 Y76.906 E522.00403
G1 X35.554 Y55.094 E525.10294
G1 X35.031 Y54.571 E525.20801
G1 X23.815 Y54.571 E526.80150
G1 X23.554 Y54.310 E526.85403
G1 X23.554 Y45.854 E528.05549
G1 X23.815 Y45.592 E528.10803
G1 X39.185 Y45.592 E530.29172
G1 X39.446 Y45.854 E530.34426
M101 ; extruder on
G1 X39.446 Y83.031 E535.62630 F1800.000
G1 X39.969 Y83.554 E535.73137
G1 X67.031 Y83.554 E539.57619
G1 X67.554 Y83.031 E539.68126
G1 X67.554 Y74.440 E540.90179
G1 X67.762 Y74.232 E540.94367
G1 E538.94367 F2400.00000
M103 ; extruder off
G1 X101.500 Y84.500 F7800.000
M101 ; extruder on
G1 E540.94367 F2400.00000
G1 X101.500 Y48.107 E546.11428 F1800.000
G1 X115.500 Y48.107 E548.10336
G1 X115.500 Y53.625 E548.88732
G1 X103.600 Y53.625 E550.57804
G1 X103.600 Y78.375 E554.09446
G1 X115.500 Y78.375 E555.78518
G1 X115.500 Y86.500 E556.93956
G1 X24.500 Y86.500 E569.86861
G1 X24.500 Y78.375 E571.02299
G1 X36.500 Y78.375 E572.72792
G1 X36.500 Y53.625 E576.24434
G1 X24.500 Y53.625 E577.94927
G1 X24.500 Y46.538 E578.95611
G1 X38.500 Y46.538 E580.94520
G1 X38.500 Y84.500 E586.33868
G1 X68.500 Y84.500 E590.60101
G1 X68.500 Y75.125 E591.93298
G1 X73.500 Y75.125 E592.64337
G1 X73.500 Y84.500 E593.97535
G1 X101.425 Y84.500 E597.94286
G1 X102.000 Y84.500 F7800.000
G1 X102.393 Y52.732 F7800.000
M101 ; extruder on
G1 X102.393 Y49.000 E598.47316 F1800.000
G1 X114.607 Y49.000 E600.20858
G1 X114.607 Y52.732 E600.73887
G1 X102.468 Y52.732 E602.46364
G1 X103.285 Y51.840 F7800.000
M101 ; extruder on
G1 X103.285 Y49.893 E602.74027 F1800.000
G1 X113.715 Y49.893 E604.22202
G1 X113.715 Y51.840 E604.49865
G1 X103.360 Y51.840 E605.96975
G1 X102.393 Y79.268 F7800.000
M101 ; extruder on
G1 X114.607 Y79.268 E607.70517 F1800.000
G1 X114.607 Y85.607 E608.60588
G1 X102.393 Y85.607 E610.34130
G1 X102.393 Y79.343 E611.23136
G1 X103.285 Y80.160 F7800.000
M101 ; extruder on
G1 X113.715 Y80.160 E612.71312 F1800.000
G1 X113.715 Y84.715 E613.36017
G1 X103.285 Y84.715 E614.84192
G1 X103.285 Y80.235 E615.47831
G1 X102.000 Y85.500 F7800.000
G1 X73.000 Y85.500 F7800.000
G1 X71.000 Y84.000 F7800.000
G1 X71.000 Y77.625 F7800.000
G1 X73.000 Y75.625 F7800.000
G1 X72.607 Y76.018 F7800.000
M101 ; extruder on
G1 X72.607 Y85.607 E616.84078 F1800.000
G1 X69.393 Y85.607 E617.29750
G1 X69.393 Y76.018 E618.65997
G1 X72.532 Y76.018 E619.10604
G1 X71.715 Y76.910 F7800.000
M101 ; extruder on
G1 X71.715 Y84.715 E620.21484 F1800.000
G1 X70.285 Y84.715 E620.41789
G1 X70.285 Y76.910 E621.52669
G1 X71.640 Y76.910 E621.71910
