; generated by Slic3r 1.2.9 on 2017-09-20 at 19:42:15

; external perimeters extrusion width = 0.50mm
; perimeters extrusion width = 0.58mm
; infill extrusion width = 0.58mm
; solid infill extrusion width = 0.58mm
; top infill extrusion width = 0.58mm

M127
M109 S210 ; set bed temperature
M104 S220 T0 ; set temperature
G28 ; home all axes
G1 Z5 F5000 ; lift nozzle

M73 P0
G1 Z0.500 F7800.000
G1 E-2.00000 F2400.00000
M103 ; extruder off
G1 X39.352 Y50.926 F7800.000
M101 ; extruder on
G1 E0.00000 F2400.00000
G1 X47.286 Y44.795 E1.42456 F1800.000
G1 X49.353 Y43.700 E1.75698
G1 X51.500 Y43.357 E2.06582
G1 X71.500 Y43.357 E4.90737
G1 X73.502 Y43.655 E5.19495
M101 ; extruder on
G1 X101.502 Y52.155 E9.35241 F1800.000
G1 X103.593 Y53.204 E9.68483
G1 X105.213 Y54.893 E10.01724
G1 X106.174 Y57.026 E10.34966
G1 X106.393 Y58.750 E10.59653
G1 X106.393 Y64.750 E11.44899
G1 X105.996 Y67.056 E11.78141
G1 X104.850 Y69.096 E12.11383
G1 X103.088 Y70.635 E12.44624
G1 X100.913 Y71.496 E12.77866
G1 X99.500 Y71.643 E12.98044
G1 X40.500 Y71.643 E21.36301
G1 X38.194 Y71.246 E21.69543
G1 X36.154 Y70.100 E22.02785
G1 X34.615 Y68.338 E22.36026
G1 X33.754 Y66.163 E22.69268
G1 X33.607 Y64.750 E22.89446
G1 X33.607 Y58.750 E23.74693
G1 X34.004 Y56.444 E24.07934
G1 X35.150 Y54.404 E24.41176
G1 X36.285 Y53.297 E24.63706
G1 X39.293 Y50.972 E25.17717
G1 E23.17717 F2400.00000
M103 ; extruder off
G1 X41.110 Y53.202 F7800.000
M101 ; extruder on
G1 E25.17717 F2400.00000
G1 X49.572 Y46.663 E26.69640 F1800.000
G1 X50.833 Y46.233 E26.88582
G1 X71.797 Y46.233 E29.86421
G1 X72.383 Y46.320 E29.94847
M101 ; extruder on
G1 X101.936 Y55.291 E34.33655 F1800.000
G1 X103.517 Y57.423 E34.71359
G1 X103.517 Y66.414 E35.99098
G1 X101.164 Y68.767 E36.46380
G1 X38.836 Y68.767 E45.31920
G1 X36.483 Y66.414 E45.79202
G1 X36.483 Y57.817 E47.01344
G1 X37.305 Y56.142 E47.27854
G1 X41.051 Y53.247 E47.95113
G1 X41.656 Y53.908 F7800.000
M101 ; extruder on
G1 X50.000 Y47.460 E49.44930 F1800.000
G1 X50.982 Y47.126 E49.59663
G1 X71.731 Y47.126 E52.54462
M101 ; extruder on
G1 X72.187 Y47.193 E52.61015 F1800.000
G1 X101.395 Y56.060 E56.94697
G1 X102.624 Y57.718 E57.24022
G1 X102.624 Y66.044 E58.42319
G1 X100.794 Y67.874 E58.79094
G1 X39.206 Y67.874 E67.54126
G1 X37.376 Y66.044 E67.90901
G1 X37.376 Y58.024 E69.04845
G1 X38.015 Y56.722 E69.25463
G1 X41.597 Y53.954 E69.89775
G1 X42.202 Y54.614 F7800.000
M101 ; extruder on
G1 X50.429 Y48.257 E71.37486 F1800.000
G1 X51.130 Y48.018 E71.48010
G1 X71.665 Y48.018 E74.39767
G1 X71.991 Y48.067 E74.44448
M101 ; extruder on
G1 X100.854 Y56.829 E78.73005 F1800.000
G1 X101.732 Y58.013 E78.93952
G1 X101.732 Y65.674 E80.02805
G1 X100.424 Y66.982 E80.29073
G1 X39.576 Y66.982 E88.93598
G1 X38.268 Y65.674 E89.19866
G1 X38.268 Y58.232 E90.25610
G1 X38.725 Y57.301 E90.40338
G1 X42.143 Y54.660 E91.01703
G1 X42.748 Y55.321 F7800.000
M101 ; extruder on
G1 X50.857 Y49.054 E92.47308 F1800.000
G1 X51.278 Y48.911 E92.53622
G1 X71.599 Y48.911 E95.42338
M101 ; extruder on
G1 X71.794 Y48.940 E95.45147 F1800.000
G1 X100.312 Y57.597 E99.68578
G1 X100.839 Y58.308 E99.81146
G1 X100.839 Y65.305 E100.80557
G1 X100.055 Y66.089 E100.96318
G1 X39.945 Y66.089 E109.50336
G1 X39.161 Y65.305 E109.66096
G1 X39.161 Y58.439 E110.63642
G1 X39.435 Y57.881 E110.72478
G1 X42.689 Y55.367 E111.30896
G1 E109.30896 F2400.00000
M103 ; extruder off
G1 X50.670 Y48.333 F7800.000
G1 X71.574 Y48.250 F7800.000
G1 X71.869 Y48.266 F7800.000
G1 X71.720 Y49.272 F7800.000
G1 X99.771 Y58.366 F7800.000
M101 ; extruder on
G1 E111.30896 F2400.00000
G1 X99.946 Y58.603 E111.35085 F1800.000
G1 X99.946 Y64.935 E112.25053
G1 X99.685 Y65.196 E112.30306
G1 X40.315 Y65.196 E120.73817
G1 X40.054 Y64.935 E120.79071
G1 X40.054 Y58.646 E121.68417
G1 X40.145 Y58.460 E121.71362
G1 X51.286 Y49.851 E123.71397
G1 X51.426 Y49.804 E123.73502
G1 X71.598 Y49.813 E126.60103
G1 X99.699 Y58.344 E130.77344
G1 E128.77344 F2400.00000
M103 ; extruder off
G1 X99.000 Y64.250 F7800.000
M101 ; extruder on
G1 E130.77344 F2400.00000
G1 X41.000 Y64.250 E139.01393 F1800.000
G1 X41.000 Y58.996 E139.76047
G1 X51.671 Y50.750 E141.67642
G1 X71.426 Y50.750 E144.48318
G1 X99.000 Y59.121 E148.57740
G1 X99.000 Y64.175 E149.29549
G1 X98.567 Y64.000 F7800.000
G1 X98.107 Y63.357 F7800.000
M101 ; extruder on
G1 X41.893 Y63.357 E157.28232 F1800.000
G1 X41.893 Y59.434 E157.83975
G1 X51.975 Y51.643 E159.65013
G1 X71.293 Y51.643 E162.39476
G1 X98.107 Y59.783 E166.37610
G1 X98.107 Y63.282 E166.87332
G1 X97.215 Y62.465 F7800.000
M101 ; extruder on
G1 X42.785 Y62.465 E174.60649 F1800.000
G1 X42.785 Y59.872 E174.97480
G1 X52.280 Y52.535 E176.67961
G1 X71.161 Y52.535 E179.36212
G1 X97.215 Y60.445 E183.23059
G1 X97.215 Y62.390 E183.50693
G1 X96.665 Y61.217 F7800.000
M101 ; extruder on
G1 X96.236 Y60.788 E183.59403 F1800.000
G1 X96.087 Y61.915 E183.75739
G1 X94.404 Y60.231 E184.09944
G1 X94.811 Y61.915 E184.34829
G1 X92.571 Y59.675 E184.80337
G1 X90.738 Y59.119 E185.07852
G1 X93.534 Y61.915 E185.64664
G1 X92.258 Y61.915 E185.83000
G1 X88.905 Y58.562 E186.51115
G1 X87.072 Y58.006 E186.78630
G1 X90.982 Y61.915 E187.58048
G1 X89.705 Y61.915 E187.76384
G1 X85.239 Y57.449 E188.67106
G1 X83.407 Y56.893 E188.94621
G1 X88.429 Y61.915 E189.96645
G1 X87.152 Y61.915 E190.14981
G1 X81.574 Y56.337 E191.28309
G1 X79.741 Y55.780 E191.55824
G1 X85.876 Y61.915 E192.80455
G1 X84.599 Y61.915 E192.98791
G1 X77.908 Y55.224 E194.34725
G1 X76.075 Y54.668 E194.62240
G1 X83.323 Y61.915 E196.09478
G1 X82.047 Y61.915 E196.27814
G1 X74.242 Y54.111 E197.86354
G1 X72.410 Y53.555 E198.13869
G1 X80.770 Y61.915 E199.83713
G1 X79.494 Y61.915 E200.02049
G1 X70.663 Y53.085 E201.81439
G1 X69.387 Y53.085 E201.99775
G1 X78.217 Y61.915 E203.79165
G1 X76.941 Y61.915 E203.97501
G1 X68.110 Y53.085 E205.76892
G1 X66.834 Y53.085 E205.95228
G1 X75.664 Y61.915 E207.74618
G1 X74.388 Y61.915 E207.92954
G1 X65.558 Y53.085 E209.72344
G1 X64.281 Y53.085 E209.90680
G1 X73.112 Y61.915 E211.70070
G1 X71.835 Y61.915 E211.88406
G1 X63.005 Y53.085 E213.67796
G1 X61.728 Y53.085 E213.86132
G1 X70.559 Y61.915 E215.65522
G1 X69.282 Y61.915 E215.83858
G1 X60.452 Y53.085 E217.63248
G1 X59.175 Y53.085 E217.81584
G1 X68.006 Y61.915 E219.60974
G1 X66.729 Y61.915 E219.79310
G1 X57.899 Y53.085 E221.58700
G1 X56.623 Y53.085 E221.77036
G1 X65.453 Y61.915 E223.56427
G1 X64.176 Y61.915 E223.74762
G1 X55.346 Y53.085 E225.54153
G1 X54.070 Y53.085 E225.72489
G1 X62.900 Y61.915 E227.51879
G1 X61.624 Y61.915 E227.70215
G1 X52.793 Y53.085 E229.49605
G1 X51.877 Y53.445 E229.63748
G1 X60.347 Y61.915 E231.35823
G1 X59.071 Y61.915 E231.54158
G1 X51.157 Y54.001 E233.14930
G1 X50.437 Y54.558 E233.28001
G1 X57.794 Y61.915 E234.77470
G1 X56.518 Y61.915 E234.95806
G1 X49.717 Y55.114 E236.33971
G1 X48.997 Y55.670 E236.47042
G1 X55.241 Y61.915 E237.73904
G1 X53.965 Y61.915 E237.92240
G1 X48.277 Y56.227 E239.07799
G1 X47.557 Y56.783 E239.20870
G1 X52.689 Y61.915 E240.25126
G1 X51.412 Y61.915 E240.43462
G1 X46.837 Y57.340 E241.36414
G1 X46.117 Y57.896 E241.49485
G1 X50.136 Y61.915 E242.31134
G1 X48.859 Y61.915 E242.49470
G1 X45.397 Y58.452 E243.19816
G1 X44.676 Y59.009 E243.32888
G1 X47.583 Y61.915 E243.91930
G1 X46.306 Y61.915 E244.10266
G1 X43.956 Y59.565 E244.58006
G1 X43.335 Y60.220 E244.70976
G1 X45.030 Y61.915 E245.05413
G1 X43.754 Y61.915 E245.23749
G1 X43.335 Y61.496 E245.32256
M73 P0
G1 Z0.900 F7800.000
G1 X98.307 Y63.557 F7800.000
M101 ; extruder on
G1 X41.693 Y63.557 E248.86088 F3600.000
G1 X41.693 Y59.336 E249.12467
G1 X51.907 Y51.443 E249.93143
G1 X71.323 Y51.443 E251.14489
G1 X98.307 Y59.635 E252.90738
G1 X98.307 Y63.482 E253.14780
G1 X98.797 Y64.047 F7800.000
M101 ; extruder on
G1 X41.203 Y64.047 E256.74748 F3600.000
G1 X41.203 Y59.095 E257.05701
G1 X51.740 Y50.953 E257.88931
G1 X71.396 Y50.953 E259.11780
G1 X98.797 Y59.271 E260.90759
G1 X98.797 Y63.972 E261.20143
G1 X99.250 Y64.500 F7800.000
M101 ; extruder on
G1 X40.750 Y64.500 E264.28628 F1800.000
G1 X40.750 Y58.873 E264.58302
G1 X51.585 Y50.500 E265.30510
G1 X71.463 Y50.500 E266.35329
G1 X99.250 Y58.935 E267.88460
G1 X99.250 Y64.425 E268.17408
G1 X98.817 Y64.250 F7800.000
G1 X97.765 Y63.264 F7800.000
M101 ; extruder on
G1 X98.014 Y63.015 E268.19616 F1200.000
G1 X98.014 Y62.317 E268.24010
G1 X97.067 Y63.264 E268.32431
G1 X96.368 Y63.264 E268.36824
G1 X98.014 Y61.618 E268.51459
G1 X98.014 Y60.920 E268.55852
G1 X95.670 Y63.264 E268.76700
G1 X94.971 Y63.264 E268.81093
G1 X98.014 Y60.221 E269.08154
G1 X97.781 Y59.755 E269.11430
G1 X94.272 Y63.264 E269.42638
G1 X93.574 Y63.264 E269.47032
G1 X97.245 Y59.592 E269.79687
G1 X96.709 Y59.429 E269.83209
G1 X92.875 Y63.264 E270.17310
G1 X92.177 Y63.264 E270.21704
G1 X96.174 Y59.267 E270.57252
G1 X95.638 Y59.104 E270.60775
G1 X91.478 Y63.264 E270.97770
G1 X90.780 Y63.264 E271.02163
G1 X95.102 Y58.941 E271.40606
G1 X94.566 Y58.779 E271.44128
G1 X90.081 Y63.264 E271.84017
G1 X89.383 Y63.264 E271.88411
G1 X94.030 Y58.616 E272.29747
G1 X93.494 Y58.453 E272.33269
G1 X88.684 Y63.264 E272.76052
G1 X87.985 Y63.264 E272.80446
G1 X92.958 Y58.291 E273.24676
G1 X92.422 Y58.128 E273.28198
G1 X87.287 Y63.264 E273.73875
G1 X86.588 Y63.264 E273.78268
G1 X91.887 Y57.965 E274.25392
G1 X91.351 Y57.803 E274.28914
G1 X85.890 Y63.264 E274.77485
G1 X85.191 Y63.264 E274.81878
G1 X90.815 Y57.640 E275.31896
G1 X90.279 Y57.477 E275.35418
G1 X84.493 Y63.264 E275.86883
G1 X83.794 Y63.264 E275.91276
G1 X89.743 Y57.315 E276.44188
G1 X89.207 Y57.152 E276.47710
G1 X83.096 Y63.264 E277.02068
G1 X82.397 Y63.264 E277.06462
G1 X88.671 Y56.989 E277.62267
G1 X88.135 Y56.827 E277.65789
G1 X81.698 Y63.264 E278.23041
G1 X81.000 Y63.264 E278.27435
G1 X87.599 Y56.664 E278.86134
G1 X87.064 Y56.501 E278.89656
G1 X80.301 Y63.264 E279.49802
G1 X79.603 Y63.264 E279.54195
G1 X86.528 Y56.339 E280.15788
G1 X85.992 Y56.176 E280.19310
G1 X78.904 Y63.264 E280.82350
G1 X78.206 Y63.264 E280.86744
G1 X85.456 Y56.013 E281.51230
G1 X84.920 Y55.851 E281.54753
G1 X77.507 Y63.264 E282.20686
G1 X76.809 Y63.264 E282.25080
G1 X84.384 Y55.688 E282.92460
G1 X83.848 Y55.525 E282.95982
G1 X76.110 Y63.264 E283.64810
G1 X75.411 Y63.264 E283.69203
G1 X83.312 Y55.362 E284.39477
G1 X82.777 Y55.200 E284.43000
G1 X74.713 Y63.264 E285.14721
G1 X74.014 Y63.264 E285.19114
G1 X82.241 Y55.037 E285.92282
G1 X81.705 Y54.874 E285.95805
G1 X73.316 Y63.264 E286.70420
G1 X72.617 Y63.264 E286.74813
G1 X81.169 Y54.712 E287.50875
G1 X80.633 Y54.549 E287.54397
G1 X71.919 Y63.264 E288.31906
G1 X71.220 Y63.264 E288.36300
G1 X80.097 Y54.386 E289.15255
G1 X79.561 Y54.224 E289.18778
G1 X70.522 Y63.264 E289.99180
G1 X69.823 Y63.264 E290.03574
G1 X79.025 Y54.061 E290.85423
G1 X78.490 Y53.898 E290.88945
G1 X69.124 Y63.264 E291.72242
G1 X68.426 Y63.264 E291.76635
G1 X77.954 Y53.736 E292.61379
G1 X77.418 Y53.573 E292.64901
G1 X67.727 Y63.264 E293.51091
G1 X67.029 Y63.264 E293.55485
G1 X76.882 Y53.410 E294.43122
G1 X76.346 Y53.248 E294.46644
G1 X66.330 Y63.264 E295.35728
G1 X65.632 Y63.264 E295.40122
G1 X75.810 Y53.085 E296.30653
G1 X75.274 Y52.922 E296.34175
G1 X64.933 Y63.264 E297.26153
G1 X64.234 Y63.264 E297.30546
G1 X74.738 Y52.760 E298.23971
G1 X74.203 Y52.597 E298.27493
G1 X63.536 Y63.264 E299.22365
G1 X62.837 Y63.264 E299.26759
G1 X73.667 Y52.434 E300.23077
G1 X73.131 Y52.272 E300.26599
G1 X62.139 Y63.264 E301.24365
G1 X61.440 Y63.264 E301.28758
G1 X72.595 Y52.109 E302.27971
G1 X72.059 Y51.946 E302.31493
G1 X60.742 Y63.264 E303.32152
G1 X60.043 Y63.264 E303.36546
G1 X71.523 Y51.784 E304.38652
G1 X70.872 Y51.736 E304.42760
G1 X59.345 Y63.264 E305.45285
G1 X58.646 Y63.264 E305.49679
G1 X70.173 Y51.736 E306.52204
G1 X69.475 Y51.736 E306.56597
G1 X57.947 Y63.264 E307.59122
G1 X57.249 Y63.264 E307.63515
G1 X68.776 Y51.736 E308.66040
G1 X68.077 Y51.736 E308.70434
G1 X56.550 Y63.264 E309.72959
G1 X55.852 Y63.264 E309.77352
G1 X67.379 Y51.736 E310.79877
G1 X66.680 Y51.736 E310.84271
G1 X55.153 Y63.264 E311.86796
G1 X54.455 Y63.264 E311.91189
G1 X65.982 Y51.736 E312.93714
G1 X65.283 Y51.736 E312.98108
G1 X53.756 Y63.264 E314.00633
G1 X53.058 Y63.264 E314.05026
G1 X64.585 Y51.736 E315.07551
G1 X63.886 Y51.736 E315.11945
G1 X52.359 Y63.264 E316.14470
G1 X51.660 Y63.264 E316.18863
G1 X63.187 Y51.736 E317.21388
G1 X62.489 Y51.736 E317.25781
G1 X50.962 Y63.264 E318.28306
G1 X50.263 Y63.264 E318.32700
G1 X61.790 Y51.736 E319.35225
G1 X61.092 Y51.736 E319.39618
G1 X49.565 Y63.264 E320.42143
G1 X48.866 Y63.264 E320.46537
G1 X60.393 Y51.736 E321.49062
G1 X59.695 Y51.736 E321.53455
G1 X48.168 Y63.264 E322.55980
G1 X47.469 Y63.264 E322.60374
G1 X58.996 Y51.736 E323.62899
G1 X58.298 Y51.736 E323.67292
G1 X46.771 Y63.264 E324.69817
G1 X46.072 Y63.264 E324.74210
G1 X57.599 Y51.736 E325.76736
G1 X56.900 Y51.736 E325.81129
G1 X45.373 Y63.264 E326.83654
G1 X44.675 Y63.264 E326.88047
G1 X56.202 Y51.736 E327.90572
G1 X55.503 Y51.736 E327.94966
G1 X43.976 Y63.264 E328.97491
G1 X43.278 Y63.264 E329.01884
G1 X54.805 Y51.736 E330.04409
G1 X54.106 Y51.736 E330.08803
G1 X42.579 Y63.264 E331.11328
G1 X41.986 Y63.158 E331.15115
G1 X53.408 Y51.736 E332.16698
G1 X52.709 Y51.736 E332.21092
G1 X41.986 Y62.459 E333.16462
G1 X41.986 Y61.761 E333.20856
G1 X51.546 Y52.201 E334.05885
G1 X48.473 Y54.576 F7800.000
M101 ; extruder on
G1 X41.986 Y61.062 E334.63576 F1200.000
G1 X41.986 Y60.363 E334.67970
G1 X45.399 Y56.951 E334.98324
G1 X42.325 Y59.326 F7800.000
M101 ; extruder on
G1 X41.986 Y59.665 E335.01339 F1200.000
M73 P0
G1 Z1.300 F7800.000
G1 X98.307 Y63.557 F7800.000
M101 ; extruder on
G1 X41.693 Y63.557 E338.55172 F3600.000
G1 X41.693 Y59.336 E338.81551
G1 X51.907 Y51.443 E339.62226
G1 X71.323 Y51.443 E340.83573
G1 X98.307 Y59.635 E342.59821
G1 X98.307 Y63.482 E342.83863
G1 X98.797 Y64.047 F7800.000
M101 ; extruder on
G1 X41.203 Y64.047 E346.43832 F3600.000
G1 X41.203 Y59.095 E346.74785
G1 X51.740 Y50.953 E347.58014
G1 X71.396 Y50.953 E348.80864
G1 X98.797 Y59.271 E350.59842
G1 X98.797 Y63.972 E350.89227
G1 X99.250 Y64.500 F7800.000
M101 ; extruder on
G1 X40.750 Y64.500 E353.97711 F1800.000
G1 X40.750 Y58.873 E354.27385
G1 X51.585 Y50.500 E354.99593
G1 X71.463 Y50.500 E356.04413
G1 X99.250 Y58.935 E357.57544
G1 X99.250 Y64.425 E357.86492
G1 X98.817 Y64.250 F7800.000
G1 X98.014 Y60.068 F7800.000
M101 ; extruder on
G1 X97.755 Y59.810 E357.88800 F1200.000
G1 X98.014 Y60.770 E357.95086
G1 X96.747 Y59.504 E358.06407
G1 X95.739 Y59.198 E358.13066
G1 X98.014 Y61.473 E358.33397
G1 X98.014 Y62.175 E358.37835
G1 X94.731 Y58.892 E358.67178
G1 X93.723 Y58.586 E358.73838
G1 X98.014 Y62.877 E359.12192
G1 X97.698 Y63.264 E359.15346
G1 X92.715 Y58.280 E359.59895
G1 X91.707 Y57.974 E359.66554
G1 X96.996 Y63.264 E360.13838
G1 X96.294 Y63.264 E360.18276
G1 X90.699 Y57.668 E360.68295
G1 X89.690 Y57.362 E360.74955
G1 X95.592 Y63.264 E361.27710
G1 X94.890 Y63.264 E361.32147
G1 X88.682 Y57.056 E361.87638
G1 X87.674 Y56.750 E361.94298
G1 X94.188 Y63.264 E362.52524
G1 X93.486 Y63.264 E362.56962
G1 X86.666 Y56.444 E363.17924
G1 X85.658 Y56.138 E363.24583
G1 X92.784 Y63.264 E363.88281
G1 X92.082 Y63.264 E363.92719
G1 X84.650 Y55.832 E364.59152
G1 X83.642 Y55.526 E364.65811
G1 X91.380 Y63.264 E365.34980
G1 X90.678 Y63.264 E365.39418
G1 X82.634 Y55.220 E366.11322
G1 X81.626 Y54.914 E366.17982
G1 X89.976 Y63.264 E366.92622
G1 X89.273 Y63.264 E366.97060
G1 X80.618 Y54.608 E367.74435
G1 X79.609 Y54.302 E367.81095
G1 X88.571 Y63.264 E368.61206
G1 X87.869 Y63.264 E368.65644
G1 X78.601 Y53.996 E369.48491
G1 X77.593 Y53.689 E369.55150
G1 X87.167 Y63.264 E370.40733
G1 X86.465 Y63.264 E370.45171
G1 X76.585 Y53.383 E371.33489
G1 X75.577 Y53.077 E371.40148
G1 X85.763 Y63.264 E372.31202
G1 X85.061 Y63.264 E372.35640
G1 X74.569 Y52.771 E373.29430
G1 X73.561 Y52.465 E373.36089
G1 X84.359 Y63.264 E374.32614
G1 X83.657 Y63.264 E374.37052
G1 X72.553 Y52.159 E375.36313
G1 X71.545 Y51.853 E375.42972
G1 X82.955 Y63.264 E376.44969
G1 X82.253 Y63.264 E376.49406
G1 X70.726 Y51.736 E377.52447
G1 X70.024 Y51.736 E377.56885
G1 X81.551 Y63.264 E378.59926
G1 X80.849 Y63.264 E378.64363
G1 X69.322 Y51.736 E379.67404
G1 X68.619 Y51.736 E379.71842
G1 X80.147 Y63.264 E380.74883
G1 X79.444 Y63.264 E380.79320
