; generated by Slic3r 1.2.9 on 2017-09-23 at 17:52:02

; external perimeters extrusion width = 0.50mm
; perimeters extrusion width = 0.58mm
; infill extrusion width = 0.58mm
; solid infill extrusion width = 0.58mm
; top infill extrusion width = 0.58mm

M127
M109 S210 ; set bed temperature
M104 S220 T0 ; set temperature
G28 ; home all axes
G1 Z5 F5000 ; lift nozzle

M73 P0
G1 Z0.500 F7800.000
G1 E-2.00000 F2400.00000
M103 ; extruder off
G1 X26.184 Y20.092 F7800.000
M101 ; extruder on
G1 E0.00000 F2400.00000
G1 X28.414 Y17.186 E0.52036 F1800.000
G1 X29.686 Y15.914 E0.77594
G1 X33.704 Y12.831 E1.49555
G1 X35.262 Y11.931 E1.75118
G1 X39.941 Y9.993 E2.47072
G1 X41.679 Y9.527 E2.72638
G1 X46.700 Y8.866 E3.44593
G1 X47.600 Y8.807 E3.57402
G1 X92.400 Y8.807 E9.93909
G1 X93.300 Y8.866 E10.06718
M101 ; extruder on
G1 X98.321 Y9.527 E10.78672 F1800.000
G1 X100.059 Y9.993 E11.04238
G1 X104.738 Y11.931 E11.76192
G1 X106.296 Y12.831 E12.01756
G1 X110.314 Y15.914 E12.73710
G1 X111.586 Y17.186 E12.99275
G1 X114.669 Y21.204 E13.71229
G1 X115.569 Y22.762 E13.96793
G1 X117.508 Y27.443 E14.68778
G1 X117.973 Y29.179 E14.94312
G1 X118.634 Y34.200 E15.66267
G1 X118.693 Y35.100 E15.79076
G1 X118.693 Y79.900 E22.15584
G1 X118.634 Y80.800 E22.28394
G1 X117.973 Y85.821 E23.00348
G1 X117.507 Y87.559 E23.25912
G1 X115.569 Y92.238 E23.97866
G1 X114.669 Y93.796 E24.23425
G1 X111.586 Y97.814 E24.95385
G1 X110.314 Y99.086 E25.20950
G1 X106.296 Y102.169 E25.92904
G1 X104.738 Y103.069 E26.18469
G1 X100.059 Y105.007 E26.90422
G1 X98.321 Y105.473 E27.15987
G1 X93.300 Y106.134 E27.87941
G1 X92.400 Y106.193 E28.00751
G1 X47.600 Y106.193 E34.37258
G1 X46.700 Y106.134 E34.50068
G1 X41.679 Y105.473 E35.22022
G1 X39.941 Y105.007 E35.47587
G1 X35.262 Y103.069 E36.19540
G1 X33.704 Y102.169 E36.45105
G1 X32.740 Y101.429 E36.62372
G1 X29.686 Y99.086 E37.17070
G1 X28.414 Y97.814 E37.42624
G1 X25.331 Y93.796 E38.14578
G1 X24.431 Y92.238 E38.40143
G1 X22.493 Y87.558 E39.12106
G1 X22.027 Y85.821 E39.37662
G1 X21.366 Y80.800 E40.09616
G1 X21.307 Y79.900 E40.22426
G1 X21.307 Y35.100 E46.58933
G1 X21.365 Y34.207 E46.71653
G1 X22.027 Y29.179 E47.43697
G1 X22.492 Y27.443 E47.69241
G1 X24.431 Y22.762 E48.41216
G1 X25.329 Y21.206 E48.66748
G1 X26.139 Y20.151 E48.85634
G1 E46.85634 F2400.00000
M103 ; extruder off
G1 X39.480 Y56.904 F7800.000
M101 ; extruder on
G1 E48.85634 F2400.00000
G1 X36.120 Y55.512 E49.37313 F1800.000
G1 X35.663 Y55.248 E49.44796
G1 X31.228 Y51.844 E50.24237
G1 X30.855 Y51.472 E50.31715
G1 X27.452 Y47.037 E51.11144
G1 X27.189 Y46.581 E51.18630
G1 X25.049 Y41.415 E51.98071
G1 X24.913 Y40.906 E52.05550
G1 X24.183 Y35.364 E52.84971
G1 X24.183 Y34.839 E52.92427
G1 X24.913 Y29.294 E53.71899
G1 X25.049 Y28.785 E53.79374
G1 X27.188 Y23.620 E54.58814
G1 X27.451 Y23.164 E54.66286
G1 X30.855 Y18.728 E55.45736
G1 X31.228 Y18.355 E55.53216
G1 X35.664 Y14.951 E56.32662
G1 X36.121 Y14.688 E56.40160
G1 X41.286 Y12.548 E57.19590
G1 X41.797 Y12.412 E57.27110
G1 X47.337 Y11.683 E58.06489
G1 X47.863 Y11.683 E58.13971
G1 X53.402 Y12.412 E58.93349
G1 X53.914 Y12.548 E59.00870
G1 X59.080 Y14.688 E59.80321
G1 X59.537 Y14.952 E59.87805
G1 X63.972 Y18.355 E60.67230
G1 X64.344 Y18.728 E60.74720
G1 X67.748 Y23.163 E61.54152
G1 X68.011 Y23.619 E61.61639
G1 X69.404 Y26.980 E62.13322
G1 X70.596 Y26.980 E62.30272
G1 X71.988 Y23.620 E62.81948
G1 X72.251 Y23.164 E62.89420
G1 X75.655 Y18.728 E63.68870
G1 X76.028 Y18.355 E63.76350
G1 X80.464 Y14.951 E64.55796
G1 X80.921 Y14.688 E64.63294
G1 X86.086 Y12.548 E65.42724
G1 X86.597 Y12.412 E65.50244
G1 X92.137 Y11.683 E66.29623
G1 X92.663 Y11.683 E66.37105
G1 X98.203 Y12.412 E67.16487
G1 X98.714 Y12.548 E67.24005
G1 X103.880 Y14.688 E68.03456
G1 X104.337 Y14.952 E68.10939
G1 X108.772 Y18.355 E68.90364
G1 X109.144 Y18.728 E68.97854
G1 X112.548 Y23.163 E69.77286
G1 X112.811 Y23.619 E69.84773
G1 X114.951 Y28.786 E70.64224
G1 X115.087 Y29.294 E70.71697
G1 X115.817 Y34.839 E71.51155
G1 X115.817 Y35.369 E71.58689
G1 X115.087 Y40.906 E72.38046
G1 X114.951 Y41.415 E72.45528
G1 X112.812 Y46.580 E73.24963
G1 X112.548 Y47.036 E73.32443
G1 X109.145 Y51.472 E74.11882
G1 X108.772 Y51.845 E74.19365
G1 X104.336 Y55.248 E74.98802
G1 X103.880 Y55.512 E75.06290
G1 X100.520 Y56.904 E75.57961
G1 X100.520 Y58.096 E75.74910
G1 X103.880 Y59.488 E76.26589
G1 X104.337 Y59.752 E76.34072
G1 X108.772 Y63.155 E77.13496
G1 X109.144 Y63.528 E77.20986
G1 X112.548 Y67.963 E78.00419
G1 X112.811 Y68.419 E78.07905
G1 X114.951 Y73.586 E78.87357
G1 X115.087 Y74.094 E78.94829
G1 X115.817 Y79.639 E79.74287
G1 X115.817 Y80.169 E79.81822
G1 X115.087 Y85.706 E80.61179
G1 X114.951 Y86.215 E80.68661
G1 X112.812 Y91.380 E81.48095
G1 X112.548 Y91.836 E81.55575
G1 X109.145 Y96.272 E82.35014
G1 X108.772 Y96.645 E82.42498
G1 X104.336 Y100.048 E83.21934
G1 X103.880 Y100.312 E83.29423
G1 X98.715 Y102.451 E84.08849
G1 X98.206 Y102.587 E84.16332
G1 X92.663 Y103.317 E84.95766
G1 X92.137 Y103.317 E85.03248
G1 X86.595 Y102.588 E85.82669
G1 X86.085 Y102.451 E85.90160
G1 X80.919 Y100.311 E86.69602
G1 X80.463 Y100.048 E86.77083
G1 X76.028 Y96.644 E87.56523
G1 X75.655 Y96.272 E87.64002
G1 X72.252 Y91.837 E88.43431
G1 X71.989 Y91.381 E88.50916
G1 X70.596 Y88.020 E89.02599
G1 X69.404 Y88.020 E89.19548
G1 X68.012 Y91.380 E89.71228
G1 X67.748 Y91.836 E89.78708
G1 X64.345 Y96.272 E90.58147
G1 X63.972 Y96.645 E90.65631
G1 X59.536 Y100.048 E91.45067
G1 X59.080 Y100.312 E91.52555
G1 X53.915 Y102.451 E92.31982
G1 X53.406 Y102.587 E92.39465
G1 X47.863 Y103.317 E93.18899
G1 X47.337 Y103.317 E93.26381
G1 X41.795 Y102.588 E94.05802
G1 X41.285 Y102.451 E94.13293
G1 X36.120 Y100.312 E94.92732
G1 X35.663 Y100.048 E95.00215
G1 X31.228 Y96.644 E95.79656
G1 X30.855 Y96.272 E95.87135
G1 X27.452 Y91.837 E96.66563
G1 X27.189 Y91.381 E96.74049
G1 X25.049 Y86.215 E97.53490
G1 X24.913 Y85.706 E97.60969
G1 X24.183 Y80.164 E98.40390
G1 X24.183 Y79.639 E98.47846
G1 X24.913 Y74.094 E99.27318
G1 X25.049 Y73.585 E99.34793
G1 X27.188 Y68.420 E100.14233
G1 X27.451 Y67.964 E100.21706
G1 X30.855 Y63.528 E101.01155
G1 X31.228 Y63.155 E101.08635
G1 X35.664 Y59.751 E101.88081
G1 X36.121 Y59.488 E101.95579
G1 X39.480 Y58.096 E102.47236
G1 X39.480 Y56.979 E102.63120
G1 E100.63120 F2400.00000
M103 ; extruder off
G1 X41.530 Y57.500 F7800.000
G1 X41.666 Y57.500 F7800.000
G1 X41.666 Y57.500 F7800.000
G1 X41.813 Y56.903 F7800.000
M101 ; extruder on
G1 E102.63120 F2400.00000
G1 X36.515 Y54.709 E103.44587 F1800.000
G1 X36.160 Y54.504 E103.50407
G1 X31.817 Y51.172 E104.28185
G1 X31.528 Y50.882 E104.34001
G1 X28.196 Y46.540 E105.11769
G1 X27.991 Y46.185 E105.17591
G1 X25.896 Y41.127 E105.95369
G1 X25.790 Y40.732 E106.01185
G1 X25.076 Y35.305 E106.78947
G1 X25.075 Y34.897 E106.84746
G1 X25.102 Y34.691 E106.87700
G1 X25.790 Y29.468 E107.62548
G1 X25.896 Y29.073 E107.68362
G1 X27.991 Y24.015 E108.46138
G1 X28.195 Y23.661 E108.51950
G1 X31.528 Y19.318 E109.29734
G1 X31.818 Y19.028 E109.35551
G1 X36.161 Y15.695 E110.13333
G1 X36.516 Y15.490 E110.19164
G1 X41.573 Y13.396 E110.96933
G1 X41.971 Y13.289 E111.02782
G1 X47.395 Y12.576 E111.80511
G1 X47.805 Y12.576 E111.86330
G1 X53.229 Y13.289 E112.64059
G1 X53.627 Y13.396 E112.69908
G1 X58.685 Y15.491 E113.47693
G1 X59.040 Y15.696 E113.53514
G1 X63.382 Y19.028 E114.31279
G1 X63.672 Y19.317 E114.37104
G1 X67.004 Y23.660 E115.14875
G1 X67.209 Y24.015 E115.20698
G1 X69.404 Y29.313 E116.02170
G1 X70.596 Y29.313 E116.19119
G1 X72.791 Y24.015 E117.00585
G1 X72.995 Y23.661 E117.06397
G1 X76.328 Y19.318 E117.84181
G1 X76.618 Y19.028 E117.89999
G1 X80.961 Y15.695 E118.67780
G1 X81.316 Y15.490 E118.73611
G1 X86.373 Y13.396 E119.51380
G1 X86.771 Y13.289 E119.57229
G1 X92.195 Y12.576 E120.34958
G1 X92.605 Y12.576 E120.40777
G1 X98.029 Y13.289 E121.18509
G1 X98.427 Y13.396 E121.24356
G1 X103.485 Y15.491 E122.02141
G1 X103.840 Y15.696 E122.07961
G1 X108.182 Y19.028 E122.85726
G1 X108.472 Y19.317 E122.91551
G1 X111.804 Y23.660 E123.69322
G1 X112.009 Y24.015 E123.75145
G1 X114.104 Y29.073 E124.52930
G1 X114.210 Y29.468 E124.58742
G1 X114.925 Y34.897 E125.36532
G1 X114.924 Y35.309 E125.42393
G1 X114.210 Y40.732 E126.20105
G1 X114.104 Y41.128 E126.25924
G1 X112.009 Y46.185 E127.03696
G1 X111.804 Y46.539 E127.09514
G1 X108.472 Y50.882 E127.87290
G1 X108.182 Y51.172 E127.93110
G1 X103.839 Y54.504 E128.70884
G1 X103.484 Y54.709 E128.76708
G1 X98.187 Y56.903 E129.58169
G1 X98.187 Y58.096 E129.75119
G1 X103.485 Y60.291 E130.56586
G1 X103.840 Y60.496 E130.62407
G1 X108.182 Y63.828 E131.40171
G1 X108.472 Y64.117 E131.45996
G1 X111.804 Y68.460 E132.23767
G1 X112.009 Y68.815 E132.29590
G1 X114.104 Y73.873 E133.07375
G1 X114.210 Y74.268 E133.13187
G1 X114.925 Y79.697 E133.90978
G1 X114.924 Y80.109 E133.96838
G1 X114.210 Y85.532 E134.74550
G1 X114.104 Y85.928 E134.80369
G1 X112.009 Y90.985 E135.58141
G1 X111.804 Y91.339 E135.63959
G1 X108.472 Y95.682 E136.41735
G1 X108.182 Y95.972 E136.47555
G1 X103.839 Y99.304 E137.25329
G1 X103.484 Y99.509 E137.31153
G1 X98.428 Y101.604 E138.08919
G1 X98.032 Y101.710 E138.14739
G1 X92.605 Y102.424 E138.92511
G1 X92.195 Y102.424 E138.98330
G1 X86.769 Y101.710 E139.76092
G1 X86.373 Y101.604 E139.81918
G1 X81.315 Y99.509 E140.59696
G1 X80.960 Y99.304 E140.65514
G1 X76.617 Y95.972 E141.43291
G1 X76.328 Y95.682 E141.49108
G1 X72.996 Y91.340 E142.26876
G1 X72.791 Y90.985 E142.32698
G1 X70.596 Y85.687 E143.14169
G1 X69.404 Y85.687 E143.31118
G1 X67.209 Y90.985 E144.12587
G1 X67.004 Y91.339 E144.18405
G1 X63.672 Y95.682 E144.96181
G1 X63.382 Y95.972 E145.02001
G1 X59.039 Y99.304 E145.79775
G1 X58.684 Y99.509 E145.85599
G1 X53.628 Y101.604 E146.63365
G1 X53.232 Y101.710 E146.69185
G1 X47.805 Y102.424 E147.46957
G1 X47.395 Y102.424 E147.52776
G1 X41.969 Y101.710 E148.30538
G1 X41.573 Y101.604 E148.36365
G1 X36.515 Y99.509 E149.14140
G1 X36.160 Y99.304 E149.19960
G1 X31.817 Y95.972 E149.97737
G1 X31.528 Y95.682 E150.03554
G1 X28.196 Y91.340 E150.81321
G1 X27.991 Y90.985 E150.87144
G1 X25.896 Y85.927 E151.64921
G1 X25.790 Y85.532 E151.70738
G1 X25.076 Y80.106 E152.48500
G1 X25.075 Y79.697 E152.54299
G1 X25.790 Y74.268 E153.32100
G1 X25.896 Y73.873 E153.37914
G1 X27.991 Y68.815 E154.15691
G1 X28.195 Y68.461 E154.21502
G1 X31.528 Y64.118 E154.99286
G1 X31.818 Y63.828 E155.05104
G1 X36.161 Y60.495 E155.82885
G1 X36.516 Y60.290 E155.88717
G1 X41.813 Y58.096 E156.70168
G1 X41.813 Y56.978 E156.86051
G1 E154.86051 F2400.00000
M103 ; extruder off
G1 X42.031 Y57.500 F7800.000
G1 X47.238 Y57.500 F7800.000
G1 X47.371 Y57.500 F7800.000
G1 X47.343 Y56.717 F7800.000
M101 ; extruder on
G1 E156.86051 F2400.00000
G1 X42.143 Y56.033 E157.60562 F1800.000
G1 X41.860 Y55.957 E157.64724
G1 X36.911 Y53.907 E158.40836
G1 X36.657 Y53.761 E158.44993
G1 X32.407 Y50.499 E159.21107
G1 X32.201 Y50.292 E159.25262
G1 X28.940 Y46.043 E160.01368
G1 X28.793 Y45.789 E160.05527
G1 X26.743 Y40.840 E160.81640
G1 X26.667 Y40.557 E160.85795
G1 X25.968 Y35.247 E161.61898
G1 X25.968 Y34.955 E161.66040
G1 X25.987 Y34.808 E161.68157
G1 X26.667 Y29.643 E162.42171
G1 X26.743 Y29.360 E162.46324
G1 X28.793 Y24.411 E163.22436
G1 X28.939 Y24.158 E163.26588
G1 X32.201 Y19.907 E164.02706
G1 X32.407 Y19.701 E164.06861
G1 X36.658 Y16.439 E164.82978
G1 X36.912 Y16.293 E164.87143
G1 X41.861 Y14.243 E165.63250
G1 X42.145 Y14.167 E165.67428
G1 X47.454 Y13.468 E166.43507
G1 X47.746 Y13.468 E166.47664
G1 X53.055 Y14.167 E167.23742
G1 X53.339 Y14.243 E167.27921
G1 X58.289 Y16.293 E168.04040
G1 X58.543 Y16.439 E168.08198
G1 X62.792 Y19.700 E168.84302
G1 X62.999 Y19.907 E168.88463
G1 X66.260 Y24.157 E169.64572
G1 X66.407 Y24.411 E169.68731
G1 X68.457 Y29.360 E170.44849
G1 X68.533 Y29.643 E170.49001
G1 X69.217 Y34.843 E171.23518
G1 X70.783 Y34.843 E171.45764
G1 X71.467 Y29.643 E172.20281
G1 X71.543 Y29.360 E172.24435
G1 X73.593 Y24.411 E173.00547
G1 X73.739 Y24.158 E173.04698
G1 X77.001 Y19.907 E173.80816
G1 X77.207 Y19.701 E173.84972
G1 X81.458 Y16.439 E174.61088
G1 X81.712 Y16.293 E174.65254
G1 X86.661 Y14.243 E175.41361
G1 X86.945 Y14.167 E175.45539
G1 X92.254 Y13.468 E176.21618
G1 X92.546 Y13.468 E176.25774
G1 X97.855 Y14.167 E177.01855
G1 X98.139 Y14.243 E177.06032
G1 X103.089 Y16.293 E177.82151
G1 X103.343 Y16.439 E177.86308
G1 X107.592 Y19.700 E178.62412
G1 X107.799 Y19.907 E178.66573
G1 X111.060 Y24.157 E179.42682
G1 X111.207 Y24.411 E179.46841
G1 X113.257 Y29.360 E180.22960
G1 X113.333 Y29.643 E180.27112
G1 X113.520 Y31.070 E180.47562
G1 X114.032 Y34.955 E181.03235
G1 X114.032 Y35.249 E181.07421
G1 X113.333 Y40.557 E181.83488
G1 X113.257 Y40.840 E181.87644
G1 X113.196 Y40.987 E181.89907
G1 X111.207 Y45.789 E182.63754
G1 X111.061 Y46.042 E182.67910
G1 X107.799 Y50.293 E183.44022
G1 X107.592 Y50.499 E183.48179
G1 X103.342 Y53.761 E184.24290
G1 X103.089 Y53.907 E184.28450
G1 X98.140 Y55.957 E185.04556
G1 X97.857 Y56.033 E185.08713
G1 X92.657 Y56.717 E185.83231
G1 X92.657 Y58.283 E186.05476
G1 X97.855 Y58.967 E186.79965
G1 X98.139 Y59.043 E186.84142
G1 X103.089 Y61.093 E187.60261
G1 X103.343 Y61.239 E187.64418
G1 X107.592 Y64.500 E188.40522
G1 X107.799 Y64.707 E188.44683
G1 X111.060 Y68.957 E189.20792
G1 X111.207 Y69.211 E189.24951
G1 X113.257 Y74.160 E190.01070
G1 X113.333 Y74.443 E190.05222
G1 X114.032 Y79.755 E190.81345
G1 X114.032 Y80.049 E190.85531
G1 X113.333 Y85.357 E191.61598
G1 X113.257 Y85.640 E191.65754
G1 X111.207 Y90.589 E192.41864
G1 X111.061 Y90.842 E192.46020
G1 X107.799 Y95.093 E193.22132
G1 X107.592 Y95.299 E193.26289
G1 X103.342 Y98.561 E194.02400
G1 X103.089 Y98.707 E194.06560
G1 X98.140 Y100.757 E194.82666
G1 X97.857 Y100.833 E194.86823
G1 X92.546 Y101.532 E195.62932
G1 X92.254 Y101.532 E195.67089
G1 X86.943 Y100.833 E196.43191
G1 X86.660 Y100.757 E196.47353
G1 X81.711 Y98.707 E197.23467
G1 X81.457 Y98.561 E197.27623
G1 X77.339 Y95.401 E198.01370
G1 X77.207 Y95.299 E198.03736
G1 X77.001 Y95.092 E198.07891
G1 X73.740 Y90.843 E198.83998
G1 X73.593 Y90.589 E198.88156
G1 X71.543 Y85.640 E199.64267
G1 X71.467 Y85.357 E199.68424
G1 X70.783 Y80.157 E200.42943
G1 X69.217 Y80.157 E200.65189
G1 X68.533 Y85.357 E201.39708
G1 X68.457 Y85.640 E201.43864
G1 X66.407 Y90.589 E202.19974
G1 X66.261 Y90.842 E202.24130
G1 X62.999 Y95.093 E203.00242
G1 X62.792 Y95.299 E203.04399
G1 X58.542 Y98.561 E203.80510
G1 X58.289 Y98.707 E203.84670
G1 X53.340 Y100.757 E204.60776
G1 X53.057 Y100.833 E204.64933
G1 X47.746 Y101.532 E205.41042
G1 X47.454 Y101.532 E205.45199
G1 X42.143 Y100.833 E206.21302
G1 X41.860 Y100.757 E206.25464
G1 X36.911 Y98.707 E207.01575
G1 X36.657 Y98.561 E207.05733
G1 X32.407 Y95.299 E207.81846
G1 X32.201 Y95.092 E207.86001
G1 X28.940 Y90.843 E208.62107
G1 X28.793 Y90.589 E208.66266
G1 X26.743 Y85.640 E209.42380
G1 X26.667 Y85.357 E209.46535
G1 X25.968 Y80.047 E210.22637
G1 X25.968 Y79.755 E210.26779
G1 X26.667 Y74.443 E211.02910
G1 X26.743 Y74.160 E211.07063
G1 X26.804 Y74.013 E211.09326
G1 X28.793 Y69.211 E211.83176
G1 X28.939 Y68.958 E211.87327
G1 X32.201 Y64.707 E212.63445
G1 X32.407 Y64.501 E212.67601
G1 X36.658 Y61.239 E213.43717
G1 X36.912 Y61.093 E213.47882
G1 X41.861 Y59.043 E214.23990
G1 X42.145 Y58.967 E214.28168
G1 X47.343 Y58.283 E215.02655
G1 X47.343 Y56.792 E215.23836
G1 X47.459 Y55.832 F7800.000
M101 ; extruder on
G1 X42.317 Y55.155 E215.97518 F1800.000
G1 X42.148 Y55.110 E216.00016
G1 X37.307 Y53.104 E216.74464
G1 X37.154 Y53.017 E216.76959
G1 X33.083 Y49.892 E217.49874
G1 X32.873 Y49.703 E217.53893
G1 X29.683 Y45.546 E218.28339
G1 X29.596 Y45.394 E218.30834
G1 X27.590 Y40.552 E219.05283
G1 X27.545 Y40.383 E219.07776
G1 X26.861 Y35.188 E219.82220
G1 X26.861 Y35.013 E219.84705
G1 X27.545 Y29.817 E220.59165
G1 X27.590 Y29.648 E220.61657
G1 X29.596 Y24.807 E221.36106
G1 X29.749 Y24.568 E221.40133
G1 X32.873 Y20.497 E222.13041
G1 X32.997 Y20.373 E222.15534
G1 X37.155 Y17.183 E222.89986
G1 X37.307 Y17.095 E222.92485
G1 X42.148 Y15.090 E223.66931
G1 X42.318 Y15.045 E223.69438
G1 X47.512 Y14.361 E224.43867
G1 X47.688 Y14.361 E224.46361
M101 ; extruder on
G1 X52.882 Y15.045 E225.20789 F1800.000
G1 X53.052 Y15.090 E225.23296
G1 X57.893 Y17.096 E225.97749
G1 X58.046 Y17.183 E226.00244
G1 X62.202 Y20.373 E226.74688
