; generated by Slic3r 1.2.9 on 2017-09-18 at 17:30:16

; external perimeters extrusion width = 0.50mm
; perimeters extrusion width = 0.58mm
; infill extrusion width = 0.58mm
; solid infill extrusion width = 0.58mm
; top infill extrusion width = 0.58mm

M127
M109 S220 ; set bed temperature
M104 S220 T0 ; set temperature
G28 ; home all axes
G1 Z5 F5000 ; lift nozzle

M73 P0
G1 Z0.500 F7800.000
G1 E-2.00000 F2400.00000
M103 ; extruder off
G1 X46.831 Y22.762 F7800.000
M101 ; extruder on
G1 E0.00000 F2400.00000
G1 X47.743 Y21.187 E0.25859 F1800.000
G1 X50.814 Y17.186 E0.97517
G1 X52.086 Y15.914 E1.23076
G1 X56.104 Y12.831 E1.95036
G1 X57.662 Y11.931 E2.20599
G1 X62.341 Y9.993 E2.92553
G1 X64.079 Y9.527 E3.18119
G1 X69.100 Y8.866 E3.90073
G1 X70.900 Y8.866 E4.15637
G1 X74.736 Y9.371 E4.70615
M101 ; extruder on
G1 X75.921 Y9.527 E4.87591 F1800.000
G1 X77.659 Y9.993 E5.13157
G1 X82.338 Y11.931 E5.85111
G1 X83.896 Y12.831 E6.10675
G1 X87.914 Y15.914 E6.82629
G1 X89.186 Y17.186 E7.08194
G1 X92.269 Y21.204 E7.80148
G1 X93.169 Y22.762 E8.05712
G1 X95.108 Y27.443 E8.77697
G1 X95.573 Y29.179 E9.03231
G1 X96.234 Y34.200 E9.75186
G1 X96.293 Y35.100 E9.87995
G1 X96.293 Y79.900 E16.24503
G1 X96.234 Y80.800 E16.37312
G1 X95.573 Y85.821 E17.09267
G1 X95.107 Y87.559 E17.34831
G1 X93.169 Y92.238 E18.06785
G1 X92.269 Y93.796 E18.32344
G1 X89.186 Y97.814 E19.04304
G1 X87.914 Y99.086 E19.29869
G1 X83.896 Y102.169 E20.01822
G1 X82.338 Y103.069 E20.27388
G1 X77.659 Y105.007 E20.99341
G1 X75.921 Y105.473 E21.24906
G1 X70.900 Y106.134 E21.96860
G1 X69.100 Y106.134 E22.22425
G1 X64.079 Y105.473 E22.94379
G1 X62.341 Y105.007 E23.19944
G1 X57.662 Y103.069 E23.91899
G1 X56.104 Y102.169 E24.17462
G1 X52.102 Y99.098 E24.89130
G1 X50.814 Y97.814 E25.14979
G1 X47.731 Y93.796 E25.86933
G1 X46.831 Y92.238 E26.12498
G1 X44.893 Y87.559 E26.84451
G1 X44.427 Y85.821 E27.10016
G1 X43.766 Y80.800 E27.81970
G1 X43.707 Y79.900 E27.94780
G1 X43.707 Y35.100 E34.31287
G1 X43.765 Y34.207 E34.44007
G1 X44.427 Y29.179 E35.16051
G1 X44.893 Y27.442 E35.41601
G1 X46.802 Y22.832 E36.12504
G1 E34.12504 F2400.00000
M103 ; extruder off
G1 X73.111 Y38.211 F7800.000
M101 ; extruder on
G1 E36.12504 F2400.00000
G1 X73.579 Y39.341 E36.29888 F1800.000
G1 X73.705 Y40.300 E36.43630
G1 X73.579 Y41.259 E36.57372
G1 X73.209 Y42.153 E36.71114
G1 X72.620 Y42.920 E36.84857
G1 X71.853 Y43.509 E36.98598
G1 X70.959 Y43.879 E37.12341
G1 X70.000 Y44.005 E37.26083
G1 X69.041 Y43.879 E37.39825
G1 X68.147 Y43.509 E37.53567
G1 X67.380 Y42.920 E37.67309
G1 X66.791 Y42.153 E37.81052
G1 X66.421 Y41.259 E37.94794
G1 X66.295 Y40.300 E38.08536
G1 X66.421 Y39.341 E38.22278
G1 X66.889 Y38.211 E38.39662
G1 X65.675 Y38.713 E38.58329
G1 X64.757 Y38.799 E38.71439
G1 X63.841 Y38.679 E38.84562
G1 X62.948 Y38.309 E38.98302
G1 X62.180 Y37.720 E39.12045
G1 X61.591 Y36.953 E39.25789
G1 X61.221 Y36.059 E39.39529
G1 X61.095 Y35.100 E39.53273
G1 X61.221 Y34.141 E39.67016
G1 X61.591 Y33.247 E39.80757
G1 X62.180 Y32.480 E39.94501
G1 X62.948 Y31.891 E40.08243
G1 X63.841 Y31.521 E40.21982
G1 X64.751 Y31.401 E40.35021
G1 X65.739 Y31.513 E40.49152
G1 X66.889 Y31.989 E40.66843
G1 X66.421 Y30.859 E40.84228
G1 X66.295 Y29.900 E40.97971
G1 X66.421 Y28.941 E41.11712
G1 X66.791 Y28.047 E41.25456
G1 X67.380 Y27.280 E41.39198
G1 X68.147 Y26.691 E41.52937
G1 X69.041 Y26.321 E41.66680
G1 X69.951 Y26.201 E41.79719
G1 X70.939 Y26.313 E41.93850
G1 X71.853 Y26.691 E42.07899
G1 X72.620 Y27.280 E42.21638
G1 X73.209 Y28.047 E42.35380
G1 X73.579 Y28.941 E42.49125
G1 X73.705 Y29.900 E42.62865
G1 X73.579 Y30.859 E42.76608
G1 X73.111 Y31.989 E42.93993
G1 X74.241 Y31.521 E43.11377
G1 X75.151 Y31.401 E43.24416
G1 X76.139 Y31.513 E43.38547
G1 X77.052 Y31.891 E43.52593
G1 X77.820 Y32.480 E43.66334
G1 X78.409 Y33.247 E43.80079
G1 X78.779 Y34.141 E43.93819
G1 X78.905 Y35.100 E44.07563
G1 X78.779 Y36.059 E44.21306
G1 X78.409 Y36.953 E44.35047
G1 X77.820 Y37.720 E44.48790
G1 X77.052 Y38.309 E44.62534
G1 X76.159 Y38.679 E44.76273
G1 X75.200 Y38.805 E44.90016
G1 X74.241 Y38.679 E45.03758
G1 X73.180 Y38.239 E45.20076
G1 X72.975 Y36.768 F7800.000
M101 ; extruder on
G1 X72.408 Y37.508 E45.33318 F1800.000
G1 X71.668 Y38.075 E45.46561
G1 X71.983 Y38.317 E45.52205
G1 X72.429 Y38.898 E45.62608
G1 X72.709 Y39.574 E45.73011
G1 X72.805 Y40.300 E45.83413
G1 X72.709 Y41.026 E45.93816
G1 X72.429 Y41.702 E46.04218
G1 X71.983 Y42.283 E46.14621
G1 X71.402 Y42.729 E46.25024
G1 X70.726 Y43.009 E46.35426
G1 X70.000 Y43.105 E46.45829
G1 X69.274 Y43.009 E46.56232
G1 X68.598 Y42.729 E46.66634
G1 X68.017 Y42.283 E46.77037
G1 X67.571 Y41.702 E46.87439
G1 X67.291 Y41.026 E46.97842
G1 X67.195 Y40.300 E47.08244
G1 X67.291 Y39.574 E47.18647
G1 X67.571 Y38.898 E47.29050
G1 X68.017 Y38.317 E47.39452
G1 X68.332 Y38.075 E47.45097
G1 X67.592 Y37.508 E47.58340
G1 X67.025 Y36.768 E47.71582
G1 X66.783 Y37.083 E47.77228
G1 X66.202 Y37.529 E47.87631
G1 X65.458 Y37.837 E47.99073
G1 X64.774 Y37.901 E48.08842
G1 X64.074 Y37.809 E48.18867
G1 X63.398 Y37.529 E48.29268
G1 X62.817 Y37.083 E48.39671
G1 X62.371 Y36.502 E48.50075
G1 X62.091 Y35.826 E48.60477
G1 X61.995 Y35.100 E48.70880
G1 X62.091 Y34.374 E48.81284
G1 X62.371 Y33.698 E48.91685
G1 X62.817 Y33.117 E49.02090
G1 X63.398 Y32.671 E49.12491
G1 X64.074 Y32.391 E49.22892
G1 X64.759 Y32.301 E49.32710
G1 X65.514 Y32.386 E49.43501
G1 X66.202 Y32.671 E49.54089
G1 X66.783 Y33.117 E49.64490
G1 X67.025 Y33.432 E49.70137
G1 X67.593 Y32.692 E49.83379
G1 X68.332 Y32.125 E49.96622
G1 X68.017 Y31.883 E50.02266
G1 X67.571 Y31.302 E50.12670
G1 X67.291 Y30.626 E50.23072
G1 X67.195 Y29.900 E50.33476
G1 X67.291 Y29.174 E50.43877
G1 X67.571 Y28.498 E50.54281
G1 X68.017 Y27.917 E50.64683
G1 X68.598 Y27.471 E50.75084
G1 X69.274 Y27.191 E50.85487
G1 X69.959 Y27.101 E50.95305
G1 X70.714 Y27.186 E51.06096
G1 X71.402 Y27.471 E51.16686
G1 X71.983 Y27.917 E51.27086
G1 X72.429 Y28.498 E51.37489
G1 X72.709 Y29.174 E51.47893
G1 X72.805 Y29.900 E51.58294
G1 X72.709 Y30.626 E51.68698
G1 X72.429 Y31.302 E51.79099
G1 X71.983 Y31.883 E51.89504
G1 X71.668 Y32.125 E51.95148
G1 X72.407 Y32.692 E52.08390
G1 X72.975 Y33.432 E52.21633
G1 X73.217 Y33.117 E52.27279
G1 X73.798 Y32.671 E52.37681
G1 X74.474 Y32.391 E52.48082
G1 X75.159 Y32.301 E52.57900
G1 X75.914 Y32.386 E52.68691
G1 X76.602 Y32.671 E52.79278
G1 X77.183 Y33.117 E52.89680
G1 X77.629 Y33.698 E53.00084
G1 X77.909 Y34.374 E53.10486
G1 X78.005 Y35.100 E53.20890
G1 X77.909 Y35.826 E53.31293
G1 X77.629 Y36.502 E53.41695
G1 X77.183 Y37.083 E53.52098
G1 X76.602 Y37.529 E53.62502
G1 X75.926 Y37.809 E53.72902
G1 X75.200 Y37.905 E53.83305
G1 X74.474 Y37.809 E53.93708
G1 X73.798 Y37.529 E54.04109
G1 X73.217 Y37.083 E54.14513
G1 X73.021 Y36.828 E54.19092
G1 X71.316 Y38.930 F7800.000
M101 ; extruder on
G1 X71.649 Y39.348 E54.26686 F1800.000
G1 X71.839 Y39.807 E54.33749
G1 X71.904 Y40.300 E54.40812
G1 X71.839 Y40.793 E54.47875
G1 X71.649 Y41.252 E54.54938
G1 X71.347 Y41.647 E54.62001
G1 X70.952 Y41.949 E54.69064
G1 X70.493 Y42.139 E54.76127
G1 X70.000 Y42.204 E54.83190
G1 X69.507 Y42.139 E54.90253
G1 X69.048 Y41.949 E54.97316
G1 X68.653 Y41.647 E55.04379
G1 X68.351 Y41.252 E55.11442
G1 X68.161 Y40.793 E55.18505
G1 X68.096 Y40.300 E55.25568
G1 X68.161 Y39.807 E55.32631
G1 X68.351 Y39.348 E55.39694
G1 X68.653 Y38.953 E55.46757
G1 X69.048 Y38.651 E55.53821
G1 X69.507 Y38.461 E55.60883
M101 ; extruder on
G1 X69.967 Y38.400 E55.67480 F1800.000
G1 X70.489 Y38.459 E55.74930
G1 X70.952 Y38.651 E55.82060
G1 X71.256 Y38.884 E55.87510
G1 X71.803 Y38.816 F7800.000
G1 X70.719 Y37.490 F7800.000
M101 ; extruder on
G1 X70.648 Y37.519 E55.88604 F1800.000
G1 X70.000 Y37.604 E55.97893
G1 X69.352 Y37.519 E56.07181
G1 X68.748 Y37.269 E56.16469
G1 X68.229 Y36.871 E56.25758
G1 X67.831 Y36.352 E56.35046
G1 X67.581 Y35.748 E56.44335
G1 X67.496 Y35.100 E56.53623
G1 X67.581 Y34.452 E56.62911
G1 X67.831 Y33.848 E56.72200
G1 X68.229 Y33.329 E56.81488
G1 X68.748 Y32.931 E56.90776
G1 X69.352 Y32.681 E57.00065
M101 ; extruder on
G1 X69.956 Y32.602 E57.08716 F1800.000
G1 X70.644 Y32.679 E57.18557
G1 X71.252 Y32.931 E57.27913
G1 X71.771 Y33.329 E57.37201
G1 X72.169 Y33.848 E57.46489
G1 X72.419 Y34.452 E57.55778
G1 X72.504 Y35.100 E57.65066
G1 X72.419 Y35.748 E57.74354
G1 X72.169 Y36.352 E57.83643
G1 X71.771 Y36.871 E57.92931
G1 X71.252 Y37.269 E58.02220
G1 X70.789 Y37.461 E58.09348
G1 X70.709 Y37.566 F7800.000
G1 E56.09348 F2400.00000
M103 ; extruder off
G1 X72.127 Y32.973 F7800.000
G1 X71.788 Y32.125 F7800.000
G1 X71.284 Y32.178 F7800.000
G1 X70.781 Y32.178 F7800.000
G1 X70.721 Y32.186 F7800.000
G1 X70.000 Y31.804 F7800.000
M101 ; extruder on
G1 E58.09348 F2400.00000
G1 X69.507 Y31.739 E58.16412 F1800.000
G1 X69.048 Y31.549 E58.23474
G1 X68.653 Y31.247 E58.30537
G1 X68.351 Y30.852 E58.37601
G1 X68.161 Y30.393 E58.44663
G1 X68.096 Y29.900 E58.51727
G1 X68.161 Y29.407 E58.58789
G1 X68.351 Y28.948 E58.65853
G1 X68.653 Y28.553 E58.72916
G1 X69.048 Y28.251 E58.79978
G1 X69.507 Y28.061 E58.87041
M101 ; extruder on
G1 X69.967 Y28.000 E58.93638 F1800.000
G1 X70.489 Y28.059 E59.01089
G1 X70.952 Y28.251 E59.08219
G1 X71.347 Y28.553 E59.15281
G1 X71.649 Y28.948 E59.22344
G1 X71.839 Y29.407 E59.29408
G1 X71.904 Y29.900 E59.36470
G1 X71.839 Y30.393 E59.43534
G1 X71.649 Y30.852 E59.50596
G1 X71.347 Y31.247 E59.57661
G1 X70.952 Y31.549 E59.64723
G1 X70.493 Y31.739 E59.71785
G1 X70.074 Y31.795 E59.77783
G1 X69.733 Y32.224 F7800.000
G1 X66.449 Y34.148 F7800.000
M101 ; extruder on
G1 X66.639 Y34.607 E59.84845 F1800.000
G1 X66.704 Y35.100 E59.91909
G1 X66.639 Y35.593 E59.98973
G1 X66.449 Y36.052 E60.06035
G1 X66.147 Y36.447 E60.13099
G1 X65.752 Y36.749 E60.20162
G1 X65.241 Y36.961 E60.28022
G1 X64.791 Y37.003 E60.34450
G1 X64.307 Y36.939 E60.41377
G1 X63.848 Y36.749 E60.48440
G1 X63.453 Y36.447 E60.55503
G1 X63.151 Y36.052 E60.62567
G1 X62.961 Y35.593 E60.69629
G1 X62.896 Y35.100 E60.76693
G1 X62.961 Y34.607 E60.83757
G1 X63.151 Y34.148 E60.90819
G1 X63.453 Y33.753 E60.97883
G1 X63.848 Y33.451 E61.04945
G1 X64.307 Y33.261 E61.12008
M101 ; extruder on
G1 X64.767 Y33.200 E61.18605 F1800.000
G1 X65.289 Y33.259 E61.26055
G1 X65.752 Y33.451 E61.33185
G1 X66.147 Y33.753 E61.40247
G1 X66.404 Y34.088 E61.46246
G1 X66.946 Y34.170 F7800.000
G1 X67.086 Y34.379 F7800.000
G1 X65.543 Y30.643 F7800.000
G1 X64.827 Y23.675 F7800.000
G1 X78.298 Y26.802 F7800.000
G1 X73.917 Y31.183 F7800.000
G1 X73.079 Y32.021 F7800.000
G1 X72.103 Y32.125 F7800.000
G1 X71.788 Y32.125 F7800.000
G1 X71.504 Y32.495 F7800.000
G1 X73.302 Y35.050 F7800.000
M101 ; extruder on
G1 X73.361 Y34.607 E61.52587 F1800.000
G1 X73.551 Y34.148 E61.59649
G1 X73.853 Y33.753 E61.66713
G1 X74.248 Y33.451 E61.73775
G1 X74.707 Y33.261 E61.80838
M101 ; extruder on
G1 X75.167 Y33.200 E61.87435 F1800.000
G1 X75.689 Y33.259 E61.94885
G1 X76.152 Y33.451 E62.02015
G1 X76.547 Y33.753 E62.09077
G1 X76.849 Y34.148 E62.16141
G1 X77.039 Y34.607 E62.23204
G1 X77.104 Y35.100 E62.30267
G1 X77.039 Y35.593 E62.37331
G1 X76.849 Y36.052 E62.44394
G1 X76.547 Y36.447 E62.51457
G1 X76.152 Y36.749 E62.58520
G1 X75.693 Y36.939 E62.65583
G1 X75.200 Y37.004 E62.72646
G1 X74.707 Y36.939 E62.79709
G1 X74.248 Y36.749 E62.86771
G1 X73.853 Y36.447 E62.93835
G1 X73.551 Y36.052 E63.00898
G1 X73.361 Y35.593 E63.07961
G1 X73.299 Y35.124 E63.14681
G1 X72.928 Y34.807 F7800.000
G1 E61.14681 F2400.00000
M103 ; extruder off
G1 X77.527 Y34.477 F7800.000
G1 X82.908 Y34.403 F7800.000
G1 X82.977 Y35.100 F7800.000
G1 X88.391 Y35.100 F7800.000
G1 X86.853 Y33.266 F7800.000
M101 ; extruder on
G1 E63.14681 F2400.00000
G1 X87.095 Y35.100 E63.40970 F1800.000
G1 X86.512 Y39.524 E64.04374
G1 X84.805 Y43.647 E64.67778
G1 X82.088 Y47.188 E65.31183
G1 X78.547 Y49.905 E65.94587
G1 X74.424 Y51.612 E66.57991
G1 X70.000 Y52.195 E67.21396
G1 X65.576 Y51.612 E67.84800
G1 X61.453 Y49.905 E68.48204
G1 X57.912 Y47.188 E69.11609
G1 X55.195 Y43.647 E69.75013
G1 X53.488 Y39.524 E70.38417
G1 X52.905 Y35.100 E71.01822
G1 X53.488 Y30.675 E71.65226
G1 X55.195 Y26.553 E72.28630
G1 X57.912 Y23.012 E72.92035
G1 X61.453 Y20.295 E73.55439
G1 X65.576 Y18.588 E74.18844
G1 X70.000 Y18.005 E74.82248
G1 X73.771 Y18.502 E75.36289
M101 ; extruder on
G1 X74.424 Y18.588 E75.45652 F1800.000
G1 X78.547 Y20.295 E76.09057
G1 X82.088 Y23.012 E76.72461
G1 X84.805 Y26.553 E77.35866
G1 X86.512 Y30.676 E77.99270
G1 X86.844 Y33.191 E78.35320
G1 X87.738 Y33.149 F7800.000
M101 ; extruder on
G1 X87.995 Y35.100 E78.63278 F1800.000
G1 X87.382 Y39.758 E79.30023
G1 X85.584 Y44.098 E79.96766
G1 X82.725 Y47.825 E80.63510
G1 X78.998 Y50.684 E81.30254
G1 X74.658 Y52.482 E81.96998
G1 X70.000 Y53.095 E82.63742
G1 X65.342 Y52.482 E83.30486
G1 X61.002 Y50.684 E83.97230
G1 X57.275 Y47.825 E84.63974
G1 X54.416 Y44.098 E85.30718
G1 X52.618 Y39.758 E85.97461
G1 X52.005 Y35.100 E86.64205
G1 X52.618 Y30.442 E87.30949
G1 X54.416 Y26.102 E87.97693
G1 X57.275 Y22.375 E88.64437
G1 X61.002 Y19.516 E89.31181
G1 X65.342 Y17.718 E89.97925
G1 X70.000 Y17.105 E90.64669
G1 X73.655 Y17.586 E91.17043
M101 ; extruder on
G1 X74.658 Y17.718 E91.31413 F1800.000
G1 X78.998 Y19.516 E91.98157
G1 X82.725 Y22.375 E92.64901
G1 X85.584 Y26.102 E93.31645
G1 X87.382 Y30.442 E93.98389
G1 X87.729 Y33.075 E94.36109
G1 X88.623 Y33.032 F7800.000
M101 ; extruder on
G1 X88.896 Y35.100 E94.65737 F1800.000
G1 X88.252 Y39.991 E95.35821
G1 X86.364 Y44.548 E96.05904
G1 X83.361 Y48.461 E96.75987
G1 X79.448 Y51.464 E97.46071
G1 X74.891 Y53.352 E98.16154
G1 X70.000 Y53.996 E98.86238
G1 X65.109 Y53.352 E99.56321
G1 X60.552 Y51.464 E100.26405
G1 X56.639 Y48.461 E100.96488
G1 X53.636 Y44.548 E101.66572
G1 X51.748 Y39.991 E102.36655
G1 X51.104 Y35.100 E103.06739
G1 X51.748 Y30.209 E103.76822
G1 X53.636 Y25.652 E104.46905
G1 X56.639 Y21.739 E105.16989
G1 X60.552 Y18.736 E105.87073
G1 X65.109 Y16.848 E106.57156
G1 X70.000 Y16.204 E107.27240
G1 X73.771 Y16.701 E107.81283
M101 ; extruder on
G1 X74.891 Y16.848 E107.97323 F1800.000
G1 X79.448 Y18.736 E108.67407
G1 X83.361 Y21.739 E109.37490
G1 X86.364 Y25.652 E110.07574
G1 X88.252 Y30.209 E110.77657
G1 X88.614 Y32.958 E111.17047
G1 X88.227 Y33.337 F7800.000
G1 X85.626 Y30.199 F7800.000
M101 ; extruder on
G1 X74.901 Y19.474 E113.36036 F1800.000
G1 X73.144 Y19.000 E113.62313
G1 X86.100 Y31.956 E116.26860
G1 X86.295 Y33.433 E116.48377
G1 X71.667 Y18.805 E119.47064
G1 X70.189 Y18.611 E119.68581
G1 X86.489 Y34.911 E123.01410
G1 X86.428 Y36.132 E123.19073
G1 X68.968 Y18.672 E126.75603
G1 X67.834 Y18.821 E126.92113
G1 X86.279 Y37.266 E130.68745
G1 X86.130 Y38.400 E130.85255
G1 X66.700 Y18.970 E134.81989
G1 X65.569 Y19.122 E134.98468
G1 X85.978 Y39.531 E139.15200
G1 X85.602 Y40.438 E139.29378
G1 X79.368 Y34.204 E140.56674
G1 X79.383 Y35.502 E140.75418
G1 X85.226 Y41.345 E141.94733
G1 X84.850 Y42.253 E142.08910
G1 X79.119 Y36.521 E143.25939
G1 X78.685 Y37.370 E143.39704
G1 X84.475 Y43.160 E144.57927
G1 X83.979 Y43.947 E144.71357
G1 X78.119 Y38.087 E145.91004
G1 X77.393 Y38.644 E146.04216
G1 X83.421 Y44.673 E147.27313
G1 X82.864 Y45.398 E147.40525
G1 X76.525 Y39.059 E148.69971
G1 X75.482 Y39.299 E148.85425
G1 X82.307 Y46.124 E150.24798
G1 X81.736 Y46.836 E150.37974
G1 X74.147 Y39.247 E151.92933
G1 X74.199 Y40.582 E152.12217
G1 X81.024 Y47.407 E153.51590
G1 X80.299 Y47.964 E153.64801
G1 X73.959 Y41.625 E154.94247
G1 X73.544 Y42.493 E155.08138
G1 X79.573 Y48.521 E156.31235
G1 X78.847 Y49.079 E156.44447
G1 X72.987 Y43.219 E157.64095
G1 X72.270 Y43.785 E157.77284
G1 X78.060 Y49.575 E158.95507
G1 X77.153 Y49.950 E159.09685
G1 X71.421 Y44.219 E160.26714
G1 X70.402 Y44.483 E160.41914
G1 X76.245 Y50.326 E161.61228
G1 X75.338 Y50.702 E161.75406
G1 X69.104 Y44.468 E163.02703
G1 X65.832 Y41.196 F7800.000
M101 ; extruder on
G1 X63.904 Y39.268 E163.42071 F1800.000
G1 X65.211 Y39.292 E163.60944
G1 X65.817 Y39.898 E163.73317
G1 X60.632 Y35.996 F7800.000
M101 ; extruder on
G1 X54.398 Y29.762 E165.00613 F1800.000
G1 X54.022 Y30.669 E165.14791
G1 X74.431 Y51.078 E169.31523
G1 X73.300 Y51.230 E169.48002
G1 X53.870 Y31.800 E173.44736
G1 X53.721 Y32.934 E173.61246
G1 X72.166 Y51.379 E177.37878
G1 X71.032 Y51.528 E177.54388
G1 X53.572 Y34.068 E181.10918
