; generated by Slic3r 1.2.9 on 2017-09-20 at 19:35:30

; external perimeters extrusion width = 0.50mm
; perimeters extrusion width = 0.58mm
; infill extrusion width = 0.58mm
; solid infill extrusion width = 0.58mm
; top infill extrusion width = 0.58mm

M127
M109 S210 ; set bed temperature
M104 S220 T0 ; set temperature
G28 ; home all axes
G1 Z5 F5000 ; lift nozzle

M73 P0
G1 Z0.500 F7800.000
G1 E-2.00000 F2400.00000
M103 ; extruder off
G1 X19.662 Y34.365 F7800.000
M101 ; extruder on
G1 E0.00000 F2400.00000
G1 X21.837 Y33.504 E0.33242 F1800.000
G1 X23.250 Y33.357 E0.53420
G1 X113.750 Y33.357 E13.39221
G1 X116.056 Y33.754 E13.72463
M101 ; extruder on
G1 X118.096 Y34.900 E14.05704 F1800.000
G1 X119.635 Y36.662 E14.38946
G1 X120.496 Y38.837 E14.72188
G1 X120.643 Y40.250 E14.92366
G1 X120.643 Y74.750 E19.82533
G1 X120.246 Y77.056 E20.15775
G1 X119.100 Y79.096 E20.49017
G1 X117.338 Y80.635 E20.82258
G1 X115.163 Y81.496 E21.15500
G1 X113.750 Y81.643 E21.35678
G1 X23.250 Y81.643 E34.21479
G1 X20.944 Y81.246 E34.54721
G1 X18.904 Y80.100 E34.87963
G1 X17.365 Y78.338 E35.21205
G1 X16.504 Y76.163 E35.54446
G1 X16.357 Y74.750 E35.74624
G1 X16.357 Y40.250 E40.64792
G1 X16.754 Y37.944 E40.98033
G1 X17.900 Y35.904 E41.31275
G1 X19.605 Y34.414 E41.63451
G1 E39.63451 F2400.00000
M103 ; extruder off
G1 X21.558 Y36.261 F7800.000
M101 ; extruder on
G1 E41.63451 F2400.00000
G1 X21.586 Y36.233 E41.64015 F1800.000
G1 X27.482 Y36.233 E42.47785
G1 X28.130 Y36.881 E42.60807
M101 ; extruder on
G1 X28.870 Y36.881 E42.71314 F1800.000
G1 X29.518 Y36.233 E42.84337
G1 X107.482 Y36.233 E53.92033
G1 X108.130 Y36.881 E54.05056
G1 X108.870 Y36.881 E54.15563
G1 X109.518 Y36.233 E54.28585
G1 X115.414 Y36.233 E55.12355
G1 X117.767 Y38.586 E55.59637
G1 X117.767 Y76.414 E60.97087
G1 X115.414 Y78.767 E61.44369
G1 X109.518 Y78.767 E62.28139
G1 X108.870 Y78.119 E62.41161
G1 X108.130 Y78.119 E62.51668
G1 X107.482 Y78.767 E62.64691
G1 X29.518 Y78.767 E73.72387
G1 X28.870 Y78.119 E73.85410
G1 X28.130 Y78.119 E73.95917
G1 X27.482 Y78.767 E74.08939
G1 X21.586 Y78.767 E74.92709
G1 X19.233 Y76.414 E75.39991
G1 X19.233 Y38.586 E80.77441
G1 X21.505 Y36.314 E81.23094
G1 X21.956 Y37.126 F7800.000
M101 ; extruder on
G1 X27.112 Y37.126 E81.96356 F1800.000
M101 ; extruder on
G1 X28.130 Y38.143 E82.16809 F1800.000
G1 X28.870 Y38.143 E82.27316
G1 X29.888 Y37.126 E82.47768
G1 X107.112 Y37.126 E93.44957
G1 X108.130 Y38.143 E93.65409
G1 X108.870 Y38.143 E93.75916
G1 X109.888 Y37.126 E93.96369
G1 X115.044 Y37.126 E94.69631
G1 X116.874 Y38.956 E95.06406
G1 X116.874 Y76.044 E100.33349
G1 X115.044 Y77.874 E100.70124
G1 X109.888 Y77.874 E101.43386
G1 X108.870 Y76.857 E101.63838
G1 X108.130 Y76.857 E101.74346
G1 X107.112 Y77.874 E101.94798
G1 X29.888 Y77.874 E112.91987
G1 X28.870 Y76.857 E113.12439
G1 X28.130 Y76.857 E113.22946
G1 X27.112 Y77.874 E113.43398
G1 X21.956 Y77.874 E114.16661
G1 X20.126 Y76.044 E114.53436
G1 X20.126 Y38.956 E119.80378
G1 X21.903 Y37.179 E120.16088
G1 X22.326 Y38.018 F7800.000
M101 ; extruder on
G1 X26.743 Y38.018 E120.78843 F1800.000
G1 X28.130 Y39.406 E121.06725
M101 ; extruder on
G1 X28.870 Y39.406 E121.17232 F1800.000
G1 X30.257 Y38.018 E121.45114
G1 X106.743 Y38.018 E132.31796
G1 X108.130 Y39.406 E132.59678
G1 X108.870 Y39.406 E132.70185
G1 X110.257 Y38.018 E132.98067
G1 X114.674 Y38.018 E133.60823
G1 X115.982 Y39.326 E133.87090
G1 X115.982 Y75.674 E139.03526
G1 X114.674 Y76.982 E139.29793
G1 X110.257 Y76.982 E139.92549
G1 X108.870 Y75.594 E140.20431
G1 X108.130 Y75.594 E140.30938
G1 X106.743 Y76.982 E140.58820
G1 X30.257 Y76.982 E151.45502
G1 X28.870 Y75.594 E151.73384
G1 X28.130 Y75.594 E151.83891
G1 X26.743 Y76.982 E152.11773
G1 X22.326 Y76.982 E152.74528
G1 X21.018 Y75.674 E153.00796
G1 X21.018 Y39.326 E158.17231
G1 X22.273 Y38.071 E158.42434
G1 X22.695 Y38.911 F7800.000
M101 ; extruder on
G1 X26.373 Y38.911 E158.94682 F1800.000
M101 ; extruder on
G1 X27.157 Y39.695 E159.10443 F1800.000
G1 X27.157 Y41.388 E159.34492
G1 X27.680 Y41.911 E159.44999
G1 X29.320 Y41.911 E159.68296
G1 X29.843 Y41.388 E159.78803
G1 X29.843 Y39.695 E160.02852
G1 X30.627 Y38.911 E160.18613
G1 X106.373 Y38.911 E170.94787
G1 X107.157 Y39.695 E171.10548
G1 X107.157 Y41.388 E171.34597
G1 X107.680 Y41.911 E171.45104
G1 X109.320 Y41.911 E171.68401
G1 X109.843 Y41.388 E171.78908
G1 X109.843 Y39.695 E172.02957
G1 X110.627 Y38.911 E172.18718
G1 X114.305 Y38.911 E172.70966
G1 X115.089 Y39.695 E172.86727
G1 X115.089 Y75.305 E177.92655
G1 X114.305 Y76.089 E178.08416
G1 X110.627 Y76.089 E178.60664
G1 X109.843 Y75.305 E178.76425
G1 X109.843 Y73.612 E179.00474
G1 X109.320 Y73.089 E179.10981
G1 X107.680 Y73.089 E179.34278
G1 X107.157 Y73.612 E179.44785
G1 X107.157 Y75.305 E179.68834
G1 X106.373 Y76.089 E179.84595
G1 X30.627 Y76.089 E190.60769
G1 X29.843 Y75.305 E190.76530
G1 X29.843 Y73.612 E191.00579
G1 X29.320 Y73.089 E191.11086
G1 X27.680 Y73.089 E191.34383
G1 X27.157 Y73.612 E191.44890
G1 X27.157 Y75.305 E191.68940
G1 X26.373 Y76.089 E191.84700
G1 X22.695 Y76.089 E192.36949
G1 X21.911 Y75.305 E192.52709
G1 X21.911 Y39.695 E197.58637
G1 X22.642 Y38.964 E197.73332
G1 E195.73332 F2400.00000
M103 ; extruder off
G1 X26.264 Y40.065 F7800.000
M101 ; extruder on
G1 E197.73332 F2400.00000
G1 X26.264 Y42.281 E198.04811 F1800.000
G1 X26.787 Y42.804 E198.15318
G1 X30.213 Y42.804 E198.63982
G1 X30.735 Y42.281 E198.74489
G1 X30.735 Y40.065 E199.05968
G1 X30.997 Y39.804 E199.11221
G1 X106.003 Y39.804 E209.76888
G1 X106.264 Y40.065 E209.82142
G1 X106.264 Y42.281 E210.13621
G1 X106.787 Y42.804 E210.24128
G1 X110.213 Y42.804 E210.72792
G1 X110.736 Y42.281 E210.83299
G1 X110.736 Y40.065 E211.14777
G1 X110.997 Y39.804 E211.20031
G1 X113.935 Y39.804 E211.61772
G1 X114.196 Y40.065 E211.67026
G1 X114.196 Y74.935 E216.62447
G1 X113.935 Y75.196 E216.67700
G1 X110.997 Y75.196 E217.09441
G1 X110.736 Y74.935 E217.14695
G1 X110.736 Y72.719 E217.46174
G1 X110.213 Y72.196 E217.56681
G1 X106.787 Y72.196 E218.05344
G1 X106.264 Y72.719 E218.15852
G1 X106.264 Y74.935 E218.47330
G1 X106.003 Y75.196 E218.52584
G1 X30.997 Y75.196 E229.18251
G1 X30.735 Y74.935 E229.23505
G1 X30.735 Y72.719 E229.54983
G1 X30.213 Y72.196 E229.65490
G1 X26.787 Y72.196 E230.14154
G1 X26.264 Y72.719 E230.24661
G1 X26.264 Y74.935 E230.56140
G1 X26.003 Y75.196 E230.61393
G1 X23.065 Y75.196 E231.03135
G1 X22.804 Y74.935 E231.08388
G1 X22.804 Y40.065 E236.03809
G1 X23.065 Y39.804 E236.09063
G1 X26.003 Y39.804 E236.50804
G1 X26.211 Y40.012 E236.54992
G1 E234.54992 F2400.00000
M103 ; extruder off
G1 X31.682 Y71.250 F7800.000
M101 ; extruder on
G1 E236.54992 F2400.00000
G1 X25.318 Y71.250 E237.45406 F1800.000
G1 X25.318 Y74.250 E237.88029
G1 X23.750 Y74.250 E238.10309
G1 X23.750 Y40.750 E242.86268
G1 X25.318 Y40.750 E243.08548
G1 X25.318 Y43.750 E243.51171
G1 X31.682 Y43.750 E244.41585
G1 X31.682 Y40.750 E244.84208
G1 X105.318 Y40.750 E255.30414
G1 X105.318 Y43.750 E255.73037
G1 X111.682 Y43.750 E256.63452
G1 X111.682 Y40.750 E257.06075
G1 X113.250 Y40.750 E257.28355
G1 X113.250 Y74.250 E262.04314
G1 X111.682 Y74.250 E262.26594
G1 X111.682 Y71.250 E262.69217
G1 X105.318 Y71.250 E263.59631
G1 X105.318 Y74.250 E264.02254
G1 X31.682 Y74.250 E274.48460
G1 X31.682 Y71.325 E274.90018
G1 X31.682 Y70.750 F7800.000
G1 X32.182 Y70.750 F7800.000
G1 X32.182 Y70.550 F7800.000
G1 X27.612 Y70.350 F7800.000
G1 X27.612 Y44.650 F7800.000
G1 X32.182 Y44.450 F7800.000
G1 X32.582 Y44.250 F7800.000
G1 X32.575 Y44.257 F7800.000
M101 ; extruder on
G1 X32.575 Y41.643 E275.27165 F1800.000
G1 X104.425 Y41.643 E285.48005
G1 X104.425 Y44.257 E285.85152
G1 X32.650 Y44.257 E296.04926
G1 X33.467 Y43.365 F7800.000
M101 ; extruder on
G1 X33.467 Y42.535 E296.16707 F1800.000
G1 X103.533 Y42.535 E306.12180
G1 X103.533 Y43.365 E306.23961
G1 X33.542 Y43.365 E316.18368
G1 X109.405 Y44.643 F7800.000
M101 ; extruder on
G1 X112.357 Y44.643 E316.60311 F1800.000
G1 X112.357 Y70.357 E320.25658
G1 X109.405 Y70.357 E320.67600
G1 X109.405 Y44.718 E324.31881
G1 X110.298 Y45.535 F7800.000
M101 ; extruder on
G1 X111.465 Y45.535 E324.48458 F1800.000
G1 X111.465 Y69.465 E327.88438
G1 X110.298 Y69.465 E328.05014
G1 X110.298 Y45.610 E331.43928
G1 X109.413 Y70.350 F7800.000
G1 X104.818 Y70.550 F7800.000
G1 X104.418 Y70.750 F7800.000
G1 X104.425 Y70.743 F7800.000
M101 ; extruder on
G1 X104.425 Y73.357 E331.81076 F1800.000
G1 X32.575 Y73.357 E342.01915
G1 X32.575 Y70.743 E342.39063
G1 X104.350 Y70.743 E352.58837
G1 X103.533 Y71.635 F7800.000
M101 ; extruder on
G1 X103.533 Y72.465 E352.70618 F1800.000
G1 X33.467 Y72.465 E362.66090
G1 X33.467 Y71.635 E362.77872
G1 X103.458 Y71.635 E372.72279
G1 X27.620 Y70.357 F7800.000
M101 ; extruder on
G1 X24.643 Y70.357 E373.14577 F1800.000
G1 X24.643 Y44.643 E376.79923
G1 X27.620 Y44.643 E377.22221
G1 X27.620 Y70.282 E380.86502
G1 X26.727 Y69.465 F7800.000
M101 ; extruder on
G1 X25.535 Y69.465 E381.03433 F1800.000
G1 X25.535 Y45.535 E384.43413
G1 X26.727 Y45.535 E384.60345
G1 X26.727 Y69.390 E387.99259
G1 X28.512 Y69.850 F7800.000
M101 ; extruder on
G1 X28.512 Y45.150 E391.50191 F1800.000
G1 X108.512 Y45.150 E402.86810
G1 X108.512 Y69.850 E406.37742
G1 X28.587 Y69.850 E417.73296
G1 X28.012 Y69.850 F7800.000
G1 E415.73296 F2400.00000
M103 ; extruder off
G1 X31.182 Y71.750 F7800.000
G1 X31.182 Y71.750 F7800.000
G1 X36.600 Y64.300 F7800.000
M101 ; extruder on
G1 E417.73296 F2400.00000
G1 X36.600 Y50.700 E419.66521 F1800.000
G1 X100.600 Y50.700 E428.75817
G1 X100.600 Y64.300 E430.69042
G1 X36.675 Y64.300 E439.77273
G1 X36.850 Y63.867 F7800.000
G1 X37.493 Y63.407 F7800.000
M101 ; extruder on
G1 X37.493 Y51.593 E441.45132 F1800.000
G1 X99.707 Y51.593 E450.29061
G1 X99.707 Y63.407 E451.96920
G1 X37.568 Y63.407 E460.79783
G1 X38.385 Y62.515 F7800.000
M101 ; extruder on
G1 X38.385 Y52.485 E462.22276 F1800.000
G1 X98.815 Y52.485 E470.80839
G1 X98.815 Y62.515 E472.23331
G1 X38.460 Y62.515 E480.80828
G1 X39.354 Y61.965 F7800.000
M101 ; extruder on
G1 X38.935 Y61.546 E480.89306 F1800.000
G1 X38.935 Y60.274 E481.07519
G1 X40.626 Y61.965 E481.41754
G1 X41.898 Y61.965 E481.59966
G1 X38.935 Y59.002 E482.19957
G1 X38.935 Y57.730 E482.38170
G1 X43.170 Y61.965 E483.23918
G1 X44.442 Y61.965 E483.42131
G1 X38.935 Y56.458 E484.53635
G1 X38.935 Y55.186 E484.71848
G1 X45.714 Y61.965 E486.09109
G1 X46.986 Y61.965 E486.27321
G1 X38.935 Y53.914 E487.90339
G1 X39.328 Y53.035 E488.04123
G1 X48.259 Y61.965 E489.84934
G1 X49.531 Y61.965 E490.03147
G1 X40.600 Y53.035 E491.83958
G1 X41.872 Y53.035 E492.02171
G1 X50.803 Y61.965 E493.82982
G1 X52.075 Y61.965 E494.01195
G1 X43.145 Y53.035 E495.82006
G1 X44.417 Y53.035 E496.00218
G1 X53.347 Y61.965 E497.81029
G1 X54.619 Y61.965 E497.99242
G1 X45.689 Y53.035 E499.80053
G1 X46.961 Y53.035 E499.98266
G1 X55.891 Y61.965 E501.79077
G1 X57.163 Y61.965 E501.97289
G1 X48.233 Y53.035 E503.78100
G1 X49.505 Y53.035 E503.96313
G1 X58.436 Y61.965 E505.77124
G1 X59.708 Y61.965 E505.95337
G1 X50.777 Y53.035 E507.76148
G1 X52.049 Y53.035 E507.94360
G1 X60.980 Y61.965 E509.75171
G1 X62.252 Y61.965 E509.93384
G1 X53.322 Y53.035 E511.74195
G1 X54.594 Y53.035 E511.92408
G1 X63.524 Y61.965 E513.73219
G1 X64.796 Y61.965 E513.91432
G1 X55.866 Y53.035 E515.72243
G1 X57.138 Y53.035 E515.90455
G1 X66.068 Y61.965 E517.71266
G1 X67.341 Y61.965 E517.89479
G1 X58.410 Y53.035 E519.70290
G1 X59.682 Y53.035 E519.88503
G1 X68.613 Y61.965 E521.69314
G1 X69.885 Y61.965 E521.87526
G1 X60.954 Y53.035 E523.68337
G1 X62.227 Y53.035 E523.86550
G1 X71.157 Y61.965 E525.67361
G1 X72.429 Y61.965 E525.85574
G1 X63.499 Y53.035 E527.66385
G1 X64.771 Y53.035 E527.84597
G1 X73.701 Y61.965 E529.65408
G1 X74.973 Y61.965 E529.83621
G1 X66.043 Y53.035 E531.64432
G1 X67.315 Y53.035 E531.82645
G1 X76.246 Y61.965 E533.63456
G1 X77.518 Y61.965 E533.81669
G1 X68.587 Y53.035 E535.62480
G1 X69.859 Y53.035 E535.80692
G1 X78.790 Y61.965 E537.61503
G1 X80.062 Y61.965 E537.79716
G1 X71.132 Y53.035 E539.60527
G1 X72.404 Y53.035 E539.78740
G1 X81.334 Y61.965 E541.59551
G1 X82.606 Y61.965 E541.77763
G1 X73.676 Y53.035 E543.58574
G1 X74.948 Y53.035 E543.76787
G1 X83.878 Y61.965 E545.57598
G1 X85.151 Y61.965 E545.75811
G1 X76.220 Y53.035 E547.56622
G1 X77.492 Y53.035 E547.74834
G1 X86.423 Y61.965 E549.55645
G1 X87.695 Y61.965 E549.73858
G1 X78.764 Y53.035 E551.54669
G1 X80.037 Y53.035 E551.72882
G1 X88.967 Y61.965 E553.53693
G1 X90.239 Y61.965 E553.71906
G1 X81.309 Y53.035 E555.52717
G1 X82.581 Y53.035 E555.70929
G1 X91.511 Y61.965 E557.51740
G1 X92.783 Y61.965 E557.69953
G1 X83.853 Y53.035 E559.50764
G1 X85.125 Y53.035 E559.68977
G1 X94.055 Y61.965 E561.49788
G1 X95.328 Y61.965 E561.68000
G1 X86.397 Y53.035 E563.48811
G1 X87.669 Y53.035 E563.67024
G1 X96.600 Y61.965 E565.47835
G1 X97.872 Y61.965 E565.66048
G1 X88.941 Y53.035 E567.46859
G1 X90.214 Y53.035 E567.65071
G1 X98.265 Y61.086 E569.28089
G1 X98.265 Y59.814 E569.46302
G1 X91.486 Y53.035 E570.83563
G1 X92.758 Y53.035 E571.01776
G1 X98.265 Y58.542 E572.13280
G1 X98.265 Y57.270 E572.31493
G1 X94.030 Y53.035 E573.17241
G1 X95.302 Y53.035 E573.35453
G1 X98.265 Y55.998 E573.95445
G1 X98.265 Y54.726 E574.13657
G1 X96.574 Y53.035 E574.47892
G1 X97.846 Y53.035 E574.66105
G1 X98.265 Y53.454 E574.74583
G1 E572.74583 F2400.00000
M103 ; extruder off
G1 X105.818 Y43.250 F7800.000
G1 X105.818 Y43.250 F7800.000
G1 X104.872 Y44.450 F7800.000
M101 ; extruder on
G1 E574.74583 F2400.00000
G1 X108.959 Y44.450 E575.32650 F1800.000
G1 X110.881 Y45.982 F7800.000
M101 ; extruder on
G1 X110.881 Y69.018 E578.59947 F1800.000
G1 X112.466 Y70.804 F7800.000
M101 ; extruder on
G1 X112.466 Y73.804 E579.50317 F1800.000
G1 X112.182 Y73.750 F7800.000
G1 X112.182 Y70.182 F7800.000
G1 X109.413 Y70.350 F7800.000
G1 X109.012 Y70.550 F7800.000
G1 X108.959 Y70.550 F7800.000
M101 ; extruder on
G1 X104.872 Y70.550 E580.08384 F1800.000
G1 X109.413 Y70.350 F7800.000
G1 X110.881 Y46.119 F7800.000
G1 X112.182 Y44.818 F7800.000
G1 X112.466 Y44.250 F7800.000
G1 X112.466 Y44.196 F7800.000
M101 ; extruder on
G1 X112.466 Y41.196 E580.98754 F1800.000
G1 E578.98754 F2400.00000
M103 ; extruder off
G1 X104.818 Y41.250 F7800.000
G1 X33.882 Y42.950 F7800.000
G1 X32.582 Y44.250 F7800.000
G1 X32.182 Y44.450 F7800.000
G1 X32.128 Y44.450 F7800.000
M101 ; extruder on
G1 E580.98754 F2400.00000
G1 X28.066 Y44.450 E581.56466 F1800.000
G1 X26.131 Y45.982 F7800.000
M101 ; extruder on
G1 X26.131 Y69.018 E584.83763 F1800.000
G1 X24.534 Y70.804 F7800.000
M101 ; extruder on
G1 X24.534 Y73.804 E585.74132 F1800.000
G1 X24.818 Y73.750 F7800.000
G1 X24.818 Y70.182 F7800.000
G1 X27.612 Y70.350 F7800.000
G1 X28.013 Y70.550 F7800.000
G1 X28.066 Y70.550 F7800.000
M101 ; extruder on
G1 X32.128 Y70.550 E586.31844 F1800.000
G1 X27.612 Y70.350 F7800.000
G1 X26.131 Y46.131 F7800.000
G1 X24.818 Y44.818 F7800.000
G1 X24.534 Y44.250 F7800.000
G1 X24.534 Y44.196 F7800.000
M101 ; extruder on
G1 X24.534 Y41.196 E587.22214 F1800.000
M73 P0
G1 Z0.900 F7800.000
G1 X28.742 Y70.273 F7800.000
M101 ; extruder on
G1 X28.742 Y44.727 E588.81881 F3600.000
G1 X108.328 Y44.727 E593.79299
G1 X108.328 Y70.273 E595.38966
G1 X28.817 Y70.273 E600.35915
G1 X29.232 Y69.783 F7800.000
M101 ; extruder on
G1 X29.232 Y45.217 E601.89446 F3600.000
G1 X107.838 Y45.217 E606.80727
G1 X107.838 Y69.783 E608.34259
G1 X29.307 Y69.783 E613.25072
G1 X29.685 Y69.330 F7800.000
M101 ; extruder on
G1 X29.685 Y69.100 E613.26284 F1800.000
M101 ; extruder on
G1 X29.685 Y45.900 E614.71284 F3600.000
M101 ; extruder on
G1 X29.685 Y45.670 E614.72497 F1800.000
G1 X107.385 Y45.670 E618.82228
G1 X107.385 Y45.900 E618.83441
M101 ; extruder on
G1 X107.385 Y69.100 E620.28441 F3600.000
M101 ; extruder on
G1 X107.385 Y69.330 E620.29654 F1800.000
G1 X29.760 Y69.330 E624.38989
G1 X29.455 Y69.330 F7800.000
G1 E622.38989 F2400.00000
M103 ; extruder off
G1 X31.925 Y71.007 F7800.000
M101 ; extruder on
G1 E624.38989 F2400.00000
G1 X25.075 Y71.007 E624.81804 F3600.000
G1 X25.075 Y74.007 E625.00554
G1 X23.993 Y74.007 E625.07313
G1 X23.993 Y40.993 E627.13646
G1 X25.075 Y40.993 E627.20404
G1 X25.075 Y43.993 E627.39154
G1 X31.925 Y43.993 E627.81970
G1 X31.925 Y40.993 E628.00720
