; generated by Slic3r 1.2.9 on 2017-09-18 at 18:50:57

; external perimeters extrusion width = 0.50mm
; perimeters extrusion width = 0.58mm
; infill extrusion width = 0.58mm
; solid infill extrusion width = 0.58mm
; top infill extrusion width = 0.58mm

M127
M109 S220 ; set bed temperature
M104 S220 T0 ; set temperature
G28 ; home all axes
G1 Z5 F5000 ; lift nozzle

M73 P0
G1 Z0.500 F7800.000
G1 E-2.00000 F2400.00000
M103 ; extruder off
G1 X44.705 Y44.704 F7800.000
M101 ; extruder on
G1 E0.00000 F2400.00000
G1 X44.950 Y44.459 E0.04941 F1800.000
G1 X47.169 Y42.757 E0.44664
G1 X48.727 Y41.857 E0.70227
G1 X51.310 Y40.787 E1.09952
G1 X53.048 Y40.321 E1.35517
G1 X55.820 Y39.956 E1.75240
G1 X56.720 Y39.897 E1.88050
G1 X83.280 Y39.897 E5.65419
G1 X84.180 Y39.956 E5.78229
M101 ; extruder on
G1 X86.952 Y40.321 E6.17951 F1800.000
G1 X88.690 Y40.787 E6.43515
G1 X91.273 Y41.857 E6.83239
G1 X92.831 Y42.757 E7.08804
G1 X95.050 Y44.459 E7.48528
G1 X96.322 Y45.731 E7.74093
G1 X98.024 Y47.949 E8.13816
G1 X98.923 Y49.507 E8.39377
G1 X99.993 Y52.090 E8.79101
G1 X100.459 Y53.828 E9.04669
G1 X100.824 Y56.600 E9.44392
G1 X100.824 Y58.400 E9.69954
G1 X100.459 Y61.172 E10.09677
G1 X99.993 Y62.910 E10.35245
G1 X98.923 Y65.493 E10.74969
G1 X98.024 Y67.051 E11.00531
G1 X96.322 Y69.269 E11.40254
G1 X95.050 Y70.541 E11.65819
G1 X92.831 Y72.243 E12.05542
G1 X91.273 Y73.143 E12.31108
G1 X88.690 Y74.213 E12.70832
G1 X86.952 Y74.679 E12.96395
G1 X84.180 Y75.044 E13.36117
G1 X83.280 Y75.103 E13.48928
G1 X56.720 Y75.103 E17.26297
G1 X55.820 Y75.044 E17.39107
G1 X53.048 Y74.679 E17.78830
G1 X51.310 Y74.213 E18.04394
G1 X48.727 Y73.143 E18.44117
G1 X47.169 Y72.243 E18.69682
G1 X44.950 Y70.541 E19.09405
G1 X43.678 Y69.269 E19.34970
G1 X41.976 Y67.051 E19.74693
G1 X41.076 Y65.493 E20.00257
G1 X40.007 Y62.910 E20.39981
G1 X39.541 Y61.172 E20.65545
G1 X39.176 Y58.400 E21.05271
G1 X39.176 Y56.601 E21.30831
G1 X39.541 Y53.828 E21.70557
G1 X40.007 Y52.090 E21.96121
G1 X41.076 Y49.507 E22.35844
G1 X41.976 Y47.949 E22.61409
G1 X43.678 Y45.731 E23.01132
G1 X44.652 Y44.757 E23.20690
G1 E21.20690 F2400.00000
M103 ; extruder off
G1 X60.253 Y61.034 F7800.000
M101 ; extruder on
G1 E23.20690 F2400.00000
G1 X59.218 Y61.828 E23.39226 F1800.000
G1 X58.013 Y62.327 E23.57763
G1 X56.720 Y62.498 E23.76299
G1 X55.426 Y62.327 E23.94835
G1 X54.221 Y61.828 E24.13372
G1 X53.186 Y61.034 E24.31908
G1 X52.391 Y59.999 E24.50444
G1 X51.892 Y58.793 E24.68980
G1 X51.722 Y57.500 E24.87516
G1 X51.892 Y56.206 E25.06053
G1 X52.391 Y55.001 E25.24589
G1 X53.117 Y54.056 E25.41521
G1 X54.255 Y52.990 E25.63672
M101 ; extruder on
G1 X59.184 Y52.990 E26.33692 F1800.000
G1 X60.322 Y54.056 E26.55843
G1 X61.048 Y55.001 E26.72775
G1 X61.547 Y56.206 E26.91312
G1 X61.717 Y57.500 E27.09848
G1 X61.547 Y58.793 E27.28384
G1 X61.048 Y59.999 E27.46921
G1 X60.299 Y60.974 E27.64391
G1 X59.617 Y60.397 F7800.000
M101 ; extruder on
G1 X58.768 Y61.048 E27.79588 F1800.000
G1 X57.780 Y61.458 E27.94785
G1 X56.720 Y61.597 E28.09981
G1 X55.659 Y61.458 E28.25178
G1 X54.671 Y61.048 E28.40375
G1 X53.822 Y60.397 E28.55571
G1 X53.171 Y59.549 E28.70768
G1 X52.762 Y58.560 E28.85965
G1 X52.622 Y57.500 E29.01161
G1 X52.762 Y56.440 E29.16358
G1 X53.171 Y55.451 E29.31555
G1 X53.781 Y54.657 E29.45774
G1 X54.608 Y53.883 E29.61874
M101 ; extruder on
G1 X58.831 Y53.883 E30.21877 F1800.000
G1 X59.659 Y54.657 E30.37977
G1 X60.268 Y55.451 E30.52196
G1 X60.677 Y56.440 E30.67393
G1 X60.817 Y57.500 E30.82589
G1 X60.677 Y58.560 E30.97786
G1 X60.268 Y59.549 E31.12983
G1 X59.662 Y60.338 E31.27114
G1 X58.980 Y59.761 F7800.000
M101 ; extruder on
G1 X58.318 Y60.269 E31.38970 F1800.000
G1 X57.547 Y60.588 E31.50828
G1 X56.720 Y60.697 E31.62685
G1 X55.892 Y60.588 E31.74542
G1 X55.121 Y60.269 E31.86399
G1 X54.459 Y59.761 E31.98256
G1 X53.951 Y59.098 E32.10113
G1 X53.632 Y58.327 E32.21971
G1 X53.523 Y57.500 E32.33827
G1 X53.632 Y56.673 E32.45685
G1 X53.951 Y55.902 E32.57542
G1 X54.444 Y55.259 E32.69048
G1 X54.960 Y54.776 E32.79096
M101 ; extruder on
G1 X58.479 Y54.776 E33.29083 F1800.000
G1 X58.995 Y55.259 E33.39131
G1 X59.488 Y55.902 E33.50637
G1 X59.808 Y56.673 E33.62494
G1 X59.916 Y57.500 E33.74352
G1 X59.808 Y58.327 E33.86208
G1 X59.488 Y59.098 E33.98066
G1 X59.026 Y59.701 E34.08857
G1 X59.088 Y60.249 F7800.000
G1 X82.782 Y57.500 F7800.000
M101 ; extruder on
G1 X82.916 Y56.484 E34.23412 F1800.000
G1 X83.308 Y55.538 E34.37968
G1 X83.932 Y54.725 E34.52527
G1 X84.744 Y54.101 E34.67080
G1 X85.691 Y53.709 E34.81635
G1 X86.064 Y53.660 E34.86983
M101 ; extruder on
G1 X86.707 Y53.575 E34.96191 F1800.000
G1 X87.722 Y53.709 E35.10748
G1 X88.669 Y54.101 E35.25304
G1 X89.482 Y54.725 E35.39860
G1 X90.105 Y55.538 E35.54414
G1 X90.497 Y56.484 E35.68968
G1 X90.631 Y57.500 E35.83526
G1 X90.497 Y58.516 E35.98084
G1 X90.105 Y59.462 E36.12637
G1 X89.482 Y60.275 E36.27192
G1 X88.669 Y60.898 E36.41749
G1 X87.722 Y61.291 E36.56303
G1 X86.707 Y61.424 E36.70861
G1 X85.691 Y61.291 E36.85417
G1 X84.744 Y60.898 E36.99971
G1 X83.932 Y60.275 E37.14525
G1 X83.308 Y59.462 E37.29084
G1 X82.916 Y58.515 E37.43640
G1 X82.792 Y57.574 E37.57129
G1 X83.683 Y57.500 F7800.000
M101 ; extruder on
G1 X83.786 Y56.717 E37.68344 F1800.000
G1 X84.088 Y55.988 E37.79561
G1 X84.568 Y55.361 E37.90779
G1 X85.195 Y54.881 E38.01993
G1 X85.924 Y54.579 E38.13209
G1 X86.181 Y54.545 E38.16887
M101 ; extruder on
G1 X86.707 Y54.476 E38.24425 F1800.000
G1 X87.489 Y54.579 E38.35643
G1 X88.219 Y54.881 E38.46858
G1 X88.845 Y55.361 E38.58075
G1 X89.326 Y55.988 E38.69290
G1 X89.628 Y56.717 E38.80505
G1 X89.731 Y57.500 E38.91723
G1 X89.628 Y58.283 E39.02940
G1 X89.326 Y59.012 E39.14155
G1 X88.845 Y59.638 E39.25370
G1 X88.219 Y60.119 E39.36587
G1 X87.489 Y60.421 E39.47802
G1 X86.707 Y60.524 E39.59020
G1 X85.924 Y60.421 E39.70237
G1 X85.195 Y60.119 E39.81452
G1 X84.568 Y59.638 E39.92667
G1 X84.088 Y59.012 E40.03885
G1 X83.786 Y58.282 E40.15101
G1 X83.692 Y57.574 E40.25251
G1 X84.583 Y57.500 F7800.000
M101 ; extruder on
G1 X84.655 Y56.950 E40.33127 F1800.000
G1 X84.867 Y56.438 E40.41004
G1 X85.205 Y55.998 E40.48881
G1 X85.645 Y55.661 E40.56757
G1 X86.157 Y55.448 E40.64633
G1 X86.297 Y55.430 E40.66641
M101 ; extruder on
G1 X86.707 Y55.376 E40.72510 F1800.000
G1 X87.256 Y55.448 E40.80388
G1 X87.768 Y55.661 E40.88264
G1 X88.208 Y55.998 E40.96141
G1 X88.546 Y56.438 E41.04017
G1 X88.758 Y56.950 E41.11893
G1 X88.830 Y57.500 E41.19770
G1 X88.758 Y58.049 E41.27647
G1 X88.546 Y58.562 E41.35523
G1 X88.208 Y59.001 E41.43399
G1 X87.768 Y59.339 E41.51276
G1 X87.256 Y59.551 E41.59152
G1 X86.707 Y59.623 E41.67030
G1 X86.157 Y59.551 E41.74907
G1 X85.645 Y59.339 E41.82782
G1 X85.205 Y59.001 E41.90659
G1 X84.867 Y58.562 E41.98536
G1 X84.655 Y58.049 E42.06413
G1 X84.593 Y57.574 E42.13223
G1 X84.161 Y57.231 F7800.000
G1 E40.13223 F2400.00000
M103 ; extruder off
G1 X89.245 Y56.820 F7800.000
G1 X89.245 Y56.820 F7800.000
G1 X91.038 Y56.583 F7800.000
G1 X91.564 Y56.581 F7800.000
M101 ; extruder on
G1 E42.13223 F2400.00000
G1 X91.685 Y57.500 E42.26396 F1800.000
G1 X91.399 Y59.675 E42.57569
G1 X90.559 Y61.702 E42.88743
G1 X89.224 Y63.443 E43.19917
G1 X87.483 Y64.779 E43.51090
G1 X85.456 Y65.618 E43.82264
G1 X83.131 Y65.925 E44.15583
G1 X56.869 Y65.925 E47.88696
G1 X54.544 Y65.618 E48.22016
G1 X52.517 Y64.779 E48.53189
G1 X50.776 Y63.443 E48.84363
G1 X49.441 Y61.702 E49.15536
G1 X48.602 Y59.678 E49.46663
G1 X48.318 Y57.472 E49.78262
G1 X48.601 Y55.325 E50.09041
G1 X49.441 Y53.298 E50.40215
G1 X50.776 Y51.557 E50.71388
G1 X52.517 Y50.221 E51.02562
G1 X54.544 Y49.382 E51.33735
G1 X56.869 Y49.075 E51.67055
G1 X83.131 Y49.075 E55.40168
G1 X85.456 Y49.382 E55.73487
M101 ; extruder on
G1 X87.483 Y50.221 E56.04661 F1800.000
G1 X89.224 Y51.557 E56.35834
G1 X90.559 Y53.298 E56.67008
G1 X91.399 Y55.325 E56.98182
G1 X91.554 Y56.506 E57.15117
G1 X92.449 Y56.464 F7800.000
M101 ; extruder on
G1 X92.586 Y57.500 E57.29959 F1800.000
G1 X92.269 Y59.908 E57.64472
G1 X91.339 Y62.153 E57.98985
G1 X89.860 Y64.080 E58.33498
G1 X87.933 Y65.559 E58.68011
G1 X85.689 Y66.488 E59.02524
G1 X83.189 Y66.817 E59.38345
G1 X56.811 Y66.817 E63.13120
G1 X54.311 Y66.488 E63.48941
G1 X52.067 Y65.559 E63.83454
G1 X50.140 Y64.080 E64.17967
G1 X48.661 Y62.153 E64.52480
G1 X47.732 Y59.910 E64.86965
G1 X47.418 Y57.471 E65.21904
G1 X47.731 Y55.092 E65.56004
G1 X48.661 Y52.847 E65.90517
G1 X50.140 Y50.920 E66.25030
G1 X52.067 Y49.441 E66.59543
G1 X54.311 Y48.512 E66.94056
G1 X56.811 Y48.183 E67.29877
G1 X83.189 Y48.183 E71.04652
G1 X85.640 Y48.505 E71.39768
M101 ; extruder on
G1 X85.689 Y48.512 E71.40473 F1800.000
G1 X87.933 Y49.441 E71.74987
G1 X89.860 Y50.920 E72.09499
G1 X91.339 Y52.847 E72.44012
G1 X92.269 Y55.092 E72.78526
G1 X92.440 Y56.390 E72.97131
G1 X93.334 Y56.348 F7800.000
M101 ; extruder on
G1 X93.486 Y57.500 E73.13642 F1800.000
G1 X93.138 Y60.141 E73.51495
G1 X92.119 Y62.603 E73.89348
G1 X90.497 Y64.717 E74.27200
G1 X88.383 Y66.338 E74.65053
G1 X85.922 Y67.358 E75.02906
G1 X83.248 Y67.710 E75.41227
G1 X56.752 Y67.710 E79.17665
G1 X54.078 Y67.358 E79.55987
G1 X51.617 Y66.338 E79.93840
G1 X49.503 Y64.717 E80.31693
G1 X47.881 Y62.603 E80.69545
G1 X46.862 Y60.142 E81.07387
G1 X46.518 Y57.470 E81.45666
G1 X46.862 Y54.859 E81.83088
G1 X47.881 Y52.397 E82.20940
G1 X49.503 Y50.283 E82.58793
G1 X51.617 Y48.662 E82.96645
G1 X54.078 Y47.642 E83.34498
G1 X56.752 Y47.290 E83.72820
G1 X83.248 Y47.290 E87.49258
G1 X85.756 Y47.620 E87.85205
M101 ; extruder on
G1 X85.922 Y47.642 E87.87580 F1800.000
G1 X88.383 Y48.662 E88.25433
G1 X90.497 Y50.283 E88.63285
G1 X92.119 Y52.397 E89.01138
G1 X93.138 Y54.859 E89.38990
G1 X93.325 Y56.273 E89.59265
G1 X92.938 Y56.652 F7800.000
G1 X89.336 Y53.350 F7800.000
M101 ; extruder on
G1 X89.751 Y53.764 E89.67588 F1800.000
G1 X90.022 Y54.118 E89.73914
G1 X90.673 Y55.239 E89.92334
G1 X90.777 Y55.491 E89.96214
G1 X91.004 Y56.338 E90.08664
G1 X91.158 Y57.500 E90.25322
G1 X91.004 Y58.662 E90.41974
G1 X90.777 Y59.509 E90.54430
G1 X90.673 Y59.761 E90.58304
G1 X90.022 Y60.882 E90.76726
G1 X89.751 Y61.236 E90.83056
G1 X89.337 Y61.649 E90.91367
G1 X88.107 Y61.663 F7800.000
M101 ; extruder on
G1 X89.174 Y62.730 E91.12897 F1800.000
G1 X88.544 Y63.368 E91.25684
G1 X87.082 Y61.906 E91.55185
G1 X85.793 Y61.885 E91.73570
G1 X87.827 Y63.918 E92.14599
G1 X87.062 Y64.421 E92.27656
G1 X83.378 Y60.737 E93.01987
G1 X83.470 Y60.829 F7800.000
M101 ; extruder on
G1 X72.266 Y49.625 E95.28024 F1800.000
G1 X70.998 Y49.625 E95.46107
G1 X86.166 Y64.793 E98.52108
G1 X85.224 Y65.118 F7800.000
M101 ; extruder on
G1 X69.730 Y49.625 E101.64678 F1800.000
G1 X55.896 Y49.734 F7800.000
M101 ; extruder on
G1 X58.603 Y52.441 E102.19284 F1800.000
G1 X57.335 Y52.441 E102.37367
G1 X54.776 Y49.882 E102.88998
G1 X53.834 Y50.207 E103.03216
G1 X56.068 Y52.441 E103.48278
G1 X54.800 Y52.441 E103.66361
G1 X52.938 Y50.579 E104.03933
G1 X52.173 Y51.082 E104.16989
G1 X53.833 Y52.741 E104.50465
G1 X53.178 Y53.354 E104.63259
G1 X51.456 Y51.632 E104.97994
G1 X50.826 Y52.270 E105.10781
G1 X52.560 Y54.004 E105.45767
G1 X52.010 Y54.721 E105.58664
G1 X50.276 Y52.987 E105.93650
G1 X49.781 Y53.760 E106.06741
G1 X51.614 Y55.593 E106.43728
G1 X51.315 Y56.561 E106.58182
G1 X49.410 Y54.656 E106.96611
G1 X49.095 Y55.609 E107.10922
G1 X51.167 Y57.681 E107.52736
G1 X51.357 Y59.138 E107.73700
G1 X48.947 Y56.729 E108.22317
G1 X48.968 Y58.018 E108.40706
G1 X56.208 Y65.257 E109.86752
G1 X57.594 Y65.375 E110.06597
G1 X55.081 Y62.863 E110.57286
G1 X56.538 Y63.052 E110.78251
G1 X58.861 Y65.375 E111.25112
G1 X60.129 Y65.375 E111.43195
G1 X57.659 Y62.905 E111.93032
G1 X58.626 Y62.605 E112.07486
G1 X61.396 Y65.375 E112.63370
G1 X62.664 Y65.375 E112.81453
G1 X59.499 Y62.210 E113.45315
G1 X60.216 Y61.659 E113.58212
G1 X63.932 Y65.375 E114.33177
G1 X65.199 Y65.375 E114.51260
G1 X60.853 Y61.029 E115.38934
G1 X61.404 Y60.312 E115.51831
G1 X66.467 Y65.375 E116.53974
G1 X67.734 Y65.375 E116.72057
G1 X61.808 Y59.448 E117.91628
G1 X62.118 Y58.491 E118.05986
G1 X69.002 Y65.375 E119.44873
G1 X70.270 Y65.375 E119.62956
G1 X62.265 Y57.371 E121.24442
G1 X62.091 Y55.929 E121.45155
G1 X71.537 Y65.375 E123.35723
G1 X72.805 Y65.375 E123.53806
G1 X57.054 Y49.625 E126.71562
G1 X58.322 Y49.625 E126.89644
G1 X74.072 Y65.375 E130.07400
G1 X75.340 Y65.375 E130.25483
G1 X59.590 Y49.625 E133.43239
G1 X60.857 Y49.625 E133.61322
G1 X76.608 Y65.375 E136.79077
G1 X77.875 Y65.375 E136.97160
G1 X62.125 Y49.625 E140.14916
G1 X63.392 Y49.625 E140.32999
G1 X79.143 Y65.375 E143.50755
G1 X80.410 Y65.375 E143.68838
G1 X64.660 Y49.625 E146.86593
G1 X65.928 Y49.625 E147.04676
G1 X81.678 Y65.375 E150.22432
G1 X82.946 Y65.375 E150.40515
G1 X67.195 Y49.625 E153.58271
G1 X68.463 Y49.625 E153.76354
G1 X84.104 Y65.266 E156.91899
G1 X82.322 Y58.413 F7800.000
M101 ; extruder on
G1 X73.533 Y49.625 E158.69204 F1800.000
G1 X74.801 Y49.625 E158.87287
G1 X82.301 Y57.125 E160.38594
G1 X82.543 Y56.100 E160.53620
G1 X76.068 Y49.625 E161.84248
G1 X77.336 Y49.625 E162.02331
G1 X82.945 Y55.233 E163.15483
G1 X83.495 Y54.516 E163.28380
G1 X78.604 Y49.625 E164.27064
G1 X79.871 Y49.625 E164.45147
G1 X84.182 Y53.936 E165.32121
G1 X84.984 Y53.470 E165.45349
G1 X81.139 Y49.625 E166.22925
G1 X82.406 Y49.625 E166.41008
G1 X85.928 Y53.147 E167.12064
G1 X87.095 Y53.046 E167.28766
G1 X83.792 Y49.743 E167.95393
G1 X85.338 Y50.022 E168.17802
G1 X88.669 Y53.352 E168.84989
G1 X88.385 Y51.800 E169.07492
G1 X88.980 Y52.396 E169.19505
G1 X54.662 Y64.978 F7800.000
M101 ; extruder on
G1 X49.241 Y59.558 E170.28858 F1800.000
G1 X51.020 Y62.604 F7800.000
M101 ; extruder on
G1 X51.615 Y63.200 E170.40870 F1800.000
M73 P1
G1 Z0.900 F7800.000
G1 E168.40870 F2400.00000
M103 ; extruder off
G1 X60.616 Y57.500 F7800.000
M101 ; extruder on
G1 E170.40870 F2400.00000
G1 X60.483 Y58.508 E170.47227 F900.000
G1 X60.094 Y59.448 E170.53584
G1 X59.475 Y60.255 E170.59941
G1 X58.668 Y60.874 E170.66298
G1 X57.728 Y61.263 E170.72655
G1 X56.720 Y61.396 E170.79012
G1 X55.711 Y61.263 E170.85369
G1 X54.771 Y60.874 E170.91726
G1 X53.965 Y60.255 E170.98083
G1 X53.345 Y59.448 E171.04440
G1 X52.956 Y58.508 E171.10798
G1 X52.823 Y57.500 E171.17154
G1 X52.956 Y56.492 E171.23511
G1 X53.345 Y55.552 E171.29869
G1 X53.929 Y54.792 E171.35857
G1 X54.687 Y54.082 E171.42345
M101 ; extruder on
G1 X58.753 Y54.082 E171.67757 F900.000
G1 X59.511 Y54.792 E171.74245
G1 X60.094 Y55.552 E171.80233
G1 X60.483 Y56.492 E171.86590
G1 X60.606 Y57.426 E171.92479
G1 X60.121 Y57.500 F7800.000
M101 ; extruder on
G1 X60.005 Y58.380 E171.98028 F900.000
G1 X59.665 Y59.201 E172.03577
G1 X59.125 Y59.905 E172.09126
G1 X58.420 Y60.445 E172.14675
G1 X57.600 Y60.785 E172.20225
G1 X56.720 Y60.901 E172.25774
G1 X55.839 Y60.785 E172.31323
G1 X55.019 Y60.445 E172.36873
G1 X54.315 Y59.905 E172.42422
G1 X53.774 Y59.201 E172.47971
G1 X53.434 Y58.380 E172.53520
G1 X53.318 Y57.500 E172.59069
G1 X53.434 Y56.620 E172.64619
G1 X53.774 Y55.799 E172.70168
G1 X54.294 Y55.123 E172.75500
G1 X54.880 Y54.573 E172.80524
M101 ; extruder on
G1 X58.559 Y54.573 E173.03513 F900.000
G1 X59.146 Y55.123 E173.08537
G1 X59.665 Y55.799 E173.13869
G1 X60.005 Y56.620 E173.19419
G1 X60.111 Y57.426 E173.24499
G1 X59.664 Y57.500 F7800.000
M101 ; extruder on
G1 X59.564 Y58.262 E173.28553 F900.000
G1 X59.270 Y58.972 E173.32607
G1 X58.802 Y59.582 E173.36660
G1 X58.192 Y60.050 E173.40714
G1 X57.482 Y60.344 E173.44768
G1 X56.720 Y60.445 E173.48821
G1 X55.957 Y60.344 E173.52875
G1 X55.247 Y60.050 E173.56929
G1 X54.637 Y59.582 E173.60982
G1 X54.169 Y58.972 E173.65036
G1 X53.875 Y58.262 E173.69090
G1 X53.775 Y57.500 E173.73143
G1 X53.875 Y56.738 E173.77197
G1 X54.169 Y56.028 E173.81251
G1 X54.630 Y55.428 E173.85239
G1 X55.059 Y55.026 E173.88340
M101 ; extruder on
G1 X58.380 Y55.026 E174.05851 F900.000
G1 X58.809 Y55.428 E174.08952
G1 X59.270 Y56.028 E174.12940
G1 X59.564 Y56.738 E174.16994
G1 X59.655 Y57.426 E174.20652
G1 X60.086 Y57.769 F7800.000
G1 X83.884 Y57.500 F7800.000
M101 ; extruder on
G1 X83.980 Y56.769 E174.25258 F900.000
G1 X84.262 Y56.088 E174.29864
G1 X84.711 Y55.504 E174.34471
G1 X85.295 Y55.055 E174.39076
M101 ; extruder on
G1 X85.976 Y54.773 E174.43682 F900.000
