; generated by Slic3r 1.2.9 on 2017-09-18 at 17:32:09

; external perimeters extrusion width = 0.50mm
; perimeters extrusion width = 0.58mm
; infill extrusion width = 0.58mm
; solid infill extrusion width = 0.58mm
; top infill extrusion width = 0.58mm

M127
M109 S220 ; set bed temperature
M104 S220 T0 ; set temperature
G28 ; home all axes
G1 Z5 F5000 ; lift nozzle

M73 P0
G1 Z0.500 F7800.000
G1 E-2.00000 F2400.00000
M103 ; extruder off
G1 X33.900 Y33.729 F7800.000
M101 ; extruder on
G1 E0.00000 F2400.00000
G1 X35.662 Y32.190 E0.33242 F1800.000
G1 X37.269 Y31.473 E0.58248
G1 X38.519 Y31.098 E0.76790
G1 X40.084 Y30.820 E0.99373
G1 X88.084 Y27.920 E7.82588
G1 X104.500 Y27.907 E10.15818
G1 X106.806 Y28.304 E10.49060
M101 ; extruder on
G1 X108.846 Y29.450 E10.82301 F1800.000
G1 X110.385 Y31.212 E11.15543
G1 X111.246 Y33.387 E11.48785
G1 X111.393 Y34.800 E11.68963
G1 X111.393 Y80.200 E18.13994
G1 X110.996 Y82.506 E18.47236
G1 X109.850 Y84.546 E18.80478
G1 X108.088 Y86.085 E19.13720
G1 X105.913 Y86.946 E19.46961
G1 X104.500 Y87.093 E19.67139
G1 X88.500 Y87.093 E21.94463
G1 X86.194 Y86.696 E22.27705
G1 X84.594 Y85.879 E22.53232
G1 X35.344 Y52.004 E31.02503
G1 X33.669 Y50.370 E31.35745
G1 X32.637 Y48.270 E31.68987
G1 X32.357 Y46.325 E31.96909
G1 X32.357 Y38.075 E33.14123
G1 X32.754 Y35.769 E33.47365
G1 X33.863 Y33.795 E33.79541
G1 E31.79541 F2400.00000
M103 ; extruder off
G1 X90.907 Y77.693 F7800.000
M101 ; extruder on
G1 E33.79541 F2400.00000
G1 X90.907 Y36.807 E39.60430 F1800.000
G1 X102.093 Y36.807 E41.19350
G1 X102.093 Y77.693 E47.00239
G1 X90.982 Y77.693 E48.58093
G1 X91.800 Y76.800 F7800.000
M101 ; extruder on
G1 X91.800 Y37.700 E54.13616 F1800.000
G1 X101.200 Y37.700 E55.47168
G1 X101.200 Y76.800 E61.02691
G1 X91.875 Y76.800 E62.35179
G1 X91.300 Y76.800 F7800.000
G1 X90.015 Y44.415 F7800.000
M101 ; extruder on
G1 X41.535 Y44.415 E69.23959 F1800.000
G1 X41.535 Y39.985 E69.86888
G1 X90.015 Y39.985 E76.75668
G1 X90.015 Y44.340 E77.37531
G1 X89.893 Y45.307 F7800.000
M101 ; extruder on
G1 X40.643 Y45.307 E84.37263 F1800.000
G1 X40.643 Y39.093 E85.25558
G1 X89.893 Y39.093 E92.25290
G1 X89.893 Y36.193 E92.66492
G1 X103.107 Y36.193 E94.54242
G1 X103.107 Y78.807 E100.59700
G1 X89.893 Y78.807 E102.47449
G1 X89.893 Y45.382 E107.22343
G1 X89.000 Y46.200 F7800.000
M101 ; extruder on
G1 X40.573 Y46.200 E114.10376 F1800.000
G1 X39.750 Y45.953 E114.22590
G1 X39.750 Y38.447 E115.29233
G1 X40.573 Y38.200 E115.41446
G1 X89.000 Y38.200 E122.29479
G1 X89.000 Y35.300 E122.70682
G1 X104.000 Y35.300 E124.83798
G1 X104.000 Y79.700 E131.14622
G1 X89.000 Y79.700 E133.27738
G1 X89.000 Y46.275 E138.02632
G1 X89.000 Y45.700 F7800.000
G1 X90.400 Y44.861 F7800.000
M101 ; extruder on
G1 X90.400 Y78.139 E142.75439 F1800.000
G1 X90.461 Y78.250 E142.77237
G1 X102.550 Y78.250 E144.48992
G1 X102.600 Y78.139 E144.50719
G1 X102.600 Y36.639 E150.40341
G1 X91.300 Y36.500 F7800.000
G1 X90.400 Y37.200 F7800.000
G1 X90.400 Y38.700 F7800.000
G1 X89.500 Y40.500 F7800.000
G1 X89.465 Y40.954 F7800.000
M101 ; extruder on
G1 X89.046 Y40.535 E150.48863 F1800.000
G1 X87.768 Y40.535 E150.67267
G1 X89.465 Y42.232 E151.01817
G1 X89.465 Y43.511 E151.20221
G1 X86.489 Y40.535 E151.80798
G1 X85.210 Y40.535 E151.99202
G1 X88.540 Y43.865 E152.66984
G1 X87.262 Y43.865 E152.85389
G1 X83.931 Y40.535 E153.53171
G1 X82.652 Y40.535 E153.71575
G1 X85.983 Y43.865 E154.39358
G1 X84.704 Y43.865 E154.57762
G1 X81.374 Y40.535 E155.25545
G1 X80.095 Y40.535 E155.43949
G1 X83.425 Y43.865 E156.11732
G1 X82.146 Y43.865 E156.30136
G1 X78.816 Y40.535 E156.97918
G1 X77.537 Y40.535 E157.16322
G1 X80.868 Y43.865 E157.84105
G1 X79.589 Y43.865 E158.02509
G1 X76.258 Y40.535 E158.70292
G1 X74.980 Y40.535 E158.88696
G1 X78.310 Y43.865 E159.56479
G1 X77.031 Y43.865 E159.74883
G1 X73.701 Y40.535 E160.42666
G1 X72.422 Y40.535 E160.61070
G1 X75.752 Y43.865 E161.28852
G1 X74.474 Y43.865 E161.47256
G1 X71.143 Y40.535 E162.15039
G1 X69.864 Y40.535 E162.33443
G1 X73.195 Y43.865 E163.01226
G1 X71.916 Y43.865 E163.19630
G1 X68.586 Y40.535 E163.87413
G1 X67.307 Y40.535 E164.05817
G1 X70.637 Y43.865 E164.73599
G1 X69.358 Y43.865 E164.92003
G1 X66.028 Y40.535 E165.59786
G1 X64.749 Y40.535 E165.78190
G1 X68.080 Y43.865 E166.45973
G1 X66.801 Y43.865 E166.64377
G1 X63.470 Y40.535 E167.32160
G1 X62.192 Y40.535 E167.50564
G1 X65.522 Y43.865 E168.18347
G1 X64.243 Y43.865 E168.36751
G1 X60.913 Y40.535 E169.04533
G1 X59.634 Y40.535 E169.22937
G1 X62.964 Y43.865 E169.90720
G1 X61.686 Y43.865 E170.09124
G1 X58.355 Y40.535 E170.76907
G1 X57.076 Y40.535 E170.95311
G1 X60.407 Y43.865 E171.63094
G1 X59.128 Y43.865 E171.81498
G1 X55.798 Y40.535 E172.49280
G1 X54.519 Y40.535 E172.67684
G1 X57.849 Y43.865 E173.35467
G1 X56.570 Y43.865 E173.53871
G1 X53.240 Y40.535 E174.21654
G1 X51.961 Y40.535 E174.40058
G1 X55.292 Y43.865 E175.07841
G1 X54.013 Y43.865 E175.26245
G1 X50.682 Y40.535 E175.94027
G1 X49.404 Y40.535 E176.12431
G1 X52.734 Y43.865 E176.80214
G1 X51.455 Y43.865 E176.98618
G1 X48.125 Y40.535 E177.66401
G1 X46.846 Y40.535 E177.84805
G1 X50.176 Y43.865 E178.52588
G1 X48.898 Y43.865 E178.70992
G1 X45.567 Y40.535 E179.38774
G1 X44.288 Y40.535 E179.57178
G1 X47.619 Y43.865 E180.24961
G1 X46.340 Y43.865 E180.43365
G1 X43.010 Y40.535 E181.11148
G1 X42.085 Y40.889 E181.25399
G1 X45.061 Y43.865 E181.85975
G1 X43.782 Y43.865 E182.04379
G1 X42.085 Y42.168 E182.38929
G1 X42.085 Y43.446 E182.57333
G1 X42.504 Y43.865 E182.65855
M73 P5
G1 Z0.900 F7800.000
G1 E180.65855 F2400.00000
M103 ; extruder off
G1 X91.107 Y37.007 F7800.000
M101 ; extruder on
G1 E182.65855 F2400.00000
G1 X101.893 Y37.007 E183.33273 F3600.000
G1 X101.893 Y77.493 E185.86315
G1 X91.107 Y77.493 E186.53732
G1 X91.107 Y37.082 E189.06306
G1 X91.597 Y37.497 F7800.000
M101 ; extruder on
G1 X101.403 Y37.497 E189.67587 F3600.000
G1 X101.403 Y77.003 E192.14494
G1 X91.597 Y77.003 E192.75775
G1 X91.597 Y37.572 E195.22213
G1 X92.050 Y37.950 F7800.000
M101 ; extruder on
G1 X100.950 Y37.950 E195.69145 F1800.000
G1 X100.950 Y76.550 E197.72692
G1 X92.050 Y76.550 E198.19624
G1 X92.050 Y38.025 E200.22775
G1 X92.050 Y37.450 F7800.000
G1 X89.693 Y38.893 F7800.000
M101 ; extruder on
G1 X89.693 Y35.993 E200.40900 F3600.000
G1 X103.307 Y35.993 E201.25983
G1 X103.307 Y79.007 E203.94816
G1 X89.693 Y79.007 E204.79898
G1 X89.693 Y45.507 E206.89273
G1 X40.675 Y45.507 E209.95637
G1 X39.000 Y45.004 E210.06568
M101 ; extruder on
G1 X38.193 Y44.762 E210.11831 F3600.000
G1 X38.193 Y39.638 E210.43857
G1 X39.000 Y39.396 E210.49120
M101 ; extruder on
G1 X40.675 Y38.893 E210.60051 F3600.000
G1 X89.618 Y38.893 E213.65946
G1 X89.203 Y38.403 F7800.000
M101 ; extruder on
G1 X89.203 Y35.503 E213.84071 F3600.000
G1 X103.797 Y35.503 E214.75290
G1 X103.797 Y79.497 E217.50258
G1 X89.203 Y79.497 E218.41477
G1 X89.203 Y45.997 E220.50852
G1 X40.603 Y45.997 E223.54598
G1 X39.000 Y45.517 E223.65059
M101 ; extruder on
G1 X37.703 Y45.127 E223.73525 F3600.000
G1 X37.703 Y39.273 E224.10116
G1 X39.000 Y38.883 E224.18583
M101 ; extruder on
G1 X40.603 Y38.403 E224.29043 F3600.000
G1 X89.128 Y38.403 E227.32321
G1 X88.750 Y37.950 F7800.000
M101 ; extruder on
G1 X88.750 Y35.050 E227.47613 F1800.000
G1 X104.250 Y35.050 E228.29349
G1 X104.250 Y79.950 E230.66117
G1 X88.750 Y79.950 E231.47852
G1 X88.750 Y46.450 E233.24506
G1 X40.537 Y46.450 E235.78746
G1 X39.000 Y45.989 E235.87206
M101 ; extruder on
G1 X37.250 Y45.464 E235.98625 F3600.000
G1 X37.250 Y38.936 E236.39425
G1 X39.000 Y38.411 E236.50844
M101 ; extruder on
G1 X40.537 Y37.950 E236.59304 F1800.000
G1 X88.675 Y37.950 E239.13149
G1 X89.250 Y37.950 F7800.000
G1 X89.986 Y37.822 F7800.000
M101 ; extruder on
G1 X90.568 Y37.241 E239.18311 F1200.000
G1 X89.986 Y37.125 E239.22032
G1 X90.568 Y36.544 E239.27193
G1 X90.814 Y37.692 F7800.000
M101 ; extruder on
G1 X89.986 Y38.519 E239.34533 F1200.000
G1 X90.016 Y39.186 E239.38724
G1 X83.989 Y45.214 E239.92212
G1 X83.292 Y45.214 E239.96586
G1 X89.319 Y39.186 E240.50074
G1 X89.986 Y39.216 E240.54265
G1 X90.814 Y38.389 E240.61605
G1 X90.814 Y39.086 E240.65979
G1 X84.686 Y45.214 E241.20356
G1 X85.383 Y45.214 E241.24730
G1 X90.814 Y39.783 E241.72921
G1 X90.814 Y40.480 E241.77295
G1 X86.080 Y45.214 E242.19301
G1 X86.777 Y45.214 E242.23675
G1 X90.814 Y41.177 E242.59495
G1 X90.814 Y41.874 E242.63869
G1 X87.474 Y45.214 E242.93503
G1 X88.171 Y45.214 E242.97877
G1 X90.814 Y42.571 E243.21326
G1 X90.814 Y43.268 E243.25700
G1 X88.868 Y45.214 E243.42963
G1 X89.565 Y45.214 E243.47337
G1 X90.814 Y43.965 E243.58414
G1 X90.814 Y44.662 E243.62788
G1 X89.986 Y45.489 E243.70127
G1 X89.986 Y46.186 E243.74501
G1 X90.814 Y45.359 E243.81841
G1 X90.814 Y46.056 E243.86215
G1 X89.986 Y46.883 E243.93555
G1 X89.986 Y47.580 E243.97929
G1 X90.814 Y46.753 E244.05268
G1 X90.814 Y47.450 E244.09642
G1 X89.986 Y48.277 E244.16982
G1 X89.986 Y48.974 E244.21356
G1 X90.814 Y48.147 E244.28696
G1 X90.814 Y48.844 E244.33070
G1 X89.986 Y49.671 E244.40409
G1 X89.986 Y50.369 E244.44783
G1 X90.814 Y49.541 E244.52123
G1 X90.814 Y50.238 E244.56497
G1 X89.986 Y51.066 E244.63837
G1 X89.986 Y51.763 E244.68211
G1 X90.814 Y50.935 E244.75550
G1 X90.814 Y51.633 E244.79924
G1 X89.986 Y52.460 E244.87264
G1 X89.986 Y53.157 E244.91638
G1 X90.814 Y52.330 E244.98978
G1 X90.814 Y53.027 E245.03352
G1 X89.986 Y53.854 E245.10691
G1 X89.986 Y54.551 E245.15065
G1 X90.814 Y53.724 E245.22405
G1 X90.814 Y54.421 E245.26779
G1 X89.986 Y55.248 E245.34119
G1 X89.986 Y55.945 E245.38493
G1 X90.814 Y55.118 E245.45832
G1 X90.814 Y55.815 E245.50206
G1 X89.986 Y56.642 E245.57546
G1 X89.986 Y57.339 E245.61920
G1 X90.814 Y56.512 E245.69260
G1 X90.814 Y57.209 E245.73634
G1 X89.986 Y58.036 E245.80973
G1 X89.986 Y58.733 E245.85347
G1 X90.814 Y57.906 E245.92687
G1 X90.814 Y58.603 E245.97061
G1 X89.986 Y59.430 E246.04401
G1 X89.986 Y60.127 E246.08775
G1 X90.814 Y59.300 E246.16114
G1 X90.814 Y59.997 E246.20488
G1 X89.986 Y60.824 E246.27828
G1 X89.986 Y61.521 E246.32202
G1 X90.814 Y60.694 E246.39542
G1 X90.814 Y61.391 E246.43916
G1 X89.986 Y62.218 E246.51255
G1 X89.986 Y62.915 E246.55629
G1 X90.814 Y62.088 E246.62969
G1 X90.814 Y62.785 E246.67343
G1 X89.986 Y63.612 E246.74683
G1 X89.986 Y64.309 E246.79057
G1 X90.814 Y63.482 E246.86396
G1 X90.814 Y64.179 E246.90770
G1 X89.986 Y65.006 E246.98110
G1 X89.986 Y65.703 E247.02484
G1 X90.814 Y64.876 E247.09824
G1 X90.814 Y65.573 E247.14198
G1 X89.986 Y66.400 E247.21537
G1 X89.986 Y67.097 E247.25911
G1 X90.814 Y66.270 E247.33251
G1 X90.814 Y66.967 E247.37625
G1 X89.986 Y67.794 E247.44965
G1 X89.986 Y68.491 E247.49339
G1 X90.814 Y67.664 E247.56678
G1 X90.814 Y68.361 E247.61052
G1 X89.986 Y69.188 E247.68392
G1 X89.986 Y69.885 E247.72766
G1 X90.814 Y69.058 E247.80106
G1 X90.814 Y69.755 E247.84480
G1 X89.986 Y70.582 E247.91819
G1 X89.986 Y71.279 E247.96193
G1 X90.814 Y70.452 E248.03533
G1 X90.814 Y71.149 E248.07907
G1 X89.986 Y71.976 E248.15247
G1 X89.986 Y72.673 E248.19621
G1 X90.814 Y71.846 E248.26960
G1 X90.814 Y72.543 E248.31334
G1 X89.986 Y73.370 E248.38674
G1 X89.986 Y74.067 E248.43048
G1 X90.814 Y73.240 E248.50388
G1 X90.814 Y73.937 E248.54762
G1 X89.986 Y74.764 E248.62101
G1 X89.986 Y75.461 E248.66475
G1 X90.814 Y74.634 E248.73815
G1 X90.814 Y75.331 E248.78189
G1 X89.986 Y76.158 E248.85529
G1 X89.986 Y76.855 E248.89903
G1 X90.814 Y76.028 E248.97242
G1 X90.814 Y76.725 E249.01616
G1 X89.986 Y77.552 E249.08956
G1 X89.986 Y78.249 E249.13330
G1 X90.814 Y77.422 E249.20670
G1 X91.146 Y77.786 F7800.000
M101 ; extruder on
G1 X90.219 Y78.714 E249.28897 F1200.000
G1 X90.916 Y78.714 E249.33271
G1 X91.843 Y77.786 E249.41498
G1 X92.540 Y77.786 E249.45872
G1 X91.613 Y78.714 E249.54099
G1 X92.310 Y78.714 E249.58473
G1 X93.237 Y77.786 E249.66700
G1 X93.934 Y77.786 E249.71074
G1 X93.007 Y78.714 E249.79301
G1 X93.704 Y78.714 E249.83675
G1 X94.631 Y77.786 E249.91903
G1 X95.328 Y77.786 E249.96277
G1 X94.401 Y78.714 E250.04504
G1 X95.098 Y78.714 E250.08878
G1 X96.025 Y77.786 E250.17105
G1 X96.722 Y77.786 E250.21479
G1 X95.795 Y78.714 E250.29706
G1 X96.492 Y78.714 E250.34080
G1 X97.419 Y77.786 E250.42307
G1 X98.116 Y77.786 E250.46681
G1 X97.189 Y78.714 E250.54908
G1 X97.886 Y78.714 E250.59282
G1 X98.813 Y77.786 E250.67509
G1 X99.510 Y77.786 E250.71883
G1 X98.583 Y78.714 E250.80111
G1 X99.280 Y78.714 E250.84484
G1 X100.207 Y77.786 E250.92712
G1 X100.904 Y77.786 E250.97086
G1 X99.977 Y78.714 E251.05313
G1 X100.674 Y78.714 E251.09687
G1 X101.601 Y77.786 E251.17914
G1 X102.765 Y78.714 F7800.000
M101 ; extruder on
G1 X103.014 Y78.465 E251.20117 F1200.000
G1 X103.014 Y77.768 E251.24491
G1 X102.068 Y78.714 E251.32880
G1 X101.371 Y78.714 E251.37254
G1 X103.014 Y77.071 E251.51829
G1 X103.014 Y76.374 E251.56203
G1 X102.186 Y77.201 E251.63543
G1 X102.186 Y76.504 E251.67917
G1 X103.014 Y75.677 E251.75256
G1 X103.014 Y74.980 E251.79630
G1 X102.186 Y75.807 E251.86970
G1 X102.186 Y75.110 E251.91344
G1 X103.014 Y74.283 E251.98684
G1 X103.014 Y73.586 E252.03058
G1 X102.186 Y74.413 E252.10397
G1 X102.186 Y73.716 E252.14771
G1 X103.014 Y72.889 E252.22111
G1 X103.014 Y72.192 E252.26485
G1 X102.186 Y73.019 E252.33825
G1 X102.186 Y72.322 E252.38199
G1 X103.014 Y71.495 E252.45538
G1 X103.014 Y70.798 E252.49912
G1 X102.186 Y71.625 E252.57252
G1 X102.186 Y70.928 E252.61626
G1 X103.014 Y70.101 E252.68966
G1 X103.014 Y69.404 E252.73340
G1 X102.186 Y70.231 E252.80680
G1 X102.186 Y69.534 E252.85053
G1 X103.014 Y68.707 E252.92393
G1 X103.014 Y68.010 E252.96767
G1 X102.186 Y68.837 E253.04107
G1 X102.186 Y68.140 E253.08481
G1 X103.014 Y67.313 E253.15821
G1 X103.014 Y66.616 E253.20195
G1 X102.186 Y67.443 E253.27534
G1 X102.186 Y66.746 E253.31908
G1 X103.014 Y65.919 E253.39248
G1 X103.014 Y65.222 E253.43622
G1 X102.186 Y66.049 E253.50962
G1 X102.186 Y65.352 E253.55336
G1 X103.014 Y64.525 E253.62675
G1 X103.014 Y63.828 E253.67049
G1 X102.186 Y64.655 E253.74389
G1 X102.186 Y63.958 E253.78763
G1 X103.014 Y63.131 E253.86103
G1 X103.014 Y62.434 E253.90477
G1 X102.186 Y63.261 E253.97816
G1 X102.186 Y62.564 E254.02190
G1 X103.014 Y61.737 E254.09530
G1 X103.014 Y61.040 E254.13904
G1 X102.186 Y61.867 E254.21244
G1 X102.186 Y61.170 E254.25618
G1 X103.014 Y60.343 E254.32958
G1 X103.014 Y59.646 E254.37332
G1 X102.186 Y60.473 E254.44671
G1 X102.186 Y59.776 E254.49045
G1 X103.014 Y58.949 E254.56385
G1 X103.014 Y58.252 E254.60759
G1 X102.186 Y59.079 E254.68099
G1 X102.186 Y58.382 E254.72473
G1 X103.014 Y57.555 E254.79812
G1 X103.014 Y56.858 E254.84186
G1 X102.186 Y57.685 E254.91526
G1 X102.186 Y56.988 E254.95900
G1 X103.014 Y56.161 E255.03240
G1 X103.014 Y55.464 E255.07614
G1 X102.186 Y56.291 E255.14953
G1 X102.186 Y55.594 E255.19327
G1 X103.014 Y54.767 E255.26667
G1 X103.014 Y54.070 E255.31041
G1 X102.186 Y54.897 E255.38381
G1 X102.186 Y54.200 E255.42755
G1 X103.014 Y53.373 E255.50095
G1 X103.014 Y52.676 E255.54469
G1 X102.186 Y53.503 E255.61808
G1 X102.186 Y52.806 E255.66182
G1 X103.014 Y51.979 E255.73522
G1 X103.014 Y51.282 E255.77896
G1 X102.186 Y52.109 E255.85236
G1 X102.186 Y51.412 E255.89610
G1 X103.014 Y50.585 E255.96949
G1 X103.014 Y49.888 E256.01323
G1 X102.186 Y50.715 E256.08663
G1 X102.186 Y50.018 E256.13037
G1 X103.014 Y49.191 E256.20377
G1 X103.014 Y48.494 E256.24751
G1 X102.186 Y49.321 E256.32090
G1 X102.186 Y48.624 E256.36464
G1 X103.014 Y47.797 E256.43804
G1 X103.014 Y47.100 E256.48178
G1 X102.186 Y47.927 E256.55518
G1 X102.186 Y47.230 E256.59892
G1 X103.014 Y46.403 E256.67231
G1 X103.014 Y45.706 E256.71605
G1 X102.186 Y46.533 E256.78945
G1 X102.186 Y45.836 E256.83319
G1 X103.014 Y45.009 E256.90659
G1 X103.014 Y44.312 E256.95033
G1 X102.186 Y45.139 E257.02373
G1 X102.186 Y44.442 E257.06747
G1 X103.014 Y43.615 E257.14086
G1 X103.014 Y42.918 E257.18460
G1 X102.186 Y43.745 E257.25800
G1 X102.186 Y43.048 E257.30174
G1 X103.014 Y42.221 E257.37514
G1 X103.014 Y41.524 E257.41888
G1 X102.186 Y42.351 E257.49227
G1 X102.186 Y41.654 E257.53601
G1 X103.014 Y40.827 E257.60941
G1 X103.014 Y40.130 E257.65315
G1 X102.186 Y40.957 E257.72655
G1 X102.186 Y40.260 E257.77029
G1 X103.014 Y39.433 E257.84368
G1 X103.014 Y38.735 E257.88742
G1 X102.186 Y39.563 E257.96082
G1 X102.186 Y38.866 E258.00456
G1 X103.014 Y38.038 E258.07796
