; generated by Slic3r 1.2.9 on 2017-09-27 at 15:58:05

; external perimeters extrusion width = 0.50mm
; perimeters extrusion width = 0.58mm
; infill extrusion width = 0.58mm
; solid infill extrusion width = 0.58mm
; top infill extrusion width = 0.58mm

M127
M109 S210 ; set bed temperature
M104 S220 T0 ; set temperature
G28 ; home all axes
G1 Z5 F5000 ; lift nozzle

M73 P0
G1 Z0.500 F7800.000
G1 E-2.00000 F2400.00000
M103 ; extruder off
G1 X21.912 Y30.615 F7800.000
M101 ; extruder on
G1 E0.00000 F2400.00000
G1 X23.498 Y29.905 E0.24689 F1800.000
G1 X51.498 Y21.405 E4.40432
G1 X53.500 Y21.107 E4.69191
G1 X73.500 Y21.107 E7.53346
G1 X76.220 Y21.667 E7.92797
M101 ; extruder on
G1 X116.970 Y39.167 E14.22893 F1800.000
G1 X118.932 Y40.441 E14.56135
G1 X120.354 Y42.299 E14.89377
G1 X121.143 Y45.500 E15.36216
G1 X121.143 Y69.500 E18.77202
G1 X120.746 Y71.806 E19.10443
G1 X119.600 Y73.846 E19.43685
G1 X116.970 Y75.833 E19.90524
G1 X76.220 Y93.333 E26.20620
G1 X73.500 Y93.893 E26.60072
G1 X53.500 Y93.893 E29.44227
G1 X51.498 Y93.595 E29.72985
G1 X23.498 Y85.095 E33.88729
G1 X21.407 Y84.046 E34.21970
G1 X19.787 Y82.357 E34.55212
G1 X18.826 Y80.224 E34.88454
G1 X18.607 Y78.500 E35.13143
G1 X18.607 Y36.500 E41.09868
G1 X19.004 Y34.194 E41.43110
G1 X20.150 Y32.154 E41.76351
G1 X21.855 Y30.664 E42.08528
G1 X23.063 Y33.041 F7800.000
M101 ; extruder on
G1 X52.617 Y24.070 E46.47336 F1800.000
G1 X53.203 Y23.983 E46.55762
G1 X74.167 Y23.983 E49.53603
G1 X75.429 Y24.414 E49.72548
M101 ; extruder on
G1 X87.695 Y33.892 E51.92786 F1800.000
G1 X88.517 Y35.567 E52.19300
G1 X88.517 Y40.960 E52.95922
G1 X89.040 Y41.483 E53.06429
G1 X115.914 Y41.483 E56.88247
G1 X118.267 Y43.836 E57.35529
G1 X118.267 Y71.164 E61.23797
G1 X115.914 Y73.517 E61.71079
G1 X89.040 Y73.517 E65.52896
G1 X88.517 Y74.040 E65.63403
G1 X88.517 Y79.433 E66.40026
G1 X87.695 Y81.108 E66.66540
G1 X75.429 Y90.586 E68.86777
G1 X74.167 Y91.017 E69.05723
G1 X53.203 Y91.017 E72.03564
G1 X52.617 Y90.930 E72.11990
G1 X23.063 Y81.959 E76.50798
G1 X21.483 Y79.827 E76.88501
G1 X21.483 Y35.173 E83.22930
G1 X23.019 Y33.102 E83.59568
G1 X23.605 Y33.810 F7800.000
M101 ; extruder on
G1 X52.813 Y24.943 E87.93250 F1800.000
G1 X53.269 Y24.876 E87.99804
G1 X74.019 Y24.876 E90.94603
M101 ; extruder on
G1 X75.000 Y25.211 E91.09339 F1800.000
G1 X86.985 Y34.471 E93.24526
G1 X87.624 Y35.774 E93.45147
G1 X87.624 Y41.853 E94.31507
G1 X88.147 Y42.376 E94.42014
G1 X115.544 Y42.376 E98.31261
G1 X117.374 Y44.206 E98.68036
G1 X117.374 Y70.794 E102.45797
G1 X115.544 Y72.624 E102.82572
G1 X88.147 Y72.624 E106.71819
G1 X87.624 Y73.147 E106.82326
G1 X87.624 Y79.226 E107.68686
G1 X86.985 Y80.529 E107.89308
G1 X75.000 Y89.789 E110.04495
G1 X74.019 Y90.124 E110.19230
G1 X53.269 Y90.124 E113.14029
G1 X52.813 Y90.057 E113.20583
G1 X23.605 Y81.190 E117.54266
G1 X22.376 Y79.532 E117.83590
G1 X22.376 Y35.468 E124.09641
G1 X23.560 Y33.870 E124.37900
G1 X24.146 Y34.579 F7800.000
M101 ; extruder on
G1 X53.009 Y25.817 E128.66457 F1800.000
G1 X53.335 Y25.768 E128.71138
G1 X73.870 Y25.768 E131.62896
G1 X74.571 Y26.008 E131.73422
M101 ; extruder on
G1 X86.275 Y35.051 E133.83557 F1800.000
G1 X86.732 Y35.982 E133.98287
G1 X86.738 Y42.352 E134.88793
G1 X86.820 Y42.845 E134.95899
G1 X87.320 Y43.268 E135.05199
G1 X115.174 Y43.268 E139.00955
G1 X116.482 Y44.576 E139.27223
G1 X116.482 Y70.424 E142.94476
G1 X115.174 Y71.732 E143.20744
G1 X87.320 Y71.732 E147.16500
G1 X86.820 Y72.155 E147.25800
G1 X86.738 Y72.648 E147.32906
G1 X86.732 Y79.018 E148.23412
G1 X86.275 Y79.949 E148.38142
G1 X74.571 Y88.992 E150.48278
G1 X73.870 Y89.232 E150.58803
G1 X53.335 Y89.232 E153.50561
G1 X53.009 Y89.183 E153.55242
G1 X24.146 Y80.421 E157.83799
G1 X23.268 Y79.237 E158.04746
G1 X23.268 Y35.763 E164.22417
G1 X24.102 Y34.639 E164.42298
G1 X24.688 Y35.347 F7800.000
M101 ; extruder on
G1 X53.206 Y26.690 E168.65730 F1800.000
G1 X53.401 Y26.661 E168.68538
G1 X73.722 Y26.661 E171.57255
M101 ; extruder on
G1 X74.143 Y26.805 E171.63570 F1800.000
G1 X85.565 Y35.631 E173.68655
G1 X85.839 Y36.189 E173.77493
G1 X85.845 Y42.426 E174.66103
G1 X86.064 Y43.738 E174.85003
G1 X86.563 Y44.161 E174.94303
G1 X114.805 Y44.161 E178.95549
G1 X115.589 Y44.945 E179.11310
G1 X115.589 Y70.055 E182.68056
G1 X114.805 Y70.839 E182.83817
G1 X86.563 Y70.839 E186.85063
G1 X86.064 Y71.262 E186.94363
G1 X85.845 Y72.574 E187.13264
G1 X85.839 Y78.811 E188.01873
G1 X85.565 Y79.369 E188.10711
G1 X74.143 Y88.195 E190.15796
G1 X73.722 Y88.339 E190.22111
G1 X53.401 Y88.339 E193.10828
G1 X53.206 Y88.310 E193.13637
G1 X24.688 Y79.653 E197.37068
G1 X24.161 Y78.942 E197.49636
G1 X24.161 Y36.058 E203.58929
G1 X24.643 Y35.407 E203.70431
G1 X25.229 Y36.116 F7800.000
M101 ; extruder on
G1 X53.402 Y27.563 E207.88738 F1800.000
G1 X73.574 Y27.554 E210.75339
G1 X73.714 Y27.602 E210.77444
G1 X84.855 Y36.210 E212.77478
G1 X84.946 Y36.396 E212.80424
G1 X84.952 Y42.500 E213.67137
G1 X85.308 Y44.631 E213.97831
G1 X85.807 Y45.054 E214.07132
G1 X114.435 Y45.054 E218.13869
G1 X114.696 Y45.315 E218.19122
G1 X114.696 Y69.685 E221.65362
G1 X114.435 Y69.946 E221.70615
G1 X85.807 Y69.946 E225.77352
G1 X85.308 Y70.369 E225.86652
G1 X84.952 Y72.500 E226.17346
G1 X84.946 Y78.604 E227.04060
G1 X84.855 Y78.790 E227.07006
G1 X73.714 Y87.398 E229.07039
G1 X73.574 Y87.446 E229.09144
G1 X53.402 Y87.437 E231.95746
G1 X25.229 Y78.884 E236.14052
G1 X25.054 Y78.647 E236.18242
G1 X25.054 Y36.353 E242.19156
G1 X25.185 Y36.176 E242.22280
G1 E240.22280 F2400.00000
M103 ; extruder off
G1 X84.576 Y69.000 F7800.000
M101 ; extruder on
G1 E242.22280 F2400.00000
G1 X84.000 Y72.459 E242.72097 F1800.000
G1 X84.000 Y78.254 E243.54443
G1 X73.329 Y86.500 E245.46038
G1 X53.574 Y86.500 E248.26714
G1 X26.000 Y78.129 E252.36135
G1 X26.000 Y36.871 E258.22326
G1 X53.574 Y28.500 E262.31747
G1 X73.329 Y28.500 E265.12423
G1 X84.000 Y36.746 E267.04018
G1 X84.000 Y42.541 E267.86364
G1 X84.576 Y46.000 E268.36181
G1 X113.750 Y46.000 E272.50671
G1 X113.750 Y69.000 E275.77450
G1 X84.651 Y69.000 E279.90875
G1 X84.079 Y68.945 F7800.000
G1 X83.820 Y68.107 F7800.000
M101 ; extruder on
G1 X83.107 Y72.385 E280.52486 F1800.000
G1 X83.107 Y77.816 E281.29653
G1 X73.025 Y85.607 E283.10691
G1 X53.707 Y85.607 E285.85155
G1 X26.893 Y77.467 E289.83289
G1 X26.893 Y37.533 E295.50670
G1 X53.707 Y29.393 E299.48805
G1 X73.025 Y29.393 E302.23268
G1 X83.107 Y37.184 E304.04306
G1 X83.107 Y42.615 E304.81474
G1 X83.820 Y46.893 E305.43085
G1 X112.857 Y46.893 E309.55636
G1 X112.857 Y68.107 E312.57048
G1 X83.895 Y68.107 E316.68534
G1 X83.064 Y67.215 F7800.000
M101 ; extruder on
G1 X82.215 Y72.311 E317.41939 F1800.000
G1 X82.215 Y77.378 E318.13929
G1 X72.720 Y84.715 E319.84409
G1 X53.839 Y84.715 E322.52660
G1 X27.785 Y76.805 E326.39507
G1 X27.785 Y38.195 E331.88080
G1 X53.839 Y30.285 E335.74927
G1 X72.720 Y30.285 E338.43178
G1 X82.215 Y37.622 E340.13659
G1 X82.215 Y42.689 E340.85648
G1 X83.064 Y47.785 E341.59053
G1 X111.965 Y47.785 E345.69666
G1 X111.965 Y67.215 E348.45711
G1 X83.139 Y67.215 E352.55258
G1 X93.083 Y58.917 F7800.000
M101 ; extruder on
G1 X92.764 Y58.502 E352.62692 F1800.000
G1 X92.564 Y58.019 E352.70126
G1 X92.495 Y57.498 E352.77593
G1 X92.570 Y56.966 E352.85221
G1 X92.764 Y56.498 E352.92421
G1 X93.083 Y56.083 E352.99855
G1 X93.498 Y55.764 E353.07289
G1 X93.981 Y55.564 E353.14723
M101 ; extruder on
G1 X94.451 Y55.502 E353.21457 F1800.000
G1 X95.013 Y55.561 E353.29480
G1 X95.502 Y55.764 E353.37007
G1 X95.917 Y56.083 E353.44441
G1 X96.236 Y56.498 E353.51875
G1 X96.436 Y56.981 E353.59309
G1 X96.504 Y57.500 E353.66743
G1 X96.436 Y58.019 E353.74177
G1 X96.236 Y58.502 E353.81611
G1 X95.917 Y58.917 E353.89044
G1 X95.502 Y59.236 E353.96478
G1 X95.026 Y59.433 E354.03798
G1 X94.550 Y59.511 E354.10648
G1 X93.981 Y59.436 E354.18804
G1 X93.498 Y59.236 E354.26238
G1 X93.142 Y58.963 E354.32607
G1 X92.595 Y59.025 F7800.000
G1 X92.539 Y59.625 F7800.000
M101 ; extruder on
G1 X92.446 Y59.554 E354.34277 F1800.000
G1 X91.984 Y58.952 E354.45050
G1 X91.694 Y58.252 E354.55824
G1 X91.594 Y57.494 E354.66688
G1 X91.702 Y56.729 E354.77655
G1 X91.984 Y56.048 E354.88138
G1 X92.446 Y55.446 E354.98911
G1 X93.048 Y54.984 E355.09685
G1 X93.748 Y54.694 E355.20458
M101 ; extruder on
G1 X94.440 Y54.603 E355.30367 F1800.000
G1 X95.235 Y54.687 E355.41730
G1 X95.952 Y54.984 E355.52762
G1 X96.554 Y55.446 E355.63535
G1 X97.016 Y56.048 E355.74309
G1 X97.306 Y56.748 E355.85082
G1 X97.405 Y57.500 E355.95856
G1 X97.306 Y58.252 E356.06629
G1 X97.016 Y58.952 E356.17403
G1 X96.554 Y59.554 E356.28176
G1 X95.952 Y60.016 E356.38950
G1 X95.272 Y60.297 E356.49406
G1 X94.565 Y60.413 E356.59596
G1 X93.748 Y60.306 E356.71296
G1 X93.048 Y60.016 E356.82070
G1 X92.599 Y59.671 E356.90108
G1 X91.996 Y60.334 F7800.000
M101 ; extruder on
G1 X91.809 Y60.191 E356.93447 F1800.000
G1 X91.205 Y59.403 E357.07561
G1 X90.825 Y58.485 E357.21674
G1 X90.694 Y57.490 E357.35935
G1 X90.834 Y56.492 E357.50243
G1 X91.205 Y55.597 E357.64006
G1 X91.809 Y54.809 E357.78119
G1 X92.597 Y54.205 E357.92233
G1 X93.515 Y53.825 E358.06345
M101 ; extruder on
G1 X94.428 Y53.704 E358.19429 F1800.000
G1 X95.457 Y53.813 E358.34133
G1 X96.403 Y54.205 E358.48669
G1 X97.191 Y54.809 E358.62782
G1 X97.795 Y55.597 E358.76895
G1 X98.175 Y56.515 E358.91008
G1 X98.305 Y57.500 E359.05121
G1 X98.175 Y58.485 E359.19234
G1 X97.795 Y59.403 E359.33347
G1 X97.191 Y60.191 E359.47460
G1 X96.403 Y60.795 E359.61573
G1 X95.519 Y61.161 E359.75165
G1 X94.579 Y61.316 E359.88696
G1 X93.515 Y61.175 E360.03940
G1 X92.597 Y60.795 E360.18053
G1 X92.055 Y60.379 E360.27761
G1 X38.436 Y48.019 F7800.000
M101 ; extruder on
G1 X38.236 Y48.502 E360.35195 F1800.000
G1 X37.917 Y48.917 E360.42628
G1 X37.502 Y49.236 E360.50063
G1 X37.017 Y49.437 E360.57529
G1 X36.484 Y49.502 E360.65157
G1 X35.981 Y49.436 E360.72357
G1 X35.498 Y49.236 E360.79791
G1 X35.083 Y48.917 E360.87226
G1 X34.764 Y48.502 E360.94659
G1 X34.564 Y48.019 E361.02093
G1 X34.496 Y47.500 E361.09527
G1 X34.564 Y46.981 E361.16962
G1 X34.764 Y46.498 E361.24395
G1 X35.083 Y46.083 E361.31828
G1 X35.500 Y45.763 E361.39296
G1 X35.998 Y45.562 E361.46924
M101 ; extruder on
G1 X36.500 Y45.496 E361.54124 F1800.000
G1 X37.019 Y45.564 E361.61558
G1 X37.502 Y45.764 E361.68992
G1 X37.917 Y46.083 E361.76427
G1 X38.236 Y46.498 E361.83860
G1 X38.436 Y46.981 E361.91294
G1 X38.504 Y47.500 E361.98728
G1 X38.446 Y47.944 E362.05097
G1 X38.774 Y48.387 F7800.000
G1 X39.261 Y48.360 F7800.000
M101 ; extruder on
G1 X39.016 Y48.952 E362.14199 F1800.000
G1 X38.554 Y49.554 E362.24971
G1 X37.952 Y50.016 E362.35747
G1 X37.246 Y50.308 E362.46611
G1 X36.480 Y50.402 E362.57578
G1 X35.748 Y50.306 E362.68059
G1 X35.048 Y50.016 E362.78832
G1 X34.446 Y49.554 E362.89608
G1 X33.984 Y48.952 E363.00381
G1 X33.694 Y48.252 E363.11153
G1 X33.595 Y47.500 E363.21927
G1 X33.694 Y46.748 E363.32702
G1 X33.984 Y46.048 E363.43474
G1 X34.446 Y45.446 E363.54247
G1 X35.053 Y44.981 E363.65113
G1 X35.769 Y44.692 E363.76080
M101 ; extruder on
G1 X36.500 Y44.595 E363.86562 F1800.000
G1 X37.252 Y44.694 E363.97335
G1 X37.952 Y44.984 E364.08108
G1 X38.554 Y45.446 E364.18884
G1 X39.016 Y46.048 E364.29656
G1 X39.306 Y46.748 E364.40429
G1 X39.405 Y47.500 E364.51203
G1 X39.289 Y48.291 E364.62563
G1 X40.085 Y48.702 F7800.000
M101 ; extruder on
G1 X39.795 Y49.402 E364.73333 F1800.000
G1 X39.191 Y50.191 E364.87444
G1 X38.402 Y50.795 E365.01561
G1 X37.475 Y51.179 E365.15822
G1 X36.476 Y51.302 E365.30129
G1 X35.515 Y51.175 E365.43892
G1 X34.598 Y50.795 E365.58004
G1 X33.809 Y50.191 E365.72120
G1 X33.205 Y49.402 E365.86232
G1 X32.825 Y48.485 E366.00343
G1 X32.695 Y47.500 E366.14457
G1 X32.825 Y46.515 E366.28572
G1 X33.205 Y45.598 E366.42683
G1 X33.809 Y44.809 E366.56795
G1 X34.606 Y44.198 E366.71060
G1 X35.540 Y43.821 E366.85367
M101 ; extruder on
G1 X36.500 Y43.695 E366.99130 F1800.000
G1 X37.485 Y43.825 E367.13242
G1 X38.402 Y44.205 E367.27354
G1 X39.191 Y44.809 E367.41471
G1 X39.795 Y45.598 E367.55582
G1 X40.175 Y46.515 E367.69694
G1 X40.305 Y47.500 E367.83808
G1 X40.175 Y48.485 E367.97922
G1 X40.114 Y48.633 E368.00198
G1 X37.019 Y65.564 F7800.000
M101 ; extruder on
G1 X37.502 Y65.764 E368.07632 F1800.000
G1 X37.917 Y66.083 E368.15067
G1 X38.236 Y66.498 E368.22500
G1 X38.436 Y66.981 E368.29934
G1 X38.504 Y67.500 E368.37368
G1 X38.436 Y68.019 E368.44802
G1 X38.236 Y68.502 E368.52236
G1 X37.917 Y68.917 E368.59669
G1 X37.502 Y69.236 E368.67104
G1 X37.019 Y69.436 E368.74538
G1 X36.500 Y69.504 E368.81972
G1 X35.981 Y69.436 E368.89405
G1 X35.498 Y69.236 E368.96839
G1 X35.083 Y68.917 E369.04274
G1 X34.764 Y68.502 E369.11708
G1 X34.564 Y68.019 E369.19141
G1 X34.496 Y67.500 E369.26576
G1 X34.564 Y66.981 E369.34010
G1 X34.764 Y66.498 E369.41443
G1 X35.083 Y66.083 E369.48877
G1 X35.500 Y65.763 E369.56344
G1 X35.998 Y65.562 E369.63972
M101 ; extruder on
G1 X36.500 Y65.496 E369.71173 F1800.000
G1 X36.944 Y65.554 E369.77540
G1 X37.387 Y65.226 F7800.000
G1 X37.135 Y64.679 F7800.000
M101 ; extruder on
G1 X37.252 Y64.694 E369.79210 F1800.000
G1 X37.952 Y64.984 E369.89983
G1 X38.554 Y65.446 E370.00759
G1 X39.016 Y66.048 E370.11531
G1 X39.306 Y66.748 E370.22304
G1 X39.405 Y67.500 E370.33078
G1 X39.306 Y68.252 E370.43852
G1 X39.016 Y68.952 E370.54625
G1 X38.554 Y69.554 E370.65397
G1 X37.952 Y70.016 E370.76173
G1 X37.252 Y70.306 E370.86946
G1 X36.500 Y70.405 E370.97719
G1 X35.748 Y70.306 E371.08492
G1 X35.048 Y70.016 E371.19265
G1 X34.446 Y69.554 E371.30041
G1 X33.984 Y68.952 E371.40814
G1 X33.694 Y68.252 E371.51586
G1 X33.595 Y67.500 E371.62360
G1 X33.694 Y66.748 E371.73134
G1 X33.984 Y66.048 E371.83907
G1 X34.446 Y65.446 E371.94679
G1 X35.053 Y64.981 E372.05546
G1 X35.769 Y64.692 E372.16513
M101 ; extruder on
G1 X36.500 Y64.595 E372.26995 F1800.000
G1 X37.061 Y64.669 E372.35032
G1 X37.252 Y63.794 F7800.000
M101 ; extruder on
G1 X37.485 Y63.825 E372.38372 F1800.000
G1 X38.402 Y64.205 E372.52484
G1 X39.191 Y64.809 E372.66600
G1 X39.795 Y65.598 E372.80712
G1 X40.175 Y66.515 E372.94823
G1 X40.305 Y67.500 E373.08938
G1 X40.175 Y68.485 E373.23052
G1 X39.795 Y69.402 E373.37163
G1 X39.191 Y70.191 E373.51275
G1 X38.402 Y70.795 E373.65391
G1 X37.485 Y71.175 E373.79504
G1 X36.500 Y71.305 E373.93616
G1 X35.515 Y71.175 E374.07728
G1 X34.598 Y70.795 E374.21841
G1 X33.809 Y70.191 E374.35957
G1 X33.205 Y69.402 E374.50069
G1 X32.825 Y68.485 E374.64180
G1 X32.695 Y67.500 E374.78294
G1 X32.825 Y66.515 E374.92409
G1 X33.205 Y65.598 E375.06520
G1 X33.809 Y64.809 E375.20632
G1 X34.606 Y64.198 E375.34897
G1 X35.540 Y63.821 E375.49204
M101 ; extruder on
G1 X36.500 Y63.695 E375.62967 F1800.000
G1 X37.177 Y63.784 E375.72674
G1 X28.335 Y67.154 F7800.000
M101 ; extruder on
G1 X41.514 Y80.333 E378.38742 F1800.000
G1 X39.692 Y79.780 E378.65916
G1 X28.335 Y68.422 E380.95210
G1 X28.335 Y69.691 E381.13319
G1 X37.871 Y79.227 E383.05841
G1 X36.049 Y78.674 E383.33015
G1 X28.335 Y70.959 E384.88763
G1 X28.335 Y72.228 E385.06872
G1 X34.228 Y78.121 E386.25847
G1 X32.406 Y77.568 E386.53021
G1 X28.335 Y73.496 E387.35224
G1 X28.335 Y74.765 E387.53332
G1 X30.585 Y77.015 E387.98761
G1 X28.764 Y76.462 E388.25936
G1 X28.335 Y76.033 E388.34591
G1 X28.335 Y53.200 F7800.000
M101 ; extruder on
G1 X38.826 Y63.691 E390.46394 F1800.000
G1 X37.053 Y63.187 E390.72706
G1 X28.335 Y54.469 E392.48718
G1 X28.335 Y55.737 E392.66827
G1 X35.847 Y63.250 E394.18499
G1 X34.884 Y63.555 E394.32926
G1 X28.335 Y57.006 E395.65149
G1 X28.335 Y58.274 E395.83258
G1 X34.072 Y64.011 E396.99084
G1 X33.381 Y64.589 E397.11939
G1 X28.335 Y59.543 E398.13826
G1 X28.335 Y60.811 E398.31935
G1 X32.831 Y65.307 E399.22705
G1 X32.433 Y66.178 E399.36367
G1 X28.335 Y62.080 E400.19096
G1 X28.335 Y63.348 E400.37205
G1 X32.202 Y67.215 E401.15270
G1 X32.250 Y68.532 E401.34084
G1 X28.335 Y64.617 E402.13129
G1 X28.335 Y65.885 E402.31238
G1 X43.335 Y80.886 E405.34078
G1 X45.157 Y81.439 E405.61253
G1 X35.468 Y71.750 E407.56856
G1 X36.785 Y71.798 E407.75670
G1 X46.978 Y81.992 E409.81458
G1 X48.799 Y82.544 E410.08632
G1 X37.822 Y71.567 E412.30247
G1 X38.693 Y71.169 E412.43910
G1 X50.621 Y83.097 E414.84728
G1 X52.442 Y83.650 E415.11902
G1 X39.410 Y70.618 E417.75002
G1 X39.989 Y69.928 E417.87857
