; generated by Slic3r 1.2.9 on 2017-09-18 at 17:33:08

; external perimeters extrusion width = 0.50mm
; perimeters extrusion width = 0.58mm
; infill extrusion width = 0.58mm
; solid infill extrusion width = 0.58mm
; top infill extrusion width = 0.58mm

M127
M109 S220 ; set bed temperature
M104 S220 T0 ; set temperature
G28 ; home all axes
G1 Z5 F5000 ; lift nozzle

M73 P0
G1 Z0.500 F7800.000
G1 E-2.00000 F2400.00000
M103 ; extruder off
G1 X21.912 Y44.115 F7800.000
M101 ; extruder on
G1 E0.00000 F2400.00000
G1 X24.087 Y43.254 E0.33242 F1800.000
G1 X25.500 Y43.107 E0.53420
G1 X114.500 Y43.107 E13.17909
G1 X116.806 Y43.504 E13.51151
M101 ; extruder on
G1 X118.846 Y44.650 E13.84393 F1800.000
G1 X120.385 Y46.412 E14.17634
G1 X121.246 Y48.587 E14.50876
G1 X121.393 Y50.000 E14.71054
G1 X121.393 Y65.000 E16.84170
G1 X120.996 Y67.306 E17.17412
G1 X119.850 Y69.346 E17.50654
G1 X118.088 Y70.885 E17.83896
G1 X115.913 Y71.746 E18.17137
G1 X114.500 Y71.893 E18.37315
G1 X25.500 Y71.893 E31.01805
G1 X23.194 Y71.496 E31.35047
G1 X21.154 Y70.350 E31.68288
G1 X19.615 Y68.588 E32.01530
G1 X18.754 Y66.413 E32.34772
G1 X18.607 Y65.000 E32.54950
G1 X18.607 Y50.000 E34.68066
G1 X19.004 Y47.694 E35.01308
G1 X20.150 Y45.654 E35.34550
G1 X21.855 Y44.164 E35.66726
G1 E33.66726 F2400.00000
M103 ; extruder off
G1 X55.000 Y62.496 F7800.000
M101 ; extruder on
G1 E35.66726 F2400.00000
G1 X34.000 Y62.496 E38.65089 F1800.000
G1 X34.000 Y51.500 E40.21322
G1 X55.000 Y51.500 E43.19684
G1 X55.000 Y62.421 E44.74852
G1 X55.000 Y62.996 F7800.000
G1 X32.215 Y62.715 F7800.000
M101 ; extruder on
G1 X27.785 Y62.715 E45.37781 F1800.000
G1 X27.785 Y52.285 E46.85956
G1 X32.215 Y52.285 E47.48885
G1 X32.215 Y62.640 E48.95995
G1 X33.107 Y63.607 F7800.000
M101 ; extruder on
G1 X26.893 Y63.607 E49.84291 F1800.000
G1 X26.893 Y51.393 E51.57832
G1 X33.107 Y51.393 E52.46128
G1 X33.107 Y63.532 E54.18604
G1 X56.504 Y62.996 F7800.000
G1 X59.500 Y56.000 F7800.000
G1 X63.500 Y56.000 F7800.000
G1 X62.215 Y57.285 F7800.000
M101 ; extruder on
G1 X76.785 Y57.285 E56.25623 F1800.000
G1 X76.785 Y52.285 E56.96661
G1 X81.715 Y52.285 E57.66694
G1 X81.715 Y59.785 E58.73252
G1 X111.385 Y59.785 E62.94807
G1 X111.385 Y52.285 E64.01366
G1 X112.215 Y52.285 E64.13147
G1 X112.215 Y62.715 E65.61322
G1 X56.785 Y62.715 E73.48846
G1 X56.785 Y52.285 E74.97022
G1 X62.215 Y52.285 E75.74158
G1 X62.215 Y57.210 E76.44131
G1 X63.107 Y56.393 F7800.000
M101 ; extruder on
G1 X75.893 Y56.393 E78.25783 F1800.000
G1 X75.893 Y51.393 E78.96822
G1 X82.607 Y51.393 E79.92221
G1 X82.607 Y58.893 E80.98779
G1 X110.493 Y58.893 E84.94968
G1 X110.493 Y51.393 E86.01526
G1 X113.107 Y51.393 E86.38674
G1 X113.107 Y63.607 E88.12216
G1 X55.893 Y63.607 E96.25106
G1 X55.893 Y51.393 E97.98648
G1 X63.107 Y51.393 E99.01151
G1 X63.107 Y56.318 E99.71125
G1 X64.000 Y55.500 F7800.000
M101 ; extruder on
G1 X75.000 Y55.500 E101.27410 F1800.000
G1 X75.000 Y50.500 E101.98449
G1 X83.500 Y50.500 E103.19214
G1 X83.500 Y58.000 E104.25773
G1 X109.600 Y58.000 E107.96595
G1 X109.600 Y50.500 E109.03153
G1 X114.000 Y50.500 E109.65667
G1 X114.000 Y64.500 E111.64575
G1 X26.000 Y64.500 E124.14857
G1 X26.000 Y50.500 E126.13766
G1 X64.000 Y50.500 E131.53660
G1 X64.000 Y55.425 E132.23633
G1 X64.000 Y56.000 F7800.000
G1 X55.446 Y51.000 F7800.000
M101 ; extruder on
G1 X33.554 Y51.000 E135.34679 F1800.000
G1 X31.665 Y53.254 F7800.000
M101 ; extruder on
G1 X31.246 Y52.835 E135.43434 F1800.000
G1 X29.933 Y52.835 E135.62856
G1 X31.665 Y54.567 E135.99078
G1 X31.665 Y55.881 E136.18500
G1 X28.619 Y52.835 E136.82190
G1 X28.335 Y53.864 E136.97979
G1 X31.665 Y57.195 E137.67612
G1 X31.665 Y58.508 E137.87034
G1 X28.335 Y55.178 E138.56666
G1 X28.335 Y56.492 E138.76088
G1 X31.665 Y59.822 E139.45721
G1 X31.665 Y61.136 E139.65143
G1 X28.335 Y57.805 E140.34776
G1 X28.335 Y59.119 E140.54198
G1 X31.381 Y62.165 E141.17887
G1 X30.067 Y62.165 E141.37309
G1 X28.335 Y60.433 E141.73531
G1 X28.335 Y61.746 E141.92954
G1 X28.754 Y62.165 E142.01709
G1 X33.554 Y63.498 F7800.000
M101 ; extruder on
G1 X55.446 Y63.498 E148.61187 F1800.000
G1 X57.754 Y62.165 F7800.000
M101 ; extruder on
G1 X57.335 Y61.746 E148.69762 F1800.000
G1 X57.335 Y60.460 E148.88390
G1 X59.040 Y62.165 E149.23310
G1 X60.327 Y62.165 E149.41938
G1 X57.335 Y59.173 E150.03203
G1 X57.335 Y57.887 E150.21832
G1 X61.613 Y62.165 E151.09441
G1 X62.900 Y62.165 E151.28070
G1 X57.335 Y56.600 E152.42025
G1 X57.335 Y55.314 E152.60653
G1 X64.186 Y62.165 E154.00953
G1 X65.473 Y62.165 E154.19582
G1 X57.335 Y54.027 E155.86227
G1 X57.429 Y52.835 E156.03542
G1 X61.665 Y57.071 E156.90280
G1 X62.429 Y57.835 F7800.000
M101 ; extruder on
G1 X66.760 Y62.165 E157.78952 F1800.000
G1 X68.046 Y62.165 E157.97581
G1 X63.716 Y57.835 E158.86253
G1 X65.002 Y57.835 E159.04882
G1 X69.333 Y62.165 E159.93554
G1 X70.619 Y62.165 E160.12183
G1 X66.289 Y57.835 E161.00855
G1 X67.576 Y57.835 E161.19483
G1 X71.906 Y62.165 E162.08156
G1 X73.193 Y62.165 E162.26784
G1 X68.862 Y57.835 E163.15457
G1 X70.149 Y57.835 E163.34085
G1 X74.479 Y62.165 E164.22757
G1 X75.766 Y62.165 E164.41386
G1 X71.435 Y57.835 E165.30058
G1 X72.722 Y57.835 E165.48687
G1 X77.052 Y62.165 E166.37359
G1 X78.339 Y62.165 E166.55988
G1 X74.009 Y57.835 E167.44660
G1 X75.295 Y57.835 E167.63289
G1 X79.626 Y62.165 E168.51961
G1 X80.912 Y62.165 E168.70590
G1 X76.582 Y57.835 E169.59262
G1 X77.335 Y57.301 F7800.000
M101 ; extruder on
G1 X82.199 Y62.165 E170.58859 F1800.000
G1 X83.485 Y62.165 E170.77488
G1 X81.655 Y60.335 E171.14968
G1 X82.942 Y60.335 E171.33597
G1 X84.772 Y62.165 E171.71077
G1 X86.058 Y62.165 E171.89706
G1 X84.228 Y60.335 E172.27187
G1 X85.515 Y60.335 E172.45815
G1 X87.345 Y62.165 E172.83296
G1 X88.632 Y62.165 E173.01924
G1 X86.801 Y60.335 E173.39405
G1 X88.088 Y60.335 E173.58034
G1 X89.918 Y62.165 E173.95514
G1 X91.205 Y62.165 E174.14143
G1 X89.374 Y60.335 E174.51623
G1 X90.661 Y60.335 E174.70252
G1 X92.491 Y62.165 E175.07732
G1 X93.778 Y62.165 E175.26361
G1 X91.948 Y60.335 E175.63841
G1 X93.234 Y60.335 E175.82470
G1 X95.065 Y62.165 E176.19951
G1 X96.351 Y62.165 E176.38579
G1 X94.521 Y60.335 E176.76060
G1 X95.807 Y60.335 E176.94689
G1 X97.638 Y62.165 E177.32169
G1 X98.924 Y62.165 E177.50798
G1 X97.094 Y60.335 E177.88278
G1 X98.381 Y60.335 E178.06907
G1 X100.211 Y62.165 E178.44387
G1 X101.498 Y62.165 E178.63016
G1 X99.667 Y60.335 E179.00497
G1 X100.954 Y60.335 E179.19125
G1 X102.784 Y62.165 E179.56606
G1 X104.071 Y62.165 E179.75234
G1 X102.240 Y60.335 E180.12715
G1 X103.527 Y60.335 E180.31344
G1 X105.357 Y62.165 E180.68824
G1 X106.644 Y62.165 E180.87453
G1 X104.814 Y60.335 E181.24933
G1 X106.100 Y60.335 E181.43562
G1 X107.930 Y62.165 E181.81042
G1 X109.217 Y62.165 E181.99671
G1 X107.387 Y60.335 E182.37152
G1 X108.673 Y60.335 E182.55780
G1 X110.504 Y62.165 E182.93261
G1 X111.665 Y62.040 E183.10176
G1 X109.960 Y60.335 E183.45096
G1 X111.246 Y60.335 E183.63724
G1 X111.665 Y60.754 E183.72299
G1 X83.000 Y61.250 F7800.000
G1 X78.833 Y58.500 F7800.000
G1 X79.250 Y56.000 F7800.000
G1 X79.250 Y54.750 F7800.000
G1 X80.588 Y52.835 F7800.000
M101 ; extruder on
G1 X81.165 Y53.412 E183.84121 F1800.000
G1 X81.165 Y54.699 E184.02749
G1 X79.301 Y52.835 E184.40916
G1 X78.015 Y52.835 E184.59545
G1 X81.165 Y55.985 E185.24057
G1 X81.165 Y57.272 E185.42686
G1 X77.335 Y53.442 E186.21120
G1 X77.335 Y54.728 F7800.000
M101 ; extruder on
G1 X81.165 Y58.558 E186.99554 F1800.000
G1 X81.165 Y59.845 E187.18183
G1 X77.335 Y56.015 E187.96616
G1 X61.665 Y55.784 F7800.000
M101 ; extruder on
G1 X58.716 Y52.835 E188.57009 F1800.000
G1 X60.002 Y52.835 E188.75638
G1 X61.665 Y54.498 E189.09686
M73 P0
G1 Z0.900 F7800.000
G1 X55.203 Y51.297 F7800.000
M101 ; extruder on
G1 X55.203 Y62.699 E189.80944 F3600.000
G1 X33.797 Y62.699 E191.14725
G1 X33.797 Y51.297 E191.85984
G1 X55.128 Y51.297 E193.19297
G1 X54.750 Y51.750 F7800.000
M101 ; extruder on
G1 X54.750 Y62.246 E193.74646 F1800.000
G1 X34.250 Y62.246 E194.82748
G1 X34.250 Y51.750 E195.38097
G1 X54.675 Y51.750 E196.45803
G1 X55.250 Y51.750 F7800.000
G1 X63.307 Y56.193 F7800.000
M101 ; extruder on
G1 X75.693 Y56.193 E197.23221 F3600.000
G1 X75.693 Y51.193 E197.54471
G1 X82.807 Y51.193 E197.98928
G1 X82.807 Y58.693 E198.45803
G1 X110.293 Y58.693 E200.17596
G1 X110.293 Y51.193 E200.64471
G1 X113.307 Y51.193 E200.83303
G1 X113.307 Y63.807 E201.62136
G1 X26.693 Y63.807 E207.03469
G1 X26.693 Y51.193 E207.82301
G1 X33.307 Y51.193 E208.23634
G1 X33.307 Y63.190 E208.98611
G1 X55.693 Y63.190 E210.38528
G1 X55.693 Y51.193 E211.13505
G1 X63.307 Y51.193 E211.61088
G1 X63.307 Y56.118 E211.91869
G1 X63.797 Y55.703 F7800.000
M101 ; extruder on
G1 X75.203 Y55.703 E212.63151 F3600.000
G1 X75.203 Y50.703 E212.94401
G1 X83.297 Y50.703 E213.44994
G1 X83.297 Y58.203 E213.91869
G1 X109.803 Y58.203 E215.57526
G1 X109.803 Y50.703 E216.04401
G1 X113.797 Y50.703 E216.29369
G1 X113.797 Y64.297 E217.14338
G1 X26.203 Y64.297 E222.61806
G1 X26.203 Y50.703 E223.46775
G1 X63.797 Y50.703 E225.81743
G1 X63.797 Y55.628 E226.12525
G1 X64.250 Y55.250 F7800.000
M101 ; extruder on
G1 X74.750 Y55.250 E226.67894 F1800.000
G1 X74.750 Y50.250 E226.94260
G1 X83.750 Y50.250 E227.41719
G1 X83.750 Y57.750 E227.81268
G1 X109.350 Y57.750 E229.16263
G1 X109.350 Y50.250 E229.55812
G1 X114.250 Y50.250 E229.81651
G1 X114.250 Y64.750 E230.58113
G1 X25.750 Y64.750 E235.24795
G1 X25.750 Y50.250 E236.01257
G1 X64.250 Y50.250 E238.04277
G1 X64.250 Y55.175 E238.30247
G1 X64.250 Y55.750 F7800.000
G1 X55.448 Y51.000 F7800.000
M101 ; extruder on
G1 X33.552 Y51.000 E239.67097 F1200.000
G1 X27.235 Y51.486 F7800.000
M101 ; extruder on
G1 X26.986 Y51.735 E239.69376 F1200.000
G1 X26.986 Y52.456 E239.74061
G1 X27.956 Y51.486 E239.82966
G1 X28.677 Y51.486 E239.87651
G1 X26.986 Y53.177 E240.03181
G1 X26.986 Y53.899 E240.07865
G1 X29.399 Y51.486 E240.30020
G1 X30.120 Y51.486 E240.34705
G1 X26.986 Y54.620 E240.63485
G1 X26.986 Y55.341 E240.68170
G1 X30.841 Y51.486 E241.03575
G1 X31.563 Y51.486 E241.08259
G1 X26.986 Y56.063 E241.50290
G1 X26.986 Y56.784 E241.54974
G1 X32.284 Y51.486 E242.03629
G1 X32.989 Y51.502 E242.08212
G1 X26.986 Y57.505 E242.63345
G1 X26.986 Y58.227 E242.68030
G1 X33.014 Y52.200 E243.23385
G1 X33.014 Y52.921 E243.28069
G1 X26.986 Y58.948 E243.83424
G1 X26.986 Y59.669 E243.88109
G1 X33.014 Y53.642 E244.43463
G1 X33.014 Y54.364 E244.48148
G1 X26.986 Y60.391 E245.03503
G1 X26.986 Y61.112 E245.08187
G1 X33.014 Y55.085 E245.63542
G1 X33.014 Y55.806 E245.68227
G1 X26.986 Y61.833 E246.23581
G1 X26.986 Y62.555 E246.28266
G1 X33.014 Y56.528 E246.83621
G1 X33.014 Y57.249 E246.88305
G1 X26.986 Y63.276 E247.43660
G1 X27.470 Y63.514 E247.47161
G1 X33.014 Y57.970 E247.98070
G1 X33.014 Y58.692 E248.02755
G1 X28.192 Y63.514 E248.47040
G1 X28.913 Y63.514 E248.51724
G1 X33.014 Y59.413 E248.89384
G1 X33.014 Y60.134 E248.94068
G1 X29.634 Y63.514 E249.25103
G1 X30.356 Y63.514 E249.29787
G1 X33.014 Y60.856 E249.54197
G1 X33.014 Y61.577 E249.58881
G1 X31.077 Y63.514 E249.76666
G1 X31.798 Y63.514 E249.81350
G1 X33.014 Y62.298 E249.92510
G1 X32.768 Y63.265 E249.98987
G1 X32.520 Y63.514 E250.01268
G1 X33.061 Y63.498 F7800.000
M101 ; extruder on
G1 X55.939 Y63.498 E251.44253 F1200.000
G1 X56.232 Y63.382 F7800.000
M101 ; extruder on
G1 X63.127 Y56.486 E252.05671 F1200.000
G1 X63.827 Y56.486 E252.10077
G1 X56.800 Y63.514 E252.72668
G1 X57.499 Y63.514 E252.77074
G1 X64.526 Y56.486 E253.39665
G1 X65.226 Y56.486 E253.44071
G1 X58.199 Y63.514 E254.06662
G1 X58.899 Y63.514 E254.11069
G1 X65.926 Y56.486 E254.73660
G1 X66.625 Y56.486 E254.78066
G1 X59.598 Y63.514 E255.40657
G1 X60.298 Y63.514 E255.45063
G1 X67.325 Y56.486 E256.07654
G1 X68.024 Y56.486 E256.12060
G1 X60.997 Y63.514 E256.74651
G1 X61.697 Y63.514 E256.79057
G1 X68.724 Y56.486 E257.41648
G1 X69.423 Y56.486 E257.46055
G1 X62.396 Y63.514 E258.08646
G1 X63.096 Y63.514 E258.13052
G1 X70.123 Y56.486 E258.75643
G1 X70.823 Y56.486 E258.80049
G1 X63.795 Y63.514 E259.42640
G1 X64.495 Y63.514 E259.47046
G1 X71.522 Y56.486 E260.09637
G1 X72.222 Y56.486 E260.14043
G1 X65.195 Y63.514 E260.76634
G1 X65.894 Y63.514 E260.81040
G1 X72.921 Y56.486 E261.43632
G1 X73.621 Y56.486 E261.48038
G1 X66.594 Y63.514 E262.10629
G1 X67.293 Y63.514 E262.15035
G1 X74.320 Y56.486 E262.77626
G1 X75.020 Y56.486 E262.82032
G1 X67.993 Y63.514 E263.44623
G1 X68.692 Y63.514 E263.49029
G1 X75.720 Y56.486 E264.11620
G1 X75.986 Y56.220 F7800.000
M101 ; extruder on
G1 X80.720 Y51.486 E264.53778 F1200.000
G1 X81.419 Y51.486 E264.58184
G1 X69.392 Y63.514 E265.65311
G1 X70.092 Y63.514 E265.69717
G1 X82.119 Y51.486 E266.76844
G1 X82.514 Y51.791 E266.79986
G1 X70.791 Y63.514 E267.84399
G1 X71.491 Y63.514 E267.88805
G1 X82.514 Y52.491 E268.86987
G1 X82.514 Y53.190 E268.91393
G1 X72.190 Y63.514 E269.83344
G1 X72.890 Y63.514 E269.87750
G1 X82.514 Y53.890 E270.73469
G1 X82.514 Y54.589 E270.77875
G1 X73.589 Y63.514 E271.57364
G1 X74.289 Y63.514 E271.61770
G1 X82.514 Y55.289 E272.35027
G1 X82.514 Y55.989 E272.39433
G1 X74.989 Y63.514 E273.06459
G1 X75.688 Y63.514 E273.10865
G1 X82.514 Y56.688 E273.71660
G1 X82.514 Y57.388 E273.76066
G1 X76.388 Y63.514 E274.30630
G1 X77.087 Y63.514 E274.35036
G1 X82.514 Y58.087 E274.83368
G1 X82.514 Y58.787 E274.87774
G1 X77.787 Y63.514 E275.29875
G1 X78.486 Y63.514 E275.34282
G1 X83.013 Y58.986 E275.74605
G1 X83.713 Y58.986 E275.79011
G1 X79.186 Y63.514 E276.19334
G1 X79.886 Y63.514 E276.23740
G1 X84.413 Y58.986 E276.64063
G1 X85.112 Y58.986 E276.68469
G1 X80.585 Y63.514 E277.08792
G1 X81.285 Y63.514 E277.13199
G1 X85.812 Y58.986 E277.53522
G1 X86.511 Y58.986 E277.57928
G1 X81.984 Y63.514 E277.98251
G1 X82.684 Y63.514 E278.02657
G1 X87.211 Y58.986 E278.42980
G1 X87.910 Y58.986 E278.47386
G1 X83.383 Y63.514 E278.87710
G1 X84.083 Y63.514 E278.92116
G1 X88.610 Y58.986 E279.32439
G1 X89.310 Y58.986 E279.36845
G1 X84.783 Y63.514 E279.77168
G1 X85.482 Y63.514 E279.81574
G1 X90.009 Y58.986 E280.21897
G1 X90.709 Y58.986 E280.26303
G1 X86.182 Y63.514 E280.66627
G1 X86.881 Y63.514 E280.71033
G1 X91.408 Y58.986 E281.11356
G1 X92.108 Y58.986 E281.15762
G1 X87.581 Y63.514 E281.56085
G1 X88.280 Y63.514 E281.60491
G1 X92.807 Y58.986 E282.00814
G1 X93.507 Y58.986 E282.05220
G1 X88.980 Y63.514 E282.45544
G1 X89.680 Y63.514 E282.49950
G1 X94.207 Y58.986 E282.90273
G1 X94.906 Y58.986 E282.94679
G1 X90.379 Y63.514 E283.35002
G1 X91.079 Y63.514 E283.39408
G1 X95.606 Y58.986 E283.79731
G1 X96.305 Y58.986 E283.84137
G1 X91.778 Y63.514 E284.24461
G1 X92.478 Y63.514 E284.28867
G1 X97.005 Y58.986 E284.69190
G1 X97.704 Y58.986 E284.73596
G1 X93.177 Y63.514 E285.13919
G1 X93.877 Y63.514 E285.18325
G1 X98.404 Y58.986 E285.58648
G1 X99.104 Y58.986 E285.63054
G1 X94.576 Y63.514 E286.03377
G1 X95.276 Y63.514 E286.07784
G1 X99.803 Y58.986 E286.48107
G1 X100.503 Y58.986 E286.52513
G1 X95.976 Y63.514 E286.92836
G1 X96.675 Y63.514 E286.97242
G1 X101.202 Y58.986 E287.37565
G1 X101.902 Y58.986 E287.41971
G1 X97.375 Y63.514 E287.82294
G1 X98.074 Y63.514 E287.86701
G1 X102.601 Y58.986 E288.27024
G1 X103.301 Y58.986 E288.31430
G1 X98.774 Y63.514 E288.71753
G1 X99.473 Y63.514 E288.76159
G1 X104.001 Y58.986 E289.16482
G1 X104.700 Y58.986 E289.20888
G1 X100.173 Y63.514 E289.61211
G1 X100.873 Y63.514 E289.65618
G1 X105.400 Y58.986 E290.05941
G1 X106.099 Y58.986 E290.10347
G1 X101.572 Y63.514 E290.50670
G1 X102.272 Y63.514 E290.55076
G1 X106.799 Y58.986 E290.95399
G1 X107.498 Y58.986 E290.99805
G1 X102.971 Y63.514 E291.40128
G1 X103.671 Y63.514 E291.44535
G1 X108.198 Y58.986 E291.84858
G1 X108.897 Y58.986 E291.89264
G1 X104.370 Y63.514 E292.29587
G1 X105.070 Y63.514 E292.33993
G1 X109.597 Y58.986 E292.74316
G1 X110.297 Y58.986 F7800.000
M101 ; extruder on
G1 X105.770 Y63.514 E293.14639 F1200.000
G1 X106.469 Y63.514 E293.19045
G1 X113.014 Y56.969 E293.77337
G1 X113.014 Y57.669 E293.81743
G1 X107.169 Y63.514 E294.33804
G1 X107.868 Y63.514 E294.38210
G1 X113.014 Y58.368 E294.84040
G1 X113.014 Y59.068 E294.88446
G1 X108.568 Y63.514 E295.28044
G1 X109.267 Y63.514 E295.32450
G1 X113.014 Y59.767 E295.65818
G1 X113.014 Y60.467 E295.70224
G1 X109.967 Y63.514 E295.97360
G1 X110.667 Y63.514 E296.01766
G1 X113.014 Y61.167 E296.22671
