; generated by Slic3r 1.2.9 on 2017-09-18 at 17:32:52

; external perimeters extrusion width = 0.50mm
; perimeters extrusion width = 0.58mm
; infill extrusion width = 0.58mm
; solid infill extrusion width = 0.58mm
; top infill extrusion width = 0.58mm

M127
M109 S220 ; set bed temperature
M104 S220 T0 ; set temperature
G28 ; home all axes
G1 Z5 F5000 ; lift nozzle

M73 P0
G1 Z0.500 F7800.000
G1 E-2.00000 F2400.00000
M103 ; extruder off
G1 X21.912 Y44.115 F7800.000
M101 ; extruder on
G1 E0.00000 F2400.00000
G1 X24.087 Y43.254 E0.33242 F1800.000
G1 X25.500 Y43.107 E0.53420
G1 X114.500 Y43.107 E13.17909
G1 X116.806 Y43.504 E13.51151
M101 ; extruder on
G1 X118.846 Y44.650 E13.84393 F1800.000
G1 X120.385 Y46.412 E14.17634
G1 X121.246 Y48.587 E14.50876
G1 X121.393 Y50.000 E14.71054
G1 X121.393 Y65.000 E16.84170
G1 X120.996 Y67.306 E17.17412
G1 X119.850 Y69.346 E17.50654
G1 X118.088 Y70.885 E17.83896
G1 X115.913 Y71.746 E18.17137
G1 X114.500 Y71.893 E18.37315
G1 X25.500 Y71.893 E31.01805
G1 X23.194 Y71.496 E31.35047
G1 X21.154 Y70.350 E31.68288
G1 X19.615 Y68.588 E32.01530
G1 X18.754 Y66.413 E32.34772
G1 X18.607 Y65.000 E32.54950
G1 X18.607 Y50.000 E34.68066
G1 X19.004 Y47.694 E35.01308
G1 X20.150 Y45.654 E35.34550
G1 X21.855 Y44.164 E35.66726
G1 E33.66726 F2400.00000
M103 ; extruder off
G1 X55.000 Y63.500 F7800.000
M101 ; extruder on
G1 E35.66726 F2400.00000
G1 X34.000 Y63.500 E38.65089 F1800.000
G1 X34.000 Y52.504 E40.21322
G1 X55.000 Y52.504 E43.19684
G1 X55.000 Y63.425 E44.74852
G1 X55.000 Y64.000 F7800.000
G1 X33.500 Y64.000 F7800.000
G1 X33.500 Y64.000 F7800.000
G1 X33.500 Y64.000 F7800.000
G1 X32.215 Y62.715 F7800.000
M101 ; extruder on
G1 X27.785 Y62.715 E45.37781 F1800.000
G1 X27.785 Y52.285 E46.85956
G1 X32.215 Y52.285 E47.48885
G1 X32.215 Y62.640 E48.95995
G1 X33.107 Y63.607 F7800.000
M101 ; extruder on
G1 X26.893 Y63.607 E49.84291 F1800.000
G1 X26.893 Y51.393 E51.57833
G1 X33.107 Y51.393 E52.46128
G1 X33.107 Y63.532 E54.18604
G1 X33.500 Y64.000 F7800.000
G1 X55.500 Y64.000 F7800.000
G1 X59.500 Y59.000 F7800.000
G1 X63.500 Y59.000 F7800.000
G1 X62.215 Y57.715 F7800.000
M101 ; extruder on
G1 X62.215 Y62.715 E54.89643 F1800.000
G1 X56.785 Y62.715 E55.66780
G1 X56.785 Y52.285 E57.14955
G1 X112.215 Y52.285 E65.02479
G1 X112.215 Y62.715 E66.50655
G1 X111.385 Y62.715 E66.62436
G1 X111.385 Y55.215 E67.68994
G1 X81.715 Y55.215 E71.90549
G1 X81.715 Y62.715 E72.97107
G1 X76.785 Y62.715 E73.67140
G1 X76.785 Y57.715 E74.38179
G1 X62.290 Y57.715 E76.44132
G1 X63.107 Y58.607 F7800.000
M101 ; extruder on
G1 X63.107 Y63.607 E77.15170 F1800.000
G1 X55.893 Y63.607 E78.17673
G1 X55.893 Y51.393 E79.91215
G1 X113.107 Y51.393 E88.04106
G1 X113.107 Y63.607 E89.77648
G1 X110.493 Y63.607 E90.14795
G1 X110.493 Y56.107 E91.21354
G1 X82.607 Y56.107 E95.17542
G1 X82.607 Y63.607 E96.24100
G1 X75.893 Y63.607 E97.19500
G1 X75.893 Y58.607 E97.90538
G1 X63.182 Y58.607 E99.71125
G1 X64.000 Y59.500 F7800.000
M101 ; extruder on
G1 X64.000 Y64.500 E100.42163 F1800.000
G1 X26.000 Y64.500 E105.82058
G1 X26.000 Y50.500 E107.80966
G1 X114.000 Y50.500 E120.31248
G1 X114.000 Y64.500 E122.30156
G1 X109.600 Y64.500 E122.92670
G1 X109.600 Y57.000 E123.99229
G1 X83.500 Y57.000 E127.70051
G1 X83.500 Y64.500 E128.76609
G1 X75.000 Y64.500 E129.97375
G1 X75.000 Y59.500 E130.68413
G1 X64.075 Y59.500 E132.23633
G1 X63.500 Y59.500 F7800.000
G1 X55.446 Y64.000 F7800.000
M101 ; extruder on
G1 X33.554 Y64.000 E135.34679 F1800.000
G1 X28.754 Y62.165 F7800.000
M101 ; extruder on
G1 X28.335 Y61.746 E135.43434 F1800.000
G1 X28.335 Y60.433 E135.62856
G1 X30.067 Y62.165 E135.99078
G1 X31.381 Y62.165 E136.18500
G1 X28.335 Y59.119 E136.82190
G1 X28.335 Y57.805 E137.01612
G1 X31.665 Y61.136 E137.71244
G1 X31.665 Y59.822 E137.90667
G1 X28.335 Y56.492 E138.60299
G1 X28.335 Y55.178 E138.79721
G1 X31.665 Y58.508 E139.49354
G1 X31.665 Y57.195 E139.68776
G1 X28.335 Y53.864 E140.38408
G1 X28.619 Y52.835 E140.54198
G1 X31.665 Y55.881 E141.17887
G1 X31.665 Y54.567 E141.37309
G1 X29.933 Y52.835 E141.73531
G1 X31.246 Y52.835 E141.92954
G1 X31.665 Y53.254 E142.01709
G1 X33.554 Y51.502 F7800.000
M101 ; extruder on
G1 X55.446 Y51.502 E148.61187 F1800.000
G1 X57.754 Y62.165 F7800.000
M101 ; extruder on
G1 X57.335 Y61.746 E148.69732 F1800.000
G1 X57.335 Y60.464 E148.88231
G1 X59.036 Y62.165 E149.22937
G1 X60.318 Y62.165 E149.41437
G1 X57.335 Y59.182 E150.02305
G1 X57.335 Y57.900 E150.20804
G1 X61.600 Y62.165 E151.07834
G1 X61.665 Y60.948 E151.25416
G1 X57.335 Y56.618 E152.13780
G1 X57.335 Y55.336 E152.32279
G1 X61.665 Y59.666 E153.20642
G1 X61.665 Y58.384 E153.39142
G1 X57.335 Y54.054 E154.27505
G1 X57.398 Y52.835 E154.45117
G1 X61.728 Y57.165 E155.33481
G1 X63.010 Y57.165 E155.51980
G1 X58.680 Y52.835 E156.40343
G1 X59.962 Y52.835 E156.58843
G1 X64.293 Y57.165 E157.47206
G1 X65.575 Y57.165 E157.65705
G1 X61.244 Y52.835 E158.54069
G1 X62.526 Y52.835 E158.72568
G1 X66.857 Y57.165 E159.60931
G1 X68.139 Y57.165 E159.79431
G1 X63.808 Y52.835 E160.67794
G1 X65.091 Y52.835 E160.86293
G1 X69.421 Y57.165 E161.74657
G1 X70.703 Y57.165 E161.93156
G1 X66.373 Y52.835 E162.81519
G1 X67.655 Y52.835 E163.00018
G1 X71.985 Y57.165 E163.88382
G1 X73.267 Y57.165 E164.06881
G1 X68.937 Y52.835 E164.95244
G1 X70.219 Y52.835 E165.13744
G1 X74.549 Y57.165 E166.02107
G1 X75.831 Y57.165 E166.20606
G1 X71.501 Y52.835 E167.08970
G1 X72.783 Y52.835 E167.27469
G1 X81.165 Y61.217 E168.98507
G1 X81.165 Y59.935 E169.17006
G1 X74.065 Y52.835 E170.61882
G1 X75.347 Y52.835 E170.80381
G1 X81.165 Y58.653 E171.99095
G1 X81.165 Y57.370 E172.17595
G1 X76.630 Y52.835 E173.10147
G1 X77.912 Y52.835 E173.28646
G1 X81.165 Y56.088 E173.95036
G1 X81.165 Y54.806 E174.13535
G1 X79.194 Y52.835 E174.53763
G1 X80.476 Y52.835 E174.72263
G1 X82.306 Y54.665 E175.09613
G1 X83.588 Y54.665 E175.28112
G1 X81.758 Y52.835 E175.65462
G1 X83.040 Y52.835 E175.83961
G1 X84.870 Y54.665 E176.21311
G1 X86.153 Y54.665 E176.39810
G1 X84.322 Y52.835 E176.77160
G1 X85.604 Y52.835 E176.95659
G1 X87.435 Y54.665 E177.33009
G1 X88.717 Y54.665 E177.51509
G1 X86.886 Y52.835 E177.88859
G1 X88.169 Y52.835 E178.07358
G1 X89.999 Y54.665 E178.44708
G1 X91.281 Y54.665 E178.63207
G1 X89.451 Y52.835 E179.00557
G1 X90.733 Y52.835 E179.19056
G1 X92.563 Y54.665 E179.56406
G1 X93.845 Y54.665 E179.74905
G1 X92.015 Y52.835 E180.12255
G1 X93.297 Y52.835 E180.30755
G1 X95.127 Y54.665 E180.68104
G1 X96.409 Y54.665 E180.86604
G1 X94.579 Y52.835 E181.23954
G1 X95.861 Y52.835 E181.42453
G1 X97.692 Y54.665 E181.79803
G1 X98.974 Y54.665 E181.98302
G1 X97.143 Y52.835 E182.35652
G1 X98.425 Y52.835 E182.54151
G1 X100.256 Y54.665 E182.91501
G1 X101.538 Y54.665 E183.10000
G1 X99.707 Y52.835 E183.47350
G1 X100.990 Y52.835 E183.65849
G1 X102.820 Y54.665 E184.03199
G1 X104.102 Y54.665 E184.21699
G1 X102.272 Y52.835 E184.59049
G1 X103.554 Y52.835 E184.77548
G1 X105.384 Y54.665 E185.14898
G1 X106.666 Y54.665 E185.33397
G1 X104.836 Y52.835 E185.70747
G1 X106.118 Y52.835 E185.89246
G1 X107.948 Y54.665 E186.26596
G1 X109.231 Y54.665 E186.45095
G1 X107.400 Y52.835 E186.82445
G1 X108.682 Y52.835 E187.00944
G1 X110.513 Y54.665 E187.38294
G1 X111.665 Y54.536 E187.55029
G1 X109.964 Y52.835 E187.89736
G1 X111.246 Y52.835 E188.08235
G1 X111.665 Y53.254 E188.16780
G1 X83.000 Y53.750 F7800.000
G1 X78.833 Y56.500 F7800.000
G1 X79.250 Y59.000 F7800.000
G1 X79.250 Y60.250 F7800.000
G1 X80.831 Y62.165 F7800.000
M101 ; extruder on
G1 X77.335 Y58.669 E188.88131 F1800.000
G1 X77.335 Y59.951 E189.06630
G1 X79.549 Y62.165 E189.51819
G1 X78.267 Y62.165 E189.70319
G1 X77.335 Y61.233 E189.89346
M73 P0
G1 Z0.900 F7800.000
G1 E187.89346 F2400.00000
M103 ; extruder off
G1 X55.203 Y63.703 F7800.000
M101 ; extruder on
G1 E189.89346 F2400.00000
G1 X33.797 Y63.703 E191.23128 F3600.000
G1 X33.797 Y52.301 E191.94386
G1 X55.203 Y52.301 E193.28168
G1 X55.203 Y63.628 E193.98957
G1 X54.750 Y63.250 F7800.000
M101 ; extruder on
G1 X34.250 Y63.250 E195.07059 F1800.000
G1 X34.250 Y52.754 E195.62408
G1 X54.750 Y52.754 E196.70510
G1 X54.750 Y63.175 E197.25464
G1 X54.750 Y63.750 F7800.000
G1 X63.307 Y58.807 F7800.000
M101 ; extruder on
G1 X63.307 Y63.807 E197.56714 F3600.000
G1 X55.693 Y63.807 E198.04297
G1 X55.693 Y51.810 E198.79274
G1 X33.307 Y51.810 E200.19191
G1 X33.307 Y63.807 E200.94168
G1 X26.693 Y63.807 E201.35501
G1 X26.693 Y51.193 E202.14333
G1 X113.307 Y51.193 E207.55666
G1 X113.307 Y63.807 E208.34499
G1 X110.293 Y63.807 E208.53331
G1 X110.293 Y56.307 E209.00206
G1 X82.807 Y56.307 E210.71999
G1 X82.807 Y63.807 E211.18874
G1 X75.693 Y63.807 E211.63331
G1 X75.693 Y58.807 E211.94581
G1 X63.382 Y58.807 E212.71530
G1 X63.797 Y59.297 F7800.000
M101 ; extruder on
G1 X63.797 Y64.297 E213.02780 F3600.000
G1 X26.203 Y64.297 E215.37748
G1 X26.203 Y50.703 E216.22717
G1 X113.797 Y50.703 E221.70185
G1 X113.797 Y64.297 E222.55154
G1 X109.803 Y64.297 E222.80123
G1 X109.803 Y56.797 E223.26998
G1 X83.297 Y56.797 E224.92654
G1 X83.297 Y64.297 E225.39529
G1 X75.203 Y64.297 E225.90123
G1 X75.203 Y59.297 E226.21373
G1 X63.872 Y59.297 E226.92185
G1 X64.250 Y59.750 F7800.000
M101 ; extruder on
G1 X64.250 Y64.750 E227.18551 F1800.000
G1 X25.750 Y64.750 E229.21571
G1 X25.750 Y50.250 E229.98033
G1 X114.250 Y50.250 E234.64715
G1 X114.250 Y64.750 E235.41177
G1 X109.350 Y64.750 E235.67016
G1 X109.350 Y57.250 E236.06565
G1 X83.750 Y57.250 E237.41560
G1 X83.750 Y64.750 E237.81109
G1 X74.750 Y64.750 E238.28568
G1 X74.750 Y59.750 E238.54935
G1 X64.325 Y59.750 E239.09908
G1 X63.750 Y59.750 F7800.000
G1 X55.448 Y64.000 F7800.000
M101 ; extruder on
G1 X33.552 Y64.000 E240.46757 F1200.000
G1 X32.765 Y63.514 F7800.000
M101 ; extruder on
G1 X33.014 Y63.265 E240.48977 F1200.000
G1 X33.014 Y62.563 E240.53418
G1 X32.063 Y63.514 E240.61918
G1 X31.361 Y63.514 E240.66358
G1 X33.014 Y61.861 E240.81138
G1 X33.014 Y61.158 E240.85579
G1 X30.658 Y63.514 E241.06639
G1 X29.956 Y63.514 E241.11080
G1 X33.014 Y60.456 E241.38420
G1 X33.014 Y59.754 E241.42860
G1 X29.254 Y63.514 E241.76480
G1 X28.551 Y63.514 E241.80921
G1 X33.014 Y59.051 E242.20821
G1 X33.014 Y58.349 E242.25261
G1 X27.849 Y63.514 E242.71441
G1 X27.147 Y63.514 E242.75882
G1 X33.014 Y57.647 E243.28342
G1 X33.014 Y56.945 E243.32783
G1 X26.986 Y62.972 E243.86676
G1 X26.986 Y62.269 E243.91117
G1 X33.014 Y56.242 E244.45011
G1 X33.014 Y55.540 E244.49451
G1 X26.986 Y61.567 E245.03345
G1 X26.986 Y60.865 E245.07786
G1 X33.014 Y54.838 E245.61680
G1 X33.014 Y54.135 E245.66120
G1 X26.986 Y60.162 E246.20014
G1 X26.986 Y59.460 E246.24455
G1 X33.014 Y53.433 E246.78349
G1 X33.014 Y52.731 E246.82789
G1 X26.986 Y58.758 E247.36683
G1 X26.986 Y58.055 E247.41124
G1 X32.959 Y52.083 E247.94527
G1 X32.768 Y51.572 F7800.000
M101 ; extruder on
G1 X26.986 Y57.353 E248.46226 F1200.000
G1 X26.986 Y56.651 E248.50667
G1 X32.151 Y51.486 E248.96846
G1 X31.449 Y51.486 E249.01287
G1 X26.986 Y55.949 E249.41187
G1 X26.986 Y55.246 E249.45627
G1 X30.746 Y51.486 E249.79247
G1 X30.044 Y51.486 E249.83688
G1 X26.986 Y54.544 E250.11027
G1 X26.986 Y53.842 E250.15468
G1 X29.342 Y51.486 E250.36528
G1 X28.639 Y51.486 E250.40968
G1 X26.986 Y53.139 E250.55748
G1 X26.986 Y52.437 E250.60188
G1 X27.937 Y51.486 E250.68688
G1 X27.235 Y51.486 E250.73129
G1 X26.986 Y51.735 E250.75348
G1 X33.061 Y51.502 F7800.000
M101 ; extruder on
G1 X55.939 Y51.502 E252.18333 F1200.000
G1 X56.480 Y51.486 F7800.000
M101 ; extruder on
G1 X56.232 Y51.735 E252.20536 F1200.000
G1 X55.986 Y52.677 E252.26648
G1 X57.177 Y51.486 E252.37215
G1 X57.874 Y51.486 E252.41590
G1 X55.986 Y53.374 E252.58344
G1 X55.986 Y54.071 E252.62718
G1 X58.571 Y51.486 E252.85659
G1 X59.268 Y51.486 E252.90033
G1 X55.986 Y54.768 E253.19160
G1 X55.986 Y55.465 E253.23535
G1 X59.965 Y51.486 E253.58849
G1 X60.662 Y51.486 E253.63223
G1 X55.986 Y56.162 E254.04724
G1 X55.986 Y56.859 E254.09098
G1 X61.359 Y51.486 E254.56785
G1 X62.057 Y51.486 E254.61160
G1 X55.986 Y57.557 E255.15034
G1 X55.986 Y58.254 E255.19408
G1 X62.754 Y51.486 E255.79469
G1 X63.451 Y51.486 E255.83843
G1 X55.986 Y58.951 E256.50090
G1 X55.986 Y59.648 E256.54465
G1 X64.148 Y51.486 E257.26899
G1 X64.845 Y51.486 E257.31273
G1 X55.986 Y60.345 E258.09894
G1 X55.986 Y61.042 E258.14268
G1 X65.542 Y51.486 E258.99075
G1 X66.239 Y51.486 E259.03450
G1 X55.986 Y61.739 E259.94443
G1 X55.986 Y62.436 E259.98818
G1 X66.936 Y51.486 E260.95998
G1 X67.633 Y51.486 E261.00373
G1 X55.986 Y63.133 E262.03740
G1 X56.303 Y63.514 E262.06846
G1 X68.330 Y51.486 E263.13589
G1 X69.027 Y51.486 E263.17964
G1 X57.000 Y63.514 E264.24707
G1 X63.014 Y63.077 F7800.000
M101 ; extruder on
G1 X62.577 Y63.514 E264.28585 F1200.000
G1 X61.880 Y63.514 E264.32959
G1 X63.014 Y62.380 E264.43023
G1 X63.014 Y61.683 E264.47398
G1 X61.183 Y63.514 E264.63648
G1 X60.485 Y63.514 E264.68023
G1 X63.014 Y60.985 E264.90460
G1 X63.014 Y60.288 E264.94834
G1 X59.788 Y63.514 E265.23458
G1 X59.091 Y63.514 E265.27833
G1 X63.014 Y59.591 E265.62643
G1 X63.014 Y58.894 E265.67018
G1 X58.394 Y63.514 E266.08015
G1 X57.697 Y63.514 E266.12390
G1 X69.724 Y51.486 E267.19133
G1 X70.421 Y51.486 E267.23508
G1 X63.394 Y58.514 E267.85875
G1 X64.091 Y58.514 E267.90249
G1 X71.118 Y51.486 E268.52616
G1 X71.815 Y51.486 E268.56991
G1 X64.788 Y58.514 E269.19358
G1 X65.485 Y58.514 E269.23732
G1 X72.513 Y51.486 E269.86100
G1 X73.210 Y51.486 E269.90474
G1 X66.183 Y58.514 E270.52841
G1 X66.880 Y58.514 E270.57216
G1 X73.907 Y51.486 E271.19583
G1 X74.604 Y51.486 E271.23957
G1 X67.577 Y58.514 E271.86324
G1 X68.274 Y58.514 E271.90699
G1 X75.301 Y51.486 E272.53066
G1 X75.998 Y51.486 E272.57441
G1 X68.971 Y58.514 E273.19808
G1 X69.668 Y58.514 E273.24182
G1 X76.695 Y51.486 E273.86549
G1 X77.392 Y51.486 E273.90924
G1 X70.365 Y58.514 E274.53291
G1 X71.062 Y58.514 E274.57666
G1 X78.089 Y51.486 E275.20033
G1 X78.786 Y51.486 E275.24407
G1 X71.759 Y58.514 E275.86774
G1 X72.456 Y58.514 E275.91149
G1 X79.483 Y51.486 E276.53516
G1 X80.180 Y51.486 E276.57890
G1 X73.153 Y58.514 E277.20258
G1 X73.850 Y58.514 E277.24632
G1 X80.877 Y51.486 E277.86999
G1 X81.574 Y51.486 E277.91374
G1 X74.547 Y58.514 E278.53741
G1 X75.244 Y58.514 E278.58115
G1 X82.271 Y51.486 E279.20482
G1 X82.968 Y51.486 E279.24857
G1 X75.941 Y58.514 E279.87224
G1 X75.986 Y59.166 E279.91326
G1 X83.666 Y51.486 E280.59480
G1 X84.363 Y51.486 E280.63854
G1 X75.986 Y59.863 E281.38195
G1 X75.986 Y60.560 E281.42569
G1 X85.060 Y51.486 E282.23096
G1 X85.757 Y51.486 E282.27471
G1 X75.986 Y61.257 E283.14185
G1 X75.986 Y61.954 E283.18559
G1 X86.454 Y51.486 E284.11460
G1 X87.151 Y51.486 E284.15834
G1 X82.624 Y56.014 E284.56013
G1 X83.321 Y56.014 E284.60388
G1 X87.848 Y51.486 E285.00567
G1 X88.545 Y51.486 E285.04941
G1 X84.018 Y56.014 E285.45120
G1 X84.715 Y56.014 E285.49495
G1 X89.242 Y51.486 E285.89673
G1 X89.939 Y51.486 E285.94048
G1 X85.412 Y56.014 E286.34227
G1 X86.109 Y56.014 E286.38601
G1 X90.636 Y51.486 E286.78780
G1 X91.333 Y51.486 E286.83155
G1 X86.806 Y56.014 E287.23334
G1 X87.503 Y56.014 E287.27708
G1 X92.030 Y51.486 E287.67887
G1 X92.727 Y51.486 E287.72262
G1 X88.200 Y56.014 E288.12440
G1 X88.897 Y56.014 E288.16815
G1 X93.424 Y51.486 E288.56994
G1 X94.121 Y51.486 E288.61368
G1 X89.594 Y56.014 E289.01547
G1 X90.292 Y56.014 E289.05922
G1 X94.819 Y51.486 E289.46101
G1 X95.516 Y51.486 E289.50475
G1 X90.989 Y56.014 E289.90654
G1 X91.686 Y56.014 E289.95029
G1 X96.213 Y51.486 E290.35207
G1 X96.910 Y51.486 E290.39582
G1 X92.383 Y56.014 E290.79761
G1 X93.080 Y56.014 E290.84135
G1 X97.607 Y51.486 E291.24314
G1 X98.304 Y51.486 E291.28689
G1 X93.777 Y56.014 E291.68868
G1 X94.474 Y56.014 E291.73242
G1 X99.001 Y51.486 E292.13421
G1 X99.698 Y51.486 E292.17796
G1 X95.171 Y56.014 E292.57974
G1 X95.868 Y56.014 E292.62349
G1 X100.395 Y51.486 E293.02528
G1 X101.092 Y51.486 E293.06902
G1 X96.565 Y56.014 E293.47081
G1 X97.262 Y56.014 E293.51456
G1 X101.789 Y51.486 E293.91635
G1 X102.486 Y51.486 E293.96009
G1 X97.959 Y56.014 E294.36188
G1 X98.656 Y56.014 E294.40563
G1 X103.183 Y51.486 E294.80741
G1 X103.880 Y51.486 E294.85116
G1 X99.353 Y56.014 E295.25295
G1 X100.050 Y56.014 E295.29669
G1 X104.577 Y51.486 E295.69848
G1 X105.275 Y51.486 E295.74223
G1 X100.747 Y56.014 E296.14402
G1 X101.445 Y56.014 E296.18776
